; HEADER_BLOCK_START
; generated by OrcaSlicer 2.3.1-alpha on 2025-09-10 at 11:42:10
; total layer number: 500
; filament_density: 1
; filament_diameter: 1.75
; max_z_height: 100.00
; HEADER_BLOCK_END

; external perimeters extrusion width = 0.55mm
; perimeters extrusion width = 0.55mm
; infill extrusion width = 0.55mm
; solid infill extrusion width = 0.55mm
; top infill extrusion width = 0.55mm
; first layer extrusion width = 0.55mm

; EXECUTABLE_BLOCK_START
M73 P0 R345
;TYPE:Custom
G90 ; use absolute coordinates
M83 ; extruder relative mode
M140 S60 ; set final bed temp
M104 S150 ; set temporary nozzle temp to prevent oozing during homing
G4 S10 ; allow partial nozzle warmup
G28 ; home all axis
M104 S200 ; set final nozzle temp
M190 S60 ; wait for bed temp to stabilize
M109 S200 ; wait for nozzle temp to stabilize
G1 Z0.28 F240
G92 E0
G1 X2.3 F5000
G92 E0
G92 E0
G90
G21
M83 ; use relative distances for extrusion
; filament start gcode
M900 K0.28; Override pressure advance value
M106 S0 ; disable fan
;LAYER_CHANGE
;Z:0.2
;HEIGHT:0.2
;BEFORE_LAYER_CHANGE
;0.2
G92 E0

G1 E-1.8 F3600 ; retract
;_SET_FAN_SPEED_CHANGING_LAYER
; printing object Cube id:15 copy 0
G1 X60.255 Y61.189 F9000 ; move to first infill point
G1 Z.2 ; move to first infill point
G1 E1.8 F2400 ;  ; unretract
;TYPE:Sparse infill
;WIDTH:0.55
G1 F3600
G1 X117.157 Y159.745 E4.79836 ; infill
G1 E-1.26 ; retract
;WIPE_START
G1 X116.657 Y158.879 E-.54 ; wipe and retract
;WIPE_END
G1 X116.657 Y159.259 F9000
G1 X118.4 Y159.259 ; move to first infill point
G1 X118.4 Y159.745 ; move to first infill point
G1 E1.8 F2400 ;  ; unretract
G1 F3600
G1 X159.745 Y88.134 E3.48651 ; infill
G1 E-1.26 ; retract
;WIPE_START
G1 X159.245 Y89 E-.54 ; wipe and retract
;WIPE_END
G1 X159.259 Y89 F9000
G1 X159.259 Y91.325 ; move to first infill point
G1 X159.745 Y91.325 ; move to first infill point
G1 E1.8 F2400 ;  ; unretract
G1 F3600
G1 X60.255 Y91.325 E4.19488 ; infill
G1 E-1.26 ; retract
;WIPE_START
G1 X61.255 Y91.325 E-.54 ; wipe and retract
;WIPE_END
G1 X60.741 Y91.325 F9000
G1 X60.741 Y88.133 ; move to first infill point
G1 X60.255 Y88.133 ; move to first infill point
G1 E1.8 F2400 ;  ; unretract
G1 F3600
G1 X101.6 Y159.745 E3.48654 ; infill
G1 E-1.26 ; retract
;WIPE_START
G1 X101.1 Y158.879 E-.54 ; wipe and retract
;WIPE_END
G1 X101.1 Y159.259 F9000
G1 X102.844 Y159.259 ; move to first infill point
G1 X102.844 Y159.745 ; move to first infill point
G1 E1.8 F2400 ;  ; unretract
G1 F3600
G1 X159.745 Y61.189 E4.79837 ; infill
G1 E-1.26 ; retract
;WIPE_START
G1 X159.245 Y62.055 E-.54 ; wipe and retract
;WIPE_END
G1 X159.259 Y62.055 F9000
G1 X159.259 Y64.381 ; move to first infill point
G1 X159.745 Y64.381 ; move to first infill point
G1 E1.8 F2400 ;  ; unretract
G1 F3600
G1 X60.255 Y64.381 E4.19488 ; infill
G1 E-1.26 ; retract
;WIPE_START
G1 X61.255 Y64.381 E-.54 ; wipe and retract
;WIPE_END
G1 X60.741 Y64.381 F9000
G1 X60.741 Y60.741 ; move to first infill point
G1 X66.947 Y60.741 ; move to first infill point
G1 X66.947 Y60.255 ; move to first infill point
G1 E1.8 F2400 ;  ; unretract
G1 F3600
G1 X60.255 Y71.845 E.56429 ; infill
G1 E-1.26 ; retract
;WIPE_START
G1 X60.755 Y70.979 E-.54 ; wipe and retract
;WIPE_END
G1 X60.741 Y70.979 F9000
G1 X60.741 Y77.853 ; move to first infill point
G1 X60.255 Y77.853 ; move to first infill point
G1 E1.8 F2400 ;  ; unretract
G1 F3600
G1 X159.745 Y77.853 E4.19488 ; infill
G1 E-1.26 ; retract
;WIPE_START
G1 X158.745 Y77.853 E-.54 ; wipe and retract
;WIPE_END
G1 X159.259 Y77.853 F9000
G1 X159.259 Y71.844 ; move to first infill point
G1 X159.745 Y71.844 ; move to first infill point
G1 E1.8 F2400 ;  ; unretract
G1 F3600
G1 X153.054 Y60.255 E.56422 ; infill
G1 E-1.26 ; retract
;WIPE_START
G1 X153.554 Y61.121 E-.54 ; wipe and retract
;WIPE_END
G1 X153.554 Y60.741 F9000
G1 X129.172 Y60.741 ; move to first infill point
G1 X129.172 Y60.255 ; move to first infill point
G1 E1.8 F2400 ;  ; unretract
G1 F3600
G1 X71.731 Y159.745 E4.84383 ; infill
G1 E-1.26 ; retract
;WIPE_START
G1 X72.231 Y158.879 E-.54 ; wipe and retract
;WIPE_END
G1 X72.231 Y159.259 F9000
G1 X70.488 Y159.259 ; move to first infill point
G1 X70.488 Y159.745 ; move to first infill point
G1 E1.8 F2400 ;  ; unretract
G1 F3600
G1 X60.255 Y142.022 E.86288 ; infill
G1 E-1.26 ; retract
;WIPE_START
G1 X60.755 Y142.888 E-.54 ; wipe and retract
;WIPE_END
G1 X60.741 Y142.888 F9000
G1 X60.741 Y145.214 ; move to first infill point
G1 X60.255 Y145.214 ; move to first infill point
G1 E1.8 F2400 ;  ; unretract
G1 F3600
G1 X159.745 Y145.214 E4.19488 ; infill
G1 E-1.26 ; retract
M73 P0 R344
;WIPE_START
G1 X158.745 Y145.214 E-.54 ; wipe and retract
;WIPE_END
G1 X159.259 Y145.214 F9000
G1 X159.259 Y142.022 ; move to first infill point
G1 X159.745 Y142.022 ; move to first infill point
G1 E1.8 F2400 ;  ; unretract
G1 F3600
G1 X149.513 Y159.745 E.86286 ; infill
G1 E-1.26 ; retract
;WIPE_START
G1 X150.013 Y158.879 E-.54 ; wipe and retract
;WIPE_END
G1 X150.013 Y159.259 F9000
G1 X148.27 Y159.259 ; move to first infill point
G1 X148.27 Y159.745 ; move to first infill point
G1 E1.8 F2400 ;  ; unretract
G1 F3600
G1 X90.828 Y60.255 E4.84384 ; infill
G1 E-1.26 ; retract
;WIPE_START
G1 X91.328 Y61.121 E-.54 ; wipe and retract
;WIPE_END
G1 X91.328 Y60.741 F9000
G1 X98.059 Y60.741 ; move to first infill point
G1 X98.059 Y60.255 ; move to first infill point
G1 E1.8 F2400 ;  ; unretract
G1 F3600
G1 X60.255 Y125.733 E3.1879 ; infill
G1 E-1.26 ; retract
;WIPE_START
G1 X60.755 Y124.867 E-.54 ; wipe and retract
;WIPE_END
G1 X60.741 Y124.867 F9000
G1 X60.741 Y131.742 ; move to first infill point
G1 X60.255 Y131.742 ; move to first infill point
G1 E1.8 F2400 ;  ; unretract
G1 F3600
G1 X159.745 Y131.742 E4.19488 ; infill
G1 E-1.26 ; retract
;WIPE_START
G1 X158.745 Y131.742 E-.54 ; wipe and retract
;WIPE_END
G1 X159.259 Y131.742 F9000
G1 X159.259 Y125.733 ; move to first infill point
G1 X159.745 Y125.733 ; move to first infill point
G1 E1.8 F2400 ;  ; unretract
G1 F3600
G1 X121.941 Y60.255 E3.1879 ; infill
G1 E-1.26 ; retract
;WIPE_START
G1 X122.441 Y61.121 E-.54 ; wipe and retract
;WIPE_END
G1 X122.441 Y60.741 F9000
G1 X113.616 Y60.741 ; move to first infill point
G1 X113.616 Y60.255 ; move to first infill point
G1 E1.8 F2400 ;  ; unretract
G1 F3600
G1 X60.255 Y152.678 E4.49977 ; infill
G1 E-1.26 ; retract
;WIPE_START
G1 X60.755 Y151.812 E-.54 ; wipe and retract
;WIPE_END
G1 X60.741 Y151.812 F9000
G1 X60.741 Y158.686 ; move to first infill point
G1 X60.255 Y158.686 ; move to first infill point
G1 E1.8 F2400 ;  ; unretract
G1 F3600
G1 X159.745 Y158.687 E4.19488 ; infill
G1 E-1.26 ; retract
;WIPE_START
G1 X158.745 Y158.687 E-.54 ; wipe and retract
;WIPE_END
G1 X159.259 Y158.687 F9000
G1 X159.259 Y152.677 ; move to first infill point
G1 X159.745 Y152.677 ; move to first infill point
G1 E1.8 F2400 ;  ; unretract
G1 F3600
G1 X106.385 Y60.255 E4.4997 ; infill
G1 E-1.26 ; retract
;WIPE_START
G1 X106.885 Y61.121 E-.54 ; wipe and retract
;WIPE_END
G1 X106.885 Y60.741 F9000
G1 X82.503 Y60.741 ; move to first infill point
G1 X82.503 Y60.255 ; move to first infill point
G1 E1.8 F2400 ;  ; unretract
G1 F3600
G1 X60.255 Y98.79 E1.87612 ; infill
G1 E-1.26 ; retract
;WIPE_START
G1 X60.755 Y97.924 E-.54 ; wipe and retract
;WIPE_END
G1 X60.741 Y97.924 F9000
G1 X60.741 Y104.797 ; move to first infill point
G1 X60.255 Y104.797 ; move to first infill point
G1 E1.8 F2400 ;  ; unretract
G1 F3600
G1 X159.745 Y104.798 E4.19488 ; infill
G1 E-1.26 ; retract
;WIPE_START
G1 X158.745 Y104.798 E-.54 ; wipe and retract
;WIPE_END
G1 X159.259 Y104.798 F9000
G1 X159.259 Y98.788 ; move to first infill point
G1 X159.745 Y98.788 ; move to first infill point
G1 E1.8 F2400 ;  ; unretract
G1 F3600
G1 X137.498 Y60.255 E1.87605 ; infill
G1 E-1.26 ; retract
;WIPE_START
G1 X137.998 Y61.121 E-.54 ; wipe and retract
;WIPE_END
G1 X137.998 Y60.741 F9000
G1 X144.728 Y60.741 ; move to first infill point
G1 X144.728 Y60.255 ; move to first infill point
G1 E1.8 F2400 ;  ; unretract
G1 F3600
G1 X87.288 Y159.745 E4.84383 ; infill
G1 E-1.26 ; retract
;WIPE_START
G1 X87.788 Y158.879 E-.54 ; wipe and retract
;WIPE_END
G1 X87.788 Y159.259 F9000
G1 X86.044 Y159.259 ; move to first infill point
G1 X86.044 Y159.745 ; move to first infill point
G1 E1.8 F2400 ;  ; unretract
G1 F3600
G1 X60.255 Y115.078 E2.17471 ; infill
G1 E-1.26 ; retract
;WIPE_START
G1 X60.755 Y115.944 E-.54 ; wipe and retract
;WIPE_END
G1 X60.741 Y115.944 F9000
G1 X60.741 Y118.269 ; move to first infill point
G1 X60.255 Y118.269 ; move to first infill point
G1 E1.8 F2400 ;  ; unretract
G1 F3600
G1 X159.745 Y118.27 E4.19488 ; infill
G1 E-1.26 ; retract
;WIPE_START
G1 X158.745 Y118.27 E-.54 ; wipe and retract
;WIPE_END
G1 X159.259 Y118.27 F9000
G1 X159.259 Y115.078 ; move to first infill point
G1 X159.745 Y115.078 ; move to first infill point
G1 E1.8 F2400 ;  ; unretract
G1 F3600
G1 X133.957 Y159.745 E2.17468 ; infill
G1 E-1.26 ; retract
;WIPE_START
G1 X134.457 Y158.879 E-.54 ; wipe and retract
;WIPE_END
G1 X134.457 Y159.259 F9000
G1 X132.713 Y159.259 ; move to first infill point
G1 X132.713 Y159.745 ; move to first infill point
G1 E1.8 F2400 ;  ; unretract
G1 F3600
G1 X75.272 Y60.255 E4.84384 ; infill
; stop printing object Cube id:15 copy 0
M106 S255 ; enable fan
;LAYER_CHANGE
;Z:0.4
;HEIGHT:0.2
;BEFORE_LAYER_CHANGE
;0.4
G92 E0

G1 E-1.26 F3600 ; retract
;WIPE_START
G1 X75.772 Y61.121 E-.54 ; wipe and retract
;WIPE_END
;_SET_FAN_SPEED_CHANGING_LAYER
M140 S55 ; set bed temperature
; printing object Cube id:15 copy 0
G1 X75.772 Y60.741 Z.4 F9000 ; move to first infill point
G1 X75.109 Y60.741 ; move to first infill point
G1 X75.109 Y60.255 ; move to first infill point
G1 E1.8 F2400 ;  ; unretract
G1 F3600
G1 X132.55 Y159.745 E4.84384 ; infill
G1 X132.55 Y159.259 F9000
G1 X134.12 Y159.259 ; move to first infill point
G1 X134.12 Y159.745 ; move to first infill point
G1 F3600
G1 X159.745 Y115.361 E2.16091 ; infill
G1 X159.259 Y115.361 F9000
G1 X159.259 Y118.128 ; move to first infill point
G1 X159.745 Y118.128 ; move to first infill point
G1 F3600
G1 X60.255 Y118.128 E4.19488 ; infill
G1 X60.741 Y118.128 F9000
G1 X60.741 Y115.36 ; move to first infill point
G1 X60.255 Y115.36 ; move to first infill point
G1 F3600
G1 X85.881 Y159.745 E2.16094 ; infill
G1 X85.881 Y159.259 F9000
G1 X87.451 Y159.259 ; move to first infill point
G1 X87.451 Y159.745 ; move to first infill point
G1 F3600
G1 X144.891 Y60.255 E4.84383 ; infill
G1 X144.891 Y60.741 F9000
G1 X137.334 Y60.741 ; move to first infill point
G1 X137.334 Y60.255 ; move to first infill point
G1 F3600
G1 X159.745 Y99.071 E1.88982 ; infill
G1 X159.259 Y99.071 F9000
G1 X159.259 Y104.656 ; move to first infill point
G1 X159.745 Y104.656 ; move to first infill point
G1 F3600
G1 X60.255 Y104.656 E4.19488 ; infill
G1 X60.741 Y104.656 F9000
G1 X60.741 Y99.073 ; move to first infill point
G1 X60.255 Y99.073 ; move to first infill point
G1 F3600
G1 X82.666 Y60.255 E1.88989 ; infill
G1 X82.666 Y60.741 F9000
G1 X67.11 Y60.741 ; move to first infill point
G1 X67.11 Y60.255 ; move to first infill point
G1 F3600
G1 X60.255 Y72.128 E.57806 ; infill
G1 X60.741 Y72.128 F9000
G1 X60.741 Y77.711 ; move to first infill point
G1 X60.255 Y77.711 ; move to first infill point
G1 F3600
G1 X159.745 Y77.712 E4.19488 ; infill
G1 X159.259 Y77.712 F9000
G1 X159.259 Y72.127 ; move to first infill point
G1 X159.745 Y72.127 ; move to first infill point
G1 F3600
G1 X152.891 Y60.255 E.57799 ; infill
G1 X152.891 Y60.741 F9000
G1 X159.259 Y60.741 ; move to first infill point
G1 X159.259 Y61.472 ; move to first infill point
G1 X159.745 Y61.472 ; move to first infill point
G1 F3600
G1 X103.007 Y159.745 E4.7846 ; infill
G1 X103.007 Y159.259 F9000
G1 X101.437 Y159.259 ; move to first infill point
G1 X101.437 Y159.745 ; move to first infill point
G1 F3600
G1 X60.255 Y88.416 E3.47277 ; infill
G1 X60.741 Y88.416 F9000
G1 X60.741 Y91.184 ; move to first infill point
G1 X60.255 Y91.184 ; move to first infill point
G1 F3600
G1 X159.745 Y91.184 E4.19488 ; infill
G1 X159.259 Y91.184 F9000
G1 X159.259 Y88.417 ; move to first infill point
G1 X159.745 Y88.417 ; move to first infill point
G1 F3600
G1 X118.564 Y159.745 E3.47274 ; infill
G1 X118.564 Y159.259 F9000
G1 X116.993 Y159.259 ; move to first infill point
G1 X116.993 Y159.745 ; move to first infill point
G1 F3600
G1 X60.255 Y61.472 E4.78458 ; infill
G1 X60.741 Y61.472 F9000
G1 X60.741 Y64.239 ; move to first infill point
G1 X60.255 Y64.239 ; move to first infill point
G1 F3600
G1 X159.745 Y64.24 E4.19488 ; infill
G1 X159.259 Y64.24 F9000
G1 X159.259 Y60.741 ; move to first infill point
G1 X129.335 Y60.741 ; move to first infill point
G1 X129.335 Y60.255 ; move to first infill point
G1 F3600
G1 X71.894 Y159.745 E4.84383 ; infill
G1 X71.894 Y159.259 F9000
G1 X70.324 Y159.259 ; move to first infill point
G1 X70.324 Y159.745 ; move to first infill point
G1 F3600
G1 X60.255 Y142.305 E.84911 ; infill
G1 X60.741 Y142.305 F9000
G1 X60.741 Y145.072 ; move to first infill point
G1 X60.255 Y145.072 ; move to first infill point
G1 F3600
G1 X159.745 Y145.072 E4.19488 ; infill
G1 X159.259 Y145.072 F9000
M73 P0 R343
G1 X159.259 Y142.305 ; move to first infill point
G1 X159.745 Y142.305 ; move to first infill point
G1 F3600
G1 X149.676 Y159.745 E.84909 ; infill
G1 X149.676 Y159.259 F9000
G1 X148.106 Y159.259 ; move to first infill point
G1 X148.106 Y159.745 ; move to first infill point
G1 F3600
G1 X90.665 Y60.255 E4.84384 ; infill
G1 X90.665 Y60.741 F9000
G1 X98.222 Y60.741 ; move to first infill point
G1 X98.222 Y60.255 ; move to first infill point
G1 F3600
G1 X60.255 Y126.016 E3.20167 ; infill
G1 X60.741 Y126.016 F9000
G1 X60.741 Y131.6 ; move to first infill point
G1 X60.255 Y131.6 ; move to first infill point
G1 F3600
G1 X159.745 Y131.601 E4.19488 ; infill
G1 X159.259 Y131.601 F9000
G1 X159.259 Y126.016 ; move to first infill point
G1 X159.745 Y126.016 ; move to first infill point
G1 F3600
G1 X121.778 Y60.255 E3.20167 ; infill
G1 X121.778 Y60.741 F9000
G1 X113.779 Y60.741 ; move to first infill point
G1 X113.779 Y60.255 ; move to first infill point
G1 F3600
G1 X60.255 Y152.961 E4.51354 ; infill
G1 X60.741 Y152.961 F9000
G1 X60.741 Y158.545 ; move to first infill point
G1 X60.255 Y158.545 ; move to first infill point
G1 F3600
G1 X159.745 Y158.545 E4.19488 ; infill
G1 X159.259 Y158.545 F9000
G1 X159.259 Y152.959 ; move to first infill point
G1 X159.745 Y152.959 ; move to first infill point
G1 F3600
G1 X106.222 Y60.255 E4.51347 ; infill
; stop printing object Cube id:15 copy 0
;LAYER_CHANGE
;Z:0.6
;HEIGHT:0.2
;BEFORE_LAYER_CHANGE
;0.6
G92 E0

G1 E-1.26 F3600 ; retract
;WIPE_START
G1 X106.722 Y61.121 E-.54 ; wipe and retract
;WIPE_END
;_SET_FAN_SPEED_CHANGING_LAYER
; printing object Cube id:15 copy 0
G1 X106.722 Y60.741 Z.6 F9000 ; move to first infill point
G1 X106.058 Y60.741 ; move to first infill point
G1 X106.058 Y60.255 ; move to first infill point
G1 E1.8 F2400 ;  ; unretract
G1 F3600
G1 X159.745 Y153.242 E4.52724 ; infill
G1 X159.259 Y153.242 F9000
G1 X159.259 Y158.404 ; move to first infill point
G1 X159.745 Y158.404 ; move to first infill point
G1 F3600
G1 X60.255 Y158.403 E4.19488 ; infill
G1 X60.741 Y158.403 F9000
G1 X60.741 Y153.244 ; move to first infill point
G1 X60.255 Y153.244 ; move to first infill point
G1 F3600
G1 X113.942 Y60.255 E4.52731 ; infill
G1 X113.942 Y60.741 F9000
G1 X121.615 Y60.741 ; move to first infill point
G1 X121.615 Y60.255 ; move to first infill point
G1 F3600
G1 X159.745 Y126.299 E3.21545 ; infill
G1 X159.259 Y126.299 F9000
G1 X159.259 Y131.459 ; move to first infill point
G1 X159.745 Y131.459 ; move to first infill point
G1 F3600
G1 X60.255 Y131.459 E4.19488 ; infill
G1 X60.741 Y131.459 F9000
G1 X60.741 Y126.299 ; move to first infill point
G1 X60.255 Y126.299 ; move to first infill point
G1 F3600
G1 X98.385 Y60.255 E3.21544 ; infill
G1 X98.385 Y60.741 F9000
G1 X129.498 Y60.741 ; move to first infill point
G1 X129.498 Y60.255 ; move to first infill point
G1 F3600
G1 X72.058 Y159.745 E4.84383 ; infill
G1 X72.058 Y159.259 F9000
