; HEADER_BLOCK_START
; generated by OrcaSlicer 2.3.1-alpha on 2025-09-10 at 11:44:41
; total layer number: 500
; filament_density: 1
; filament_diameter: 1.75
; max_z_height: 100.00
; HEADER_BLOCK_END

; external perimeters extrusion width = 0.25mm
; perimeters extrusion width = 0.55mm
; infill extrusion width = 0.55mm
; solid infill extrusion width = 0.55mm
; top infill extrusion width = 0.55mm
; first layer extrusion width = 0.55mm

; EXECUTABLE_BLOCK_START
M73 P0 R491
;TYPE:Custom
G90 ; use absolute coordinates
M83 ; extruder relative mode
M140 S60 ; set final bed temp
M104 S150 ; set temporary nozzle temp to prevent oozing during homing
G4 S10 ; allow partial nozzle warmup
G28 ; home all axis
M104 S200 ; set final nozzle temp
M190 S60 ; wait for bed temp to stabilize
M109 S200 ; wait for nozzle temp to stabilize
G1 Z0.28 F240
G92 E0
G1 X2.3 F5000
G92 E0
G92 E0
G90
G21
M83 ; use relative distances for extrusion
; filament start gcode
M900 K0.28; Override pressure advance value
M106 S0 ; disable fan
;LAYER_CHANGE
;Z:0.2
;HEIGHT:0.2
;BEFORE_LAYER_CHANGE
;0.2
G92 E0

G1 E-1.8 F3600 ; retract
;_SET_FAN_SPEED_CHANGING_LAYER
; printing object Cube id:15 copy 0
G1 X60.255 Y60.255 F9000 ; move to first infill point
G1 Z.2 ; move to first infill point
G1 E1.8 F2400 ;  ; unretract
;TYPE:Sparse infill
;WIDTH:0.549999
G1 F3600
G1 X159.745 Y60.255 E4.19488 ; infill
G1 X159.745 Y159.745 E4.19488 ; infill
G1 X60.255 Y159.745 E4.19488 ; infill
G1 X60.255 Y60.255 E4.19488 ; infill
G1 E-1.26 ; retract
;WIPE_START
G1 X61.255 Y60.255 E-.54 ; wipe and retract
;WIPE_END
G1 X61.255 Y60.741 F9000
G1 X63.636 Y63.636 ; move to first infill point
G1 E1.8 F2400 ;  ; unretract
G1 F3600
G1 X156.364 Y63.636 E3.9098 ; infill
G1 X156.364 Y156.364 E3.9098 ; infill
G1 X63.636 Y156.364 E3.9098 ; infill
G1 X63.636 Y63.636 E3.9098 ; infill
G1 E-1.26 ; retract
;WIPE_START
G1 X64.636 Y63.636 E-.54 ; wipe and retract
;WIPE_END
G1 X67.016 Y67.016 F9000
G1 E1.8 F2400 ;  ; unretract
G1 F3600
G1 X152.984 Y67.016 E3.62473 ; infill
G1 X152.984 Y152.984 E3.62473 ; infill
G1 X67.016 Y152.984 E3.62473 ; infill
G1 X67.016 Y67.016 E3.62473 ; infill
G1 E-1.26 ; retract
;WIPE_START
G1 X68.016 Y67.016 E-.54 ; wipe and retract
;WIPE_END
G1 X70.397 Y70.397 F9000
G1 E1.8 F2400 ;  ; unretract
G1 F3600
G1 X149.603 Y70.397 E3.33966 ; infill
G1 X149.603 Y149.603 E3.33966 ; infill
G1 X70.397 Y149.603 E3.33966 ; infill
G1 X70.397 Y70.397 E3.33966 ; infill
M73 P0 R490
G1 E-1.26 ; retract
;WIPE_START
G1 X71.397 Y70.397 E-.54 ; wipe and retract
;WIPE_END
G1 X73.777 Y73.777 F9000
G1 E1.8 F2400 ;  ; unretract
G1 F3600
G1 X146.223 Y73.777 E3.05459 ; infill
G1 X146.223 Y146.223 E3.05459 ; infill
G1 X73.777 Y146.223 E3.05459 ; infill
G1 X73.777 Y73.777 E3.05459 ; infill
G1 E-1.26 ; retract
;WIPE_START
G1 X74.777 Y73.777 E-.54 ; wipe and retract
;WIPE_END
G1 X77.158 Y77.158 F9000
G1 E1.8 F2400 ;  ; unretract
G1 F3600
G1 X142.842 Y77.158 E2.76952 ; infill
G1 X142.842 Y142.842 E2.76952 ; infill
G1 X77.158 Y142.842 E2.76952 ; infill
G1 X77.158 Y77.158 E2.76952 ; infill
G1 E-1.26 ; retract
;WIPE_START
G1 X78.158 Y77.158 E-.54 ; wipe and retract
;WIPE_END
G1 X80.538 Y80.538 F9000
G1 E1.8 F2400 ;  ; unretract
G1 F3600
G1 X139.462 Y80.538 E2.48445 ; infill
G1 X139.462 Y139.462 E2.48445 ; infill
G1 X80.538 Y139.462 E2.48445 ; infill
G1 X80.538 Y80.538 E2.48445 ; infill
G1 E-1.26 ; retract
;WIPE_START
G1 X81.538 Y80.538 E-.54 ; wipe and retract
;WIPE_END
G1 X83.919 Y83.919 F9000
G1 E1.8 F2400 ;  ; unretract
G1 F3600
G1 X136.081 Y83.919 E2.19937 ; infill
G1 X136.081 Y136.081 E2.19937 ; infill
G1 X83.919 Y136.081 E2.19937 ; infill
G1 X83.919 Y83.919 E2.19937 ; infill
G1 E-1.26 ; retract
;WIPE_START
G1 X84.919 Y83.919 E-.54 ; wipe and retract
;WIPE_END
G1 X87.299 Y87.299 F9000
G1 E1.8 F2400 ;  ; unretract
G1 F3600
G1 X132.701 Y87.299 E1.9143 ; infill
G1 X132.701 Y132.701 E1.9143 ; infill
G1 X87.299 Y132.701 E1.9143 ; infill
G1 X87.299 Y87.299 E1.9143 ; infill
G1 E-1.26 ; retract
;WIPE_START
G1 X88.299 Y87.299 E-.54 ; wipe and retract
;WIPE_END
G1 X90.68 Y90.68 F9000
G1 E1.8 F2400 ;  ; unretract
G1 F3600
G1 X129.32 Y90.68 E1.62923 ; infill
G1 X129.32 Y129.32 E1.62923 ; infill
G1 X90.68 Y129.32 E1.62923 ; infill
G1 X90.68 Y90.68 E1.62923 ; infill
G1 E-1.26 ; retract
;WIPE_START
G1 X91.68 Y90.68 E-.54 ; wipe and retract
;WIPE_END
G1 X94.06 Y94.06 F9000
G1 E1.8 F2400 ;  ; unretract
G1 F3600
G1 X125.94 Y94.06 E1.34416 ; infill
G1 X125.94 Y125.94 E1.34416 ; infill
G1 X94.06 Y125.94 E1.34416 ; infill
G1 X94.06 Y94.06 E1.34416 ; infill
G1 E-1.26 ; retract
;WIPE_START
G1 X95.06 Y94.06 E-.54 ; wipe and retract
;WIPE_END
G1 X97.441 Y97.441 F9000
G1 E1.8 F2400 ;  ; unretract
G1 F3600
G1 X122.559 Y97.441 E1.05909 ; infill
G1 X122.559 Y122.559 E1.05909 ; infill
G1 X97.441 Y122.559 E1.05909 ; infill
G1 X97.441 Y97.441 E1.05909 ; infill
G1 E-1.26 ; retract
;WIPE_START
G1 X98.441 Y97.441 E-.54 ; wipe and retract
;WIPE_END
G1 X100.821 Y100.821 F9000
G1 E1.8 F2400 ;  ; unretract
G1 F3600
G1 X119.179 Y100.821 E.77402 ; infill
G1 X119.179 Y119.179 E.77402 ; infill
G1 X100.821 Y119.179 E.77402 ; infill
G1 X100.821 Y100.821 E.77402 ; infill
G1 E-1.26 ; retract
;WIPE_START
G1 X101.821 Y100.821 E-.54 ; wipe and retract
;WIPE_END
G1 X104.202 Y104.202 F9000
G1 E1.8 F2400 ;  ; unretract
G1 F3600
G1 X115.798 Y104.202 E.48894 ; infill
G1 X115.798 Y115.798 E.48894 ; infill
G1 X104.202 Y115.798 E.48894 ; infill
G1 X104.202 Y104.202 E.48894 ; infill
G1 E-1.26 ; retract
;WIPE_START
G1 X105.202 Y104.202 E-.54 ; wipe and retract
;WIPE_END
G1 X107.582 Y107.582 F9000
G1 E1.8 F2400 ;  ; unretract
G1 F3600
G1 X112.418 Y107.582 E.20387 ; infill
G1 X112.418 Y112.418 E.20387 ; infill
G1 X107.582 Y112.418 E.20387 ; infill
G1 X107.582 Y107.582 E.20387 ; infill
; stop printing object Cube id:15 copy 0
M106 S255 ; enable fan
;LAYER_CHANGE
;Z:0.4
;HEIGHT:0.2
;BEFORE_LAYER_CHANGE
;0.4
G92 E0

G1 E-1.26 F3600 ; retract
;WIPE_START
G1 X108.582 Y107.582 E-.54 ; wipe and retract
;WIPE_END
;_SET_FAN_SPEED_CHANGING_LAYER
M140 S55 ; set bed temperature
; printing object Cube id:15 copy 0
G1 X108.582 Y60.255 Z.4 F9000 ; move to first infill point
G1 E1.8 F2400 ;  ; unretract
G1 F3600
G1 X159.745 Y60.255 E2.15721 ; infill
G1 X159.745 Y159.745 E4.19488 ; infill
G1 X60.255 Y159.745 E4.19488 ; infill
G1 X60.255 Y60.255 E4.19488 ; infill
G1 X108.582 Y60.255 E2.03766 ; infill
G1 X108.582 Y63.636 F9000
G1 F3600
G1 X156.364 Y63.636 E2.01467 ; infill
G1 X156.364 Y156.364 E3.9098 ; infill
G1 X63.636 Y156.364 E3.9098 ; infill
G1 X63.636 Y63.636 E3.9098 ; infill
G1 X108.582 Y63.636 E1.89513 ; infill
G1 X108.582 Y67.016 F9000
G1 F3600
G1 X152.984 Y67.016 E1.87214 ; infill
G1 X152.984 Y152.984 E3.62473 ; infill
G1 X67.016 Y152.984 E3.62473 ; infill
G1 X67.016 Y67.016 E3.62473 ; infill
G1 X108.582 Y67.016 E1.75259 ; infill
G1 X108.582 Y70.397 F9000
G1 F3600
G1 X149.603 Y70.397 E1.7296 ; infill
G1 X149.603 Y149.603 E3.33966 ; infill
G1 X70.397 Y149.603 E3.33966 ; infill
G1 X70.397 Y70.397 E3.33966 ; infill
M73 P0 R489
G1 X108.582 Y70.397 E1.61006 ; infill
G1 X108.582 Y73.777 F9000
G1 F3600
G1 X146.223 Y73.777 E1.58707 ; infill
G1 X146.223 Y146.223 E3.05459 ; infill
G1 X73.777 Y146.223 E3.05459 ; infill
G1 X73.777 Y73.777 E3.05459 ; infill
G1 X108.582 Y73.777 E1.46752 ; infill
G1 X108.582 Y77.158 F9000
G1 F3600
G1 X142.842 Y77.158 E1.44453 ; infill
G1 X142.842 Y142.842 E2.76952 ; infill
G1 X77.158 Y142.842 E2.76952 ; infill
G1 X77.158 Y77.158 E2.76952 ; infill
G1 X108.582 Y77.158 E1.32499 ; infill
G1 X108.582 Y80.538 F9000
G1 F3600
G1 X139.462 Y80.538 E1.302 ; infill
G1 X139.462 Y139.462 E2.48445 ; infill
G1 X80.538 Y139.462 E2.48445 ; infill
G1 X80.538 Y80.538 E2.48445 ; infill
G1 X108.582 Y80.538 E1.18245 ; infill
G1 X108.582 Y83.919 F9000
G1 F3600
G1 X136.081 Y83.919 E1.15946 ; infill
G1 X136.081 Y136.081 E2.19937 ; infill
G1 X83.919 Y136.081 E2.19937 ; infill
G1 X83.919 Y83.919 E2.19937 ; infill
G1 X108.582 Y83.919 E1.03991 ; infill
G1 X108.582 Y87.299 F9000
G1 F3600
G1 X132.701 Y87.299 E1.01692 ; infill
G1 X132.701 Y132.701 E1.9143 ; infill
G1 X87.299 Y132.701 E1.9143 ; infill
G1 X87.299 Y87.299 E1.9143 ; infill
G1 X108.582 Y87.299 E.89738 ; infill
G1 X108.582 Y90.68 F9000
G1 F3600
G1 X129.32 Y90.68 E.87439 ; infill
G1 X129.32 Y129.32 E1.62923 ; infill
G1 X90.68 Y129.32 E1.62923 ; infill
G1 X90.68 Y90.68 E1.62923 ; infill
G1 X108.582 Y90.68 E.75484 ; infill
G1 X108.582 Y94.06 F9000
G1 F3600
G1 X125.94 Y94.06 E.73185 ; infill
G1 X125.94 Y125.94 E1.34416 ; infill
G1 X94.06 Y125.94 E1.34416 ; infill
G1 X94.06 Y94.06 E1.34416 ; infill
G1 X108.582 Y94.06 E.61231 ; infill
G1 X108.582 Y97.441 F9000
G1 F3600
G1 X122.559 Y97.441 E.58932 ; infill
G1 X122.559 Y122.559 E1.05909 ; infill
G1 X97.441 Y122.559 E1.05909 ; infill
G1 X97.441 Y97.441 E1.05909 ; infill
G1 X108.582 Y97.441 E.46977 ; infill
G1 X108.582 Y100.821 F9000
G1 F3600
G1 X119.179 Y100.821 E.44678 ; infill
G1 X119.179 Y119.179 E.77402 ; infill
G1 X100.821 Y119.179 E.77402 ; infill
G1 X100.821 Y100.821 E.77402 ; infill
G1 X108.582 Y100.821 E.32724 ; infill
G1 X108.582 Y104.202 F9000
G1 F3600
G1 X115.798 Y104.202 E.30425 ; infill
G1 X115.798 Y115.798 E.48894 ; infill
G1 X104.202 Y115.798 E.48894 ; infill
G1 X104.202 Y104.202 E.48894 ; infill
G1 X108.582 Y104.202 E.1847 ; infill
G1 X108.582 Y107.582 F9000
G1 F3600
G1 X112.418 Y107.582 E.16171 ; infill
G1 X112.418 Y112.418 E.20387 ; infill
G1 X107.582 Y112.418 E.20387 ; infill
G1 X107.582 Y107.582 E.20387 ; infill
G1 X108.582 Y107.582 E.04216 ; infill
; stop printing object Cube id:15 copy 0
;LAYER_CHANGE
;Z:0.6
;HEIGHT:0.2
;BEFORE_LAYER_CHANGE
;0.6
G92 E0

G1 E-1.26 F3600 ; retract
;WIPE_START
G1 X109.582 Y107.582 E-.54 ; wipe and retract
;WIPE_END
;_SET_FAN_SPEED_CHANGING_LAYER
; printing object Cube id:15 copy 0
G1 X109.582 Y60.255 Z.6 F9000 ; move to first infill point
G1 E1.8 F2400 ;  ; unretract
G1 F3600
G1 X159.745 Y60.255 E2.11505 ; infill
G1 X159.745 Y159.745 E4.19488 ; infill
G1 X60.255 Y159.745 E4.19488 ; infill
G1 X60.255 Y60.255 E4.19488 ; infill
G1 X109.582 Y60.255 E2.07983 ; infill
G1 X109.582 Y63.636 F9000
G1 F3600
G1 X156.364 Y63.636 E1.97251 ; infill
G1 X156.364 Y156.364 E3.9098 ; infill
G1 X63.636 Y156.364 E3.9098 ; infill
G1 X63.636 Y63.636 E3.9098 ; infill
G1 X109.582 Y63.636 E1.93729 ; infill
G1 X109.582 Y67.016 F9000
G1 F3600
G1 X152.984 Y67.016 E1.82997 ; infill
G1 X152.984 Y152.984 E3.62473 ; infill
G1 X67.016 Y152.984 E3.62473 ; infill
G1 X67.016 Y67.016 E3.62473 ; infill
G1 X109.582 Y67.016 E1.79476 ; infill
G1 X109.582 Y70.397 F9000
G1 F3600
G1 X149.603 Y70.397 E1.68744 ; infill
G1 X149.603 Y149.603 E3.33966 ; infill
G1 X70.397 Y149.603 E3.33966 ; infill
G1 X70.397 Y70.397 E3.33966 ; infill
G1 X109.582 Y70.397 E1.65222 ; infill
M73 P0 R488
G1 X109.582 Y73.777 F9000
G1 F3600
G1 X146.223 Y73.777 E1.5449 ; infill
G1 X146.223 Y146.223 E3.05459 ; infill
G1 X73.777 Y146.223 E3.05459 ; infill
G1 X73.777 Y73.777 E3.05459 ; infill
G1 X109.582 Y73.777 E1.50969 ; infill
G1 X109.582 Y77.158 F9000
G1 F3600
G1 X142.842 Y77.158 E1.40237 ; infill
G1 X142.842 Y142.842 E2.76952 ; infill
G1 X77.158 Y142.842 E2.76952 ; infill
G1 X77.158 Y77.158 E2.76952 ; infill
G1 X109.582 Y77.158 E1.36715 ; infill
G1 X109.582 Y80.538 F9000
G1 F3600
G1 X139.462 Y80.538 E1.25983 ; infill
G1 X139.462 Y139.462 E2.48445 ; infill
G1 X80.538 Y139.462 E2.48445 ; infill
G1 X80.538 Y80.538 E2.48445 ; infill
G1 X109.582 Y80.538 E1.22461 ; infill
G1 X109.582 Y83.919 F9000
G1 F3600
G1 X136.081 Y83.919 E1.1173 ; infill
G1 X136.081 Y136.081 E2.19937 ; infill
G1 X83.919 Y136.081 E2.19937 ; infill
G1 X83.919 Y83.919 E2.19937 ; infill
G1 X109.582 Y83.919 E1.08208 ; infill
G1 X109.582 Y87.299 F9000
G1 F3600
G1 X132.701 Y87.299 E.97476 ; infill
G1 X132.701 Y132.701 E1.9143 ; infill
G1 X87.299 Y132.701 E1.9143 ; infill
G1 X87.299 Y87.299 E1.9143 ; infill
G1 X109.582 Y87.299 E.93954 ; infill
G1 X109.582 Y90.68 F9000
G1 F3600
G1 X129.32 Y90.68 E.83222 ; infill
G1 X129.32 Y129.32 E1.62923 ; infill
G1 X90.68 Y129.32 E1.62923 ; infill
G1 X90.68 Y90.68 E1.62923 ; infill
G1 X109.582 Y90.68 E.79701 ; infill
G1 X109.582 Y94.06 F9000
G1 F3600
G1 X125.94 Y94.06 E.68969 ; infill
G1 X125.94 Y125.94 E1.34416 ; infill
G1 X94.06 Y125.94 E1.34416 ; infill
G1 X94.06 Y94.06 E1.34416 ; infill
G1 X109.582 Y94.06 E.65447 ; infill
G1 X109.582 Y97.441 F9000
G1 F3600
G1 X122.559 Y97.441 E.54715 ; infill
G1 X122.559 Y122.559 E1.05909 ; infill
G1 X97.441 Y122.559 E1.05909 ; infill
G1 X97.441 Y97.441 E1.05909 ; infill
G1 X109.582 Y97.441 E.51194 ; infill
G1 X109.582 Y100.821 F9000
G1 F3600
G1 X119.179 Y100.821 E.40462 ; infill
G1 X119.179 Y119.179 E.77402 ; infill
G1 X100.821 Y119.179 E.77402 ; infill
G1 X100.821 Y100.821 E.77402 ; infill
G1 X109.582 Y100.821 E.3694 ; infill
G1 X109.582 Y104.202 F9000
G1 F3600
G1 X115.798 Y104.202 E.26208 ; infill
G1 X115.798 Y115.798 E.48894 ; infill
G1 X104.202 Y115.798 E.48894 ; infill
G1 X104.202 Y104.202 E.48894 ; infill
G1 X109.582 Y104.202 E.22686 ; infill
G1 X109.582 Y107.582 F9000
G1 F3600
G1 X112.418 Y107.582 E.11955 ; infill
G1 X112.418 Y112.418 E.20387 ; infill
G1 X107.582 Y112.418 E.20387 ; infill
G1 X107.582 Y107.582 E.20387 ; infill
G1 X109.582 Y107.582 E.08433 ; infill
; stop printing object Cube id:15 copy 0
;LAYER_CHANGE
;Z:0.8
;HEIGHT:0.2
;BEFORE_LAYER_CHANGE
;0.8
G92 E0

G1 E-1.26 F3600 ; retract
;WIPE_START
G1 X110.582 Y107.582 E-.54 ; wipe and retract
;WIPE_END
;_SET_FAN_SPEED_CHANGING_LAYER
; printing object Cube id:15 copy 0
G1 X110.582 Y60.255 Z.8 F9000 ; move to first infill point
G1 E1.8 F2400 ;  ; unretract
G1 F3600
G1 X159.745 Y60.255 E2.07288 ; infill
G1 X159.745 Y159.745 E4.19488 ; infill
G1 X60.255 Y159.745 E4.19488 ; infill
G1 X60.255 Y60.255 E4.19488 ; infill
G1 X110.582 Y60.255 E2.12199 ; infill
G1 X110.582 Y63.636 F9000
G1 F3600
G1 X156.364 Y63.636 E1.93035 ; infill
G1 X156.364 Y156.364 E3.9098 ; infill
G1 X63.636 Y156.364 E3.9098 ; infill
G1 X63.636 Y63.636 E3.9098 ; infill
G1 X110.582 Y63.636 E1.97946 ; infill
G1 X110.582 Y67.016 F9000
G1 F3600
G1 X152.984 Y67.016 E1.78781 ; infill
G1 X152.984 Y152.984 E3.62473 ; infill
G1 X67.016 Y152.984 E3.62473 ; infill
G1 X67.016 Y67.016 E3.62473 ; infill
G1 X110.582 Y67.016 E1.83692 ; infill
G1 X110.582 Y70.397 F9000
G1 F3600
G1 X149.603 Y70.397 E1.64528 ; infill
G1 X149.603 Y149.603 E3.33966 ; infill
G1 X70.397 Y149.603 E3.33966 ; infill
G1 X70.397 Y70.397 E3.33966 ; infill
G1 X110.582 Y70.397 E1.69439 ; infill
G1 X110.582 Y73.777 F9000
M73 P0 R487
G1 F3600
G1 X146.223 Y73.777 E1.50274 ; infill
G1 X146.223 Y146.223 E3.05459 ; infill
G1 X73.777 Y146.223 E3.05459 ; infill
G1 X73.777 Y73.777 E3.05459 ; infill
G1 X110.582 Y73.777 E1.55185 ; infill
G1 X110.582 Y77.158 F9000
G1 F3600
G1 X142.842 Y77.158 E1.3602 ; infill
G1 X142.842 Y142.842 E2.76952 ; infill
G1 X77.158 Y142.842 E2.76952 ; infill
G1 X77.158 Y77.158 E2.76952 ; infill
G1 X110.582 Y77.158 E1.40931 ; infill
G1 X110.582 Y80.538 F9000
G1 F3600
G1 X139.462 Y80.538 E1.21767 ; infill
G1 X139.462 Y139.462 E2.48445 ; infill
G1 X80.538 Y139.462 E2.48445 ; infill
G1 X80.538 Y80.538 E2.48445 ; infill
G1 X110.582 Y80.538 E1.26678 ; infill
G1 X110.582 Y83.919 F9000
G1 F3600
G1 X136.081 Y83.919 E1.07513 ; infill
G1 X136.081 Y136.081 E2.19937 ; infill
G1 X83.919 Y136.081 E2.19937 ; infill
G1 X83.919 Y83.919 E2.19937 ; infill
G1 X110.582 Y83.919 E1.12424 ; infill
G1 X110.582 Y87.299 F9000
G1 F3600
G1 X132.701 Y87.299 E.9326 ; infill
G1 X132.701 Y132.701 E1.9143 ; infill
G1 X87.299 Y132.701 E1.9143 ; infill
G1 X87.299 Y87.299 E1.9143 ; infill
G1 X110.582 Y87.299 E.98171 ; infill
G1 X110.582 Y90.68 F9000
G1 F3600
G1 X129.32 Y90.68 E.79006 ; infill
G1 X129.32 Y129.32 E1.62923 ; infill
G1 X90.68 Y129.32 E1.62923 ; infill
G1 X90.68 Y90.68 E1.62923 ; infill
G1 X110.582 Y90.68 E.83917 ; infill
G1 X110.582 Y94.06 F9000
G1 F3600
G1 X125.94 Y94.06 E.64753 ; infill
G1 X125.94 Y125.94 E1.34416 ; infill
G1 X94.06 Y125.94 E1.34416 ; infill
G1 X94.06 Y94.06 E1.34416 ; infill
G1 X110.582 Y94.06 E.69663 ; infill
G1 X110.582 Y97.441 F9000
G1 F3600
