; HEADER_BLOCK_START
; generated by OrcaSlicer 2.3.1-alpha on 2025-09-10 at 11:42:04
; total layer number: 500
; filament_density: 1
; filament_diameter: 1.75
; max_z_height: 100.00
; HEADER_BLOCK_END

; external perimeters extrusion width = 0.55mm
; perimeters extrusion width = 0.55mm
; infill extrusion width = 0.55mm
; solid infill extrusion width = 0.55mm
; top infill extrusion width = 0.55mm
; first layer extrusion width = 0.55mm

; EXECUTABLE_BLOCK_START
M73 P0 R496
;TYPE:Custom
G90 ; use absolute coordinates
M83 ; extruder relative mode
M140 S60 ; set final bed temp
M104 S150 ; set temporary nozzle temp to prevent oozing during homing
G4 S10 ; allow partial nozzle warmup
G28 ; home all axis
M104 S200 ; set final nozzle temp
M190 S60 ; wait for bed temp to stabilize
M109 S200 ; wait for nozzle temp to stabilize
G1 Z0.28 F240
G92 E0
G1 X2.3 F5000
G92 E0
G92 E0
G90
G21
M83 ; use relative distances for extrusion
; filament start gcode
M900 K0.28; Override pressure advance value
M106 S0 ; disable fan
;LAYER_CHANGE
;Z:0.2
;HEIGHT:0.2
;BEFORE_LAYER_CHANGE
;0.2
G92 E0

G1 E-1.8 F3600 ; retract
;_SET_FAN_SPEED_CHANGING_LAYER
; printing object Cube id:15 copy 0
G1 X60.455 Y60.255 F9000 ; move to first infill point
G1 Z.2 ; move to first infill point
G1 E1.8 F2400 ;  ; unretract
;TYPE:Sparse infill
;WIDTH:0.55
G1 F3600
G1 X159.745 Y159.545 E5.92053 ; infill
G1 X159.259 Y159.259 F9000
G1 X159.521 Y159.745 ; move to first infill point
G1 F3600
G1 X159.745 Y158.907 E.03656 ; infill
G1 E-1.26 ; retract
;WIPE_START
G1 X159.521 Y159.745 E-.54 ; wipe and retract
;WIPE_END
G1 X159.259 Y159.259 F9000
G1 X159.259 Y138.815 ; move to first infill point
G1 X159.745 Y138.815 ; move to first infill point
G1 E1.8 F2400 ;  ; unretract
G1 F3600
G1 X81.632 Y159.745 E3.40973 ; infill
G1 E-1.26 ; retract
;WIPE_START
G1 X82.598 Y159.486 E-.54 ; wipe and retract
;WIPE_END
G1 X82.598 Y159.259 F9000
G1 X96.524 Y159.259 ; move to first infill point
G1 X96.524 Y159.745 ; move to first infill point
G1 E1.8 F2400 ;  ; unretract
G1 F3600
G1 X123.183 Y60.255 E4.34286 ; infill
G1 E-1.26 ; retract
;WIPE_START
G1 X122.924 Y61.221 E-.54 ; wipe and retract
;WIPE_END
G1 X122.924 Y60.741 F9000
G1 X61.093 Y60.741 ; move to first infill point
G1 X61.093 Y60.255 ; move to first infill point
G1 E1.8 F2400 ;  ; unretract
G1 F3600
G1 X60.255 Y60.479 E.03656 ; infill
G1 E-1.26 ; retract
;WIPE_START
G1 X61.093 Y60.255 E-.54 ; wipe and retract
;WIPE_END
G1 X61.093 Y60.741 F9000
G1 X60.741 Y60.741 ; move to first infill point
G1 X60.741 Y81.478 ; move to first infill point
G1 X60.255 Y81.478 ; move to first infill point
G1 E1.8 F2400 ;  ; unretract
G1 F3600
G1 X139.461 Y60.255 E3.45743 ; infill
G1 E-1.26 ; retract
;WIPE_START
G1 X138.495 Y60.514 E-.54 ; wipe and retract
;WIPE_END
G1 X138.495 Y60.741 F9000
G1 X154.681 Y60.741 ; move to first infill point
G1 X154.681 Y60.255 ; move to first infill point
G1 E1.8 F2400 ;  ; unretract
G1 F3600
G1 X128.023 Y159.745 E4.34286 ; infill
G1 E-1.26 ; retract
;WIPE_START
G1 X128.281 Y158.779 E-.54 ; wipe and retract
;WIPE_END
G1 X128.281 Y159.259 F9000
G1 X131.26 Y159.259 ; move to first infill point
G1 X131.26 Y159.745 ; move to first infill point
G1 E1.8 F2400 ;  ; unretract
G1 F3600
G1 X60.255 Y88.74 E4.23395 ; infill
G1 E-1.26 ; retract
;WIPE_START
G1 X60.962 Y89.447 E-.54 ; wipe and retract
;WIPE_END
G1 X60.741 Y89.447 F9000
G1 X60.741 Y91.977 ; move to first infill point
G1 X60.255 Y91.977 ; move to first infill point
G1 E1.8 F2400 ;  ; unretract
G1 F3600
G1 X159.745 Y65.319 E4.34286 ; infill
G1 E-1.26 ; retract
;WIPE_START
G1 X158.779 Y65.578 E-.54 ; wipe and retract
;WIPE_END
G1 X159.259 Y65.578 F9000
G1 X159.259 Y73.491 ; move to first infill point
G1 X159.745 Y73.491 ; move to first infill point
G1 E1.8 F2400 ;  ; unretract
G1 F3600
G1 X146.509 Y60.255 E.78923 ; infill
G1 E-1.26 ; retract
;WIPE_START
G1 X147.216 Y60.962 E-.54 ; wipe and retract
;WIPE_END
G1 X147.216 Y60.741 F9000
G1 X144.181 Y60.741 ; move to first infill point
G1 X144.181 Y60.255 ; move to first infill point
G1 E1.8 F2400 ;  ; unretract
G1 F3600
G1 X117.523 Y159.745 E4.34286 ; infill
G1 X117.523 Y159.259 F9000
G1 X116.918 Y159.259 ; move to first infill point
G1 X116.918 Y159.745 ; move to first infill point
G1 F3600
G1 X60.255 Y103.082 E3.37873 ; infill
G1 X60.741 Y103.082 F9000
G1 X60.741 Y102.477 ; move to first infill point
G1 X60.255 Y102.477 ; move to first infill point
G1 F3600
G1 X159.745 Y75.819 E4.34286 ; infill
G1 E-1.26 ; retract
;WIPE_START
G1 X158.779 Y76.077 E-.54 ; wipe and retract
;WIPE_END
G1 X159.259 Y76.077 F9000
G1 X159.259 Y80.539 ; move to first infill point
G1 X159.745 Y80.539 ; move to first infill point
G1 E1.8 F2400 ;  ; unretract
G1 F3600
G1 X138.522 Y159.745 E3.45743 ; infill
G1 E-1.26 ; retract
;WIPE_START
G1 X138.781 Y158.779 E-.54 ; wipe and retract
;WIPE_END
G1 X138.781 Y159.259 F9000
G1 X120.816 Y159.259 ; move to first infill point
G1 X120.816 Y159.745 ; move to first infill point
G1 E1.8 F2400 ;  ; unretract
G1 F3600
G1 X159.745 Y149.314 E1.6993 ; infill
G1 E-1.26 ; retract
;WIPE_START
G1 X158.779 Y149.573 E-.54 ; wipe and retract
;WIPE_END
G1 X159.259 Y149.573 F9000
G1 X159.259 Y145.203 ; move to first infill point
G1 X159.745 Y145.203 ; move to first infill point
G1 E1.8 F2400 ;  ; unretract
G1 F3600
G1 X74.797 Y60.255 E5.06531 ; infill
G1 E-1.26 ; retract
M73 P0 R495
;WIPE_START
G1 X75.504 Y60.962 E-.54 ; wipe and retract
;WIPE_END
G1 X75.504 Y60.741 F9000
G1 X70.686 Y60.741 ; move to first infill point
G1 X70.686 Y60.255 ; move to first infill point
G1 E1.8 F2400 ;  ; unretract
G1 F3600
G1 X60.255 Y99.184 E1.6993 ; infill
G1 E-1.26 ; retract
;WIPE_START
G1 X60.514 Y98.218 E-.54 ; wipe and retract
;WIPE_END
G1 X60.741 Y98.218 F9000
G1 X60.741 Y112.976 ; move to first infill point
G1 X60.255 Y112.976 ; move to first infill point
G1 E1.8 F2400 ;  ; unretract
G1 F3600
G1 X159.745 Y86.318 E4.34286 ; infill
G1 E-1.26 ; retract
;WIPE_START
G1 X158.779 Y86.577 E-.54 ; wipe and retract
;WIPE_END
G1 X159.259 Y86.577 F9000
G1 X159.259 Y87.833 ; move to first infill point
G1 X159.745 Y87.833 ; move to first infill point
G1 E1.8 F2400 ;  ; unretract
G1 F3600
G1 X132.167 Y60.255 E1.64445 ; infill
G1 E-1.26 ; retract
;WIPE_START
G1 X132.874 Y60.962 E-.54 ; wipe and retract
;WIPE_END
G1 X132.874 Y60.741 F9000
G1 X133.682 Y60.741 ; move to first infill point
G1 X133.682 Y60.255 ; move to first infill point
G1 E1.8 F2400 ;  ; unretract
G1 F3600
G1 X107.024 Y159.745 E4.34286 ; infill
G1 E-1.26 ; retract
;WIPE_START
G1 X107.283 Y158.779 E-.54 ; wipe and retract
;WIPE_END
G1 X107.283 Y159.259 F9000
G1 X102.575 Y159.259 ; move to first infill point
G1 X102.575 Y159.745 ; move to first infill point
G1 E1.8 F2400 ;  ; unretract
G1 F3600
G1 X60.255 Y117.425 E2.52351 ; infill
G1 E-1.26 ; retract
;WIPE_START
G1 X60.962 Y118.132 E-.54 ; wipe and retract
;WIPE_END
G1 X60.741 Y118.132 F9000
G1 X60.741 Y123.476 ; move to first infill point
G1 X60.255 Y123.476 ; move to first infill point
G1 E1.8 F2400 ;  ; unretract
G1 F3600
G1 X159.745 Y96.817 E4.34286 ; infill
G1 E-1.26 ; retract
;WIPE_START
G1 X158.779 Y97.076 E-.54 ; wipe and retract
;WIPE_END
G1 X159.259 Y97.076 F9000
G1 X159.259 Y102.175 ; move to first infill point
G1 X159.745 Y102.175 ; move to first infill point
G1 E1.8 F2400 ;  ; unretract
G1 F3600
G1 X117.825 Y60.255 E2.49966 ; infill
G1 E-1.26 ; retract
;WIPE_START
G1 X118.532 Y60.962 E-.54 ; wipe and retract
;WIPE_END
G1 X118.532 Y60.741 F9000
G1 X112.683 Y60.741 ; move to first infill point
G1 X112.683 Y60.255 ; move to first infill point
G1 E1.8 F2400 ;  ; unretract
G1 F3600
G1 X86.025 Y159.745 E4.34286 ; infill
G1 E-1.26 ; retract
;WIPE_START
G1 X86.284 Y158.779 E-.54 ; wipe and retract
;WIPE_END
G1 X86.284 Y159.259 F9000
G1 X88.233 Y159.259 ; move to first infill point
G1 X88.233 Y159.745 ; move to first infill point
G1 E1.8 F2400 ;  ; unretract
G1 F3600
G1 X60.255 Y131.767 E1.6683 ; infill
G1 E-1.26 ; retract
;WIPE_START
G1 X60.962 Y132.474 E-.54 ; wipe and retract
;WIPE_END
G1 X60.741 Y132.474 F9000
G1 X60.741 Y133.975 ; move to first infill point
G1 X60.255 Y133.975 ; move to first infill point
G1 E1.8 F2400 ;  ; unretract
G1 F3600
G1 X159.745 Y107.317 E4.34286 ; infill
G1 E-1.26 ; retract
;WIPE_START
G1 X158.779 Y107.575 E-.54 ; wipe and retract
;WIPE_END
G1 X159.259 Y107.575 F9000
G1 X159.259 Y119.723 ; move to first infill point
G1 X159.745 Y119.723 ; move to first infill point
G1 E1.8 F2400 ;  ; unretract
G1 F3600
G1 X149.021 Y159.745 E1.747 ; infill
G1 E-1.26 ; retract
;WIPE_START
G1 X149.28 Y158.779 E-.54 ; wipe and retract
;WIPE_END
G1 X149.28 Y159.259 F9000
G1 X145.603 Y159.259 ; move to first infill point
G1 X145.603 Y159.745 ; move to first infill point
G1 E1.8 F2400 ;  ; unretract
G1 F3600
G1 X60.255 Y74.397 E5.08917 ; infill
G1 E-1.26 ; retract
;WIPE_START
G1 X60.962 Y75.104 E-.54 ; wipe and retract
;WIPE_END
G1 X60.741 Y75.104 F9000
G1 X60.741 Y70.979 ; move to first infill point
G1 X60.255 Y70.979 ; move to first infill point
G1 E1.8 F2400 ;  ; unretract
G1 F3600
G1 X100.277 Y60.255 E1.747 ; infill
G1 E-1.26 ; retract
;WIPE_START
G1 X99.311 Y60.514 E-.54 ; wipe and retract
;WIPE_END
G1 X99.311 Y60.741 F9000
G1 X81.185 Y60.741 ; move to first infill point
G1 X81.185 Y60.255 ; move to first infill point
G1 E1.8 F2400 ;  ; unretract
G1 F3600
G1 X60.255 Y138.368 E3.40973 ; infill
G1 E-1.26 ; retract
;WIPE_START
G1 X60.514 Y137.402 E-.54 ; wipe and retract
;WIPE_END
G1 X60.741 Y137.402 F9000
G1 X60.741 Y144.474 ; move to first infill point
G1 X60.255 Y144.474 ; move to first infill point
G1 E1.8 F2400 ;  ; unretract
G1 F3600
G1 X159.745 Y117.816 E4.34286 ; infill
G1 E-1.26 ; retract
;WIPE_START
G1 X158.779 Y118.075 E-.54 ; wipe and retract
;WIPE_END
G1 X159.259 Y118.075 F9000
G1 X159.259 Y116.518 ; move to first infill point
G1 X159.745 Y116.518 ; move to first infill point
G1 E1.8 F2400 ;  ; unretract
G1 F3600
G1 X103.482 Y60.255 E3.35488 ; infill
G1 E-1.26 ; retract
;WIPE_START
G1 X104.189 Y60.962 E-.54 ; wipe and retract
;WIPE_END
G1 X104.189 Y60.741 F9000
G1 X102.184 Y60.741 ; move to first infill point
G1 X102.184 Y60.255 ; move to first infill point
G1 E1.8 F2400 ;  ; unretract
G1 F3600
G1 X75.526 Y159.745 E4.34286 ; infill
G1 E-1.26 ; retract
;WIPE_START
G1 X75.785 Y158.779 E-.54 ; wipe and retract
;WIPE_END
G1 X75.785 Y159.259 F9000
G1 X73.891 Y159.259 ; move to first infill point
G1 X73.891 Y159.745 ; move to first infill point
G1 E1.8 F2400 ;  ; unretract
G1 F3600
G1 X60.255 Y146.109 E.81308 ; infill
G1 E-1.26 ; retract
;WIPE_START
G1 X60.962 Y146.816 E-.54 ; wipe and retract
;WIPE_END
G1 X60.741 Y146.816 F9000
G1 X60.741 Y154.974 ; move to first infill point
G1 X60.255 Y154.974 ; move to first infill point
G1 E1.8 F2400 ;  ; unretract
G1 F3600
G1 X159.745 Y128.315 E4.34286 ; infill
G1 E-1.26 ; retract
;WIPE_START
G1 X158.779 Y128.574 E-.54 ; wipe and retract
;WIPE_END
G1 X159.259 Y128.574 F9000
G1 X159.259 Y130.86 ; move to first infill point
G1 X159.745 Y130.86 ; move to first infill point
G1 E1.8 F2400 ;  ; unretract
G1 F3600
G1 X89.14 Y60.255 E4.2101 ; infill
G1 E-1.26 ; retract
;WIPE_START
G1 X89.847 Y60.962 E-.54 ; wipe and retract
;WIPE_END
G1 X89.847 Y60.741 F9000
G1 X91.685 Y60.741 ; move to first infill point
G1 X91.685 Y60.255 ; move to first infill point
G1 E1.8 F2400 ;  ; unretract
G1 F3600
G1 X65.026 Y159.745 E4.34286 ; infill
; stop printing object Cube id:15 copy 0
M106 S255 ; enable fan
;LAYER_CHANGE
;Z:0.4
;HEIGHT:0.2
;BEFORE_LAYER_CHANGE
;0.4
G92 E0

G1 E-1.26 F3600 ; retract
;WIPE_START
G1 X65.285 Y158.779 E-.54 ; wipe and retract
;WIPE_END
;_SET_FAN_SPEED_CHANGING_LAYER
M140 S55 ; set bed temperature
; printing object Cube id:15 copy 0
G1 X65.285 Y159.259 Z.4 F9000 ; move to first infill point
G1 X64.88 Y159.259 ; move to first infill point
G1 X64.88 Y159.745 ; move to first infill point
G1 E1.8 F2400 ;  ; unretract
G1 F3600
G1 X91.538 Y60.255 E4.34286 ; infill
G1 X91.538 Y60.741 F9000
G1 X89.34 Y60.741 ; move to first infill point
G1 X89.34 Y60.255 ; move to first infill point
G1 F3600
G1 X159.745 Y130.66 E4.19817 ; infill
G1 X159.259 Y130.66 F9000
G1 X159.259 Y128.462 ; move to first infill point
G1 X159.745 Y128.462 ; move to first infill point
G1 F3600
G1 X60.255 Y155.12 E4.34286 ; infill
G1 X60.741 Y155.12 F9000
G1 X60.741 Y137.822 ; move to first infill point
G1 X60.255 Y137.822 ; move to first infill point
G1 F3600
G1 X81.039 Y60.255 E3.38588 ; infill
G1 X81.039 Y60.741 F9000
G1 X159.259 Y60.741 ; move to first infill point
G1 X159.259 Y107.463 ; move to first infill point
G1 X159.745 Y107.463 ; move to first infill point
G1 F3600
G1 X60.255 Y134.121 E4.34286 ; infill
G1 X60.741 Y134.121 F9000
G1 X60.741 Y131.567 ; move to first infill point
G1 X60.255 Y131.567 ; move to first infill point
G1 F3600
G1 X88.433 Y159.745 E1.68022 ; infill
G1 X88.433 Y159.259 F9000
G1 X85.879 Y159.259 ; move to first infill point
G1 X85.879 Y159.745 ; move to first infill point
G1 F3600
G1 X112.537 Y60.255 E4.34286 ; infill
G1 X112.537 Y60.741 F9000
G1 X103.682 Y60.741 ; move to first infill point
G1 X103.682 Y60.255 ; move to first infill point
G1 F3600
G1 X159.745 Y116.318 E3.34295 ; infill
G1 X159.259 Y116.318 F9000
G1 X159.259 Y138.961 ; move to first infill point
G1 X159.745 Y138.961 ; move to first infill point
G1 F3600
G1 X82.178 Y159.745 E3.38588 ; infill
G1 X82.178 Y159.259 F9000
G1 X96.378 Y159.259 ; move to first infill point
G1 X96.378 Y159.745 ; move to first infill point
G1 F3600
G1 X123.036 Y60.255 E4.34286 ; infill
G1 X123.036 Y60.741 F9000
G1 X118.025 Y60.741 ; move to first infill point
G1 X118.025 Y60.255 ; move to first infill point
G1 F3600
G1 X159.745 Y101.975 E2.48774 ; infill
G1 X159.259 Y101.975 F9000
G1 X159.259 Y96.964 ; move to first infill point
G1 X159.745 Y96.964 ; move to first infill point
G1 F3600
G1 X60.255 Y123.622 E4.34286 ; infill
G1 X60.741 Y123.622 F9000
G1 X60.741 Y117.225 ; move to first infill point
G1 X60.255 Y117.225 ; move to first infill point
G1 F3600
M73 P0 R494
G1 X102.775 Y159.745 E2.53544 ; infill
G1 X102.775 Y159.259 F9000
G1 X106.877 Y159.259 ; move to first infill point
G1 X106.877 Y159.745 ; move to first infill point
G1 F3600
G1 X133.536 Y60.255 E4.34286 ; infill
G1 X133.536 Y60.741 F9000
G1 X132.367 Y60.741 ; move to first infill point
G1 X132.367 Y60.255 ; move to first infill point
G1 F3600
G1 X159.745 Y87.633 E1.63252 ; infill
G1 X159.259 Y87.633 F9000
G1 X159.259 Y86.464 ; move to first infill point
G1 X159.745 Y86.464 ; move to first infill point
G1 F3600
G1 X60.255 Y113.123 E4.34286 ; infill
G1 X60.741 Y113.123 F9000
G1 X60.741 Y98.638 ; move to first infill point
G1 X60.255 Y98.638 ; move to first infill point
G1 F3600
G1 X70.54 Y60.255 E1.67544 ; infill
G1 X70.54 Y60.741 F9000
G1 X74.997 Y60.741 ; move to first infill point
G1 X74.997 Y60.255 ; move to first infill point
G1 F3600
G1 X159.745 Y145.003 E5.05339 ; infill
G1 X159.259 Y145.003 F9000
G1 X159.259 Y149.46 ; move to first infill point
G1 X159.745 Y149.46 ; move to first infill point
G1 F3600
G1 X121.362 Y159.745 E1.67544 ; infill
G1 X121.362 Y159.259 F9000
G1 X138.375 Y159.259 ; move to first infill point
G1 X138.375 Y159.745 ; move to first infill point
G1 F3600
G1 X159.745 Y79.993 E3.48128 ; infill
G1 X159.259 Y79.993 F9000
G1 X159.259 Y75.965 ; move to first infill point
G1 X159.745 Y75.965 ; move to first infill point
G1 F3600
G1 X60.255 Y102.623 E4.34286 ; infill
G1 X60.741 Y102.623 F9000
G1 X60.741 Y102.882 ; move to first infill point
G1 X60.255 Y102.882 ; move to first infill point
G1 F3600
G1 X117.118 Y159.745 E3.39066 ; infill
G1 X117.118 Y159.259 F9000
G1 X117.377 Y159.259 ; move to first infill point
G1 X117.377 Y159.745 ; move to first infill point
G1 F3600
G1 X144.035 Y60.255 E4.34286 ; infill
G1 X144.035 Y60.741 F9000
G1 X146.709 Y60.741 ; move to first infill point
G1 X146.709 Y60.255 ; move to first infill point
G1 F3600
G1 X159.745 Y73.291 E.7773 ; infill
G1 X159.259 Y73.291 F9000
G1 X159.259 Y65.466 ; move to first infill point
