; HEADER_BLOCK_START
; generated by OrcaSlicer 2.3.1-alpha on 2025-09-10 at 11:44:05
; total layer number: 500
; filament_density: 1
; filament_diameter: 1.75
; max_z_height: 100.00
; HEADER_BLOCK_END

; external perimeters extrusion width = 0.25mm
; perimeters extrusion width = 0.55mm
; infill extrusion width = 0.55mm
; solid infill extrusion width = 0.55mm
; top infill extrusion width = 0.55mm
; first layer extrusion width = 0.55mm

; EXECUTABLE_BLOCK_START
M73 P0 R483
;TYPE:Custom
G90 ; use absolute coordinates
M83 ; extruder relative mode
M140 S60 ; set final bed temp
M104 S150 ; set temporary nozzle temp to prevent oozing during homing
G4 S10 ; allow partial nozzle warmup
G28 ; home all axis
M104 S200 ; set final nozzle temp
M190 S60 ; wait for bed temp to stabilize
M109 S200 ; wait for nozzle temp to stabilize
G1 Z0.28 F240
G92 E0
G1 X2.3 F5000
G92 E0
G92 E0
G90
G21
M83 ; use relative distances for extrusion
; filament start gcode
M900 K0.28; Override pressure advance value
M106 S0 ; disable fan
;LAYER_CHANGE
;Z:0.2
;HEIGHT:0.2
;BEFORE_LAYER_CHANGE
;0.2
G92 E0

G1 E-1.8 F3600 ; retract
;_SET_FAN_SPEED_CHANGING_LAYER
; printing object Cube id:15 copy 0
G1 X60.255 Y63.846 F9000 ; move to first infill point
G1 Z.2 ; move to first infill point
G1 E1.8 F2400 ;  ; unretract
;TYPE:Sparse infill
;WIDTH:0.55
G1 F3600
G1 X63.846 Y60.255 E.21415 ; infill
G1 X63.846 Y60.741 F9000
G1 X64.412 Y60.741 ; move to first infill point
G1 X64.412 Y60.255 ; move to first infill point
G1 F3600
G1 X60.255 Y64.412 E.24788 ; infill
G1 E-1.26 ; retract
;WIPE_START
G1 X60.962 Y63.705 E-.54 ; wipe and retract
;WIPE_END
G1 X60.741 Y63.705 F9000
G1 X60.741 Y60.741 ; move to first infill point
G1 X73.408 Y60.741 ; move to first infill point
G1 X73.408 Y60.255 ; move to first infill point
G1 E1.8 F2400 ;  ; unretract
G1 F3600
G1 X60.255 Y73.408 E.78429 ; infill
G1 X60.741 Y73.408 F9000
G1 X60.741 Y73.974 ; move to first infill point
G1 X60.255 Y73.974 ; move to first infill point
G1 F3600
G1 X73.974 Y60.255 E.81802 ; infill
G1 E-1.26 ; retract
;WIPE_START
G1 X73.266 Y60.962 E-.54 ; wipe and retract
;WIPE_END
G1 X73.266 Y60.741 F9000
G1 X82.969 Y60.741 ; move to first infill point
G1 X82.969 Y60.255 ; move to first infill point
G1 E1.8 F2400 ;  ; unretract
G1 F3600
G1 X60.255 Y82.969 E1.35443 ; infill
G1 X60.741 Y82.969 F9000
G1 X60.741 Y83.535 ; move to first infill point
G1 X60.255 Y83.535 ; move to first infill point
G1 F3600
G1 X83.535 Y60.255 E1.38817 ; infill
G1 E-1.26 ; retract
;WIPE_START
G1 X82.828 Y60.962 E-.54 ; wipe and retract
;WIPE_END
G1 X82.828 Y60.741 F9000
G1 X102.093 Y60.741 ; move to first infill point
G1 X102.093 Y60.255 ; move to first infill point
G1 E1.8 F2400 ;  ; unretract
G1 F3600
G1 X60.255 Y102.093 E2.49472 ; infill
G1 X60.741 Y102.093 F9000
G1 X60.741 Y102.658 ; move to first infill point
G1 X60.255 Y102.658 ; move to first infill point
G1 F3600
G1 X102.658 Y60.255 E2.52846 ; infill
G1 E-1.26 ; retract
;WIPE_START
G1 X101.951 Y60.962 E-.54 ; wipe and retract
;WIPE_END
G1 X101.951 Y60.741 F9000
G1 X111.654 Y60.741 ; move to first infill point
G1 X111.654 Y60.255 ; move to first infill point
G1 E1.8 F2400 ;  ; unretract
G1 F3600
G1 X60.255 Y111.654 E3.06487 ; infill
G1 X60.741 Y111.654 F9000
G1 X60.741 Y112.22 ; move to first infill point
G1 X60.255 Y112.22 ; move to first infill point
G1 F3600
G1 X112.22 Y60.255 E3.0986 ; infill
G1 E-1.26 ; retract
;WIPE_START
G1 X111.513 Y60.962 E-.54 ; wipe and retract
M73 P0 R482
;WIPE_END
G1 X111.513 Y60.741 F9000
G1 X140.339 Y60.741 ; move to first infill point
G1 X140.339 Y60.255 ; move to first infill point
G1 E1.8 F2400 ;  ; unretract
G1 F3600
G1 X60.255 Y140.339 E4.7753 ; infill
G1 X60.741 Y140.339 F9000
G1 X60.741 Y140.905 ; move to first infill point
G1 X60.255 Y140.905 ; move to first infill point
G1 F3600
G1 X140.905 Y60.255 E4.80903 ; infill
G1 E-1.26 ; retract
;WIPE_START
G1 X140.198 Y60.962 E-.54 ; wipe and retract
;WIPE_END
G1 X140.198 Y60.741 F9000
G1 X159.259 Y60.741 ; move to first infill point
G1 X159.259 Y79.095 ; move to first infill point
G1 X159.745 Y79.095 ; move to first infill point
G1 E1.8 F2400 ;  ; unretract
G1 F3600
G1 X79.095 Y159.745 E4.80903 ; infill
G1 X79.095 Y159.259 F9000
G1 X79.661 Y159.259 ; move to first infill point
G1 X79.661 Y159.745 ; move to first infill point
G1 F3600
G1 X159.745 Y79.661 E4.7753 ; infill
G1 E-1.26 ; retract
;WIPE_START
G1 X159.038 Y80.368 E-.54 ; wipe and retract
;WIPE_END
G1 X159.259 Y80.368 F9000
G1 X159.259 Y98.219 ; move to first infill point
G1 X159.745 Y98.219 ; move to first infill point
G1 E1.8 F2400 ;  ; unretract
G1 F3600
G1 X98.218 Y159.745 E3.66874 ; infill
G1 X98.218 Y159.259 F9000
G1 X98.784 Y159.259 ; move to first infill point
G1 X98.784 Y159.745 ; move to first infill point
G1 F3600
G1 X159.745 Y98.784 E3.63501 ; infill
G1 E-1.26 ; retract
;WIPE_START
G1 X159.038 Y99.491 E-.54 ; wipe and retract
;WIPE_END
G1 X159.259 Y99.491 F9000
G1 X159.259 Y126.903 ; move to first infill point
G1 X159.745 Y126.903 ; move to first infill point
G1 E1.8 F2400 ;  ; unretract
G1 F3600
G1 X126.903 Y159.745 E1.95831 ; infill
G1 X126.903 Y159.259 F9000
G1 X127.469 Y159.259 ; move to first infill point
G1 X127.469 Y159.745 ; move to first infill point
G1 F3600
G1 X159.745 Y127.469 E1.92458 ; infill
G1 E-1.26 ; retract
;WIPE_START
G1 X159.038 Y128.176 E-.54 ; wipe and retract
;WIPE_END
G1 X159.259 Y128.176 F9000
G1 X159.259 Y146.026 ; move to first infill point
G1 X159.745 Y146.026 ; move to first infill point
G1 E1.8 F2400 ;  ; unretract
G1 F3600
G1 X146.026 Y159.745 E.81802 ; infill
G1 X146.026 Y159.259 F9000
G1 X146.592 Y159.259 ; move to first infill point
G1 X146.592 Y159.745 ; move to first infill point
G1 F3600
G1 X159.745 Y146.592 E.78429 ; infill
G1 E-1.26 ; retract
;WIPE_START
G1 X159.038 Y147.299 E-.54 ; wipe and retract
;WIPE_END
G1 X159.259 Y147.299 F9000
G1 X159.259 Y159.259 ; move to first infill point
G1 X156.154 Y159.259 ; move to first infill point
G1 X156.154 Y159.745 ; move to first infill point
G1 E1.8 F2400 ;  ; unretract
G1 F3600
G1 X159.745 Y156.154 E.21415 ; infill
G1 X159.259 Y156.154 F9000
G1 X159.259 Y155.588 ; move to first infill point
G1 X159.745 Y155.588 ; move to first infill point
G1 F3600
G1 X155.588 Y159.745 E.24788 ; infill
G1 E-1.26 ; retract
;WIPE_START
G1 X156.295 Y159.038 E-.54 ; wipe and retract
;WIPE_END
G1 X156.295 Y159.259 F9000
G1 X137.031 Y159.259 ; move to first infill point
G1 X137.031 Y159.745 ; move to first infill point
G1 E1.8 F2400 ;  ; unretract
G1 F3600
G1 X159.745 Y137.031 E1.35443 ; infill
G1 X159.259 Y137.031 F9000
G1 X159.259 Y136.465 ; move to first infill point
G1 X159.745 Y136.465 ; move to first infill point
G1 F3600
G1 X136.465 Y159.745 E1.38817 ; infill
G1 E-1.26 ; retract
;WIPE_START
G1 X137.172 Y159.038 E-.54 ; wipe and retract
;WIPE_END
G1 X137.172 Y159.259 F9000
G1 X117.907 Y159.259 ; move to first infill point
G1 X117.907 Y159.745 ; move to first infill point
G1 E1.8 F2400 ;  ; unretract
G1 F3600
G1 X159.745 Y117.907 E2.49472 ; infill
G1 X159.259 Y117.907 F9000
G1 X159.259 Y117.342 ; move to first infill point
G1 X159.745 Y117.342 ; move to first infill point
G1 F3600
G1 X117.342 Y159.745 E2.52846 ; infill
G1 E-1.26 ; retract
;WIPE_START
G1 X118.049 Y159.038 E-.54 ; wipe and retract
;WIPE_END
G1 X118.049 Y159.259 F9000
G1 X108.346 Y159.259 ; move to first infill point
G1 X108.346 Y159.745 ; move to first infill point
G1 E1.8 F2400 ;  ; unretract
G1 F3600
G1 X159.745 Y108.346 E3.06487 ; infill
G1 X159.259 Y108.346 F9000
G1 X159.259 Y107.78 ; move to first infill point
G1 X159.745 Y107.78 ; move to first infill point
G1 F3600
G1 X107.78 Y159.745 E3.0986 ; infill
G1 E-1.26 ; retract
;WIPE_START
G1 X108.487 Y159.038 E-.54 ; wipe and retract
;WIPE_END
G1 X108.487 Y159.259 F9000
G1 X89.223 Y159.259 ; move to first infill point
G1 X89.223 Y159.745 ; move to first infill point
G1 E1.8 F2400 ;  ; unretract
G1 F3600
G1 X159.745 Y89.223 E4.20516 ; infill
G1 X159.259 Y89.223 F9000
G1 X159.259 Y88.657 ; move to first infill point
G1 X159.745 Y88.657 ; move to first infill point
G1 F3600
G1 X88.657 Y159.745 E4.23889 ; infill
G1 E-1.26 ; retract
;WIPE_START
G1 X89.364 Y159.038 E-.54 ; wipe and retract
;WIPE_END
G1 X89.364 Y159.259 F9000
G1 X70.099 Y159.259 ; move to first infill point
G1 X70.099 Y159.745 ; move to first infill point
G1 E1.8 F2400 ;  ; unretract
G1 F3600
G1 X159.745 Y70.099 E5.34545 ; infill
G1 X159.259 Y70.099 F9000
G1 X159.259 Y69.534 ; move to first infill point
G1 X159.745 Y69.534 ; move to first infill point
G1 F3600
G1 X69.534 Y159.745 E5.37918 ; infill
G1 E-1.26 ; retract
;WIPE_START
G1 X70.241 Y159.038 E-.54 ; wipe and retract
;WIPE_END
G1 X70.241 Y159.259 F9000
G1 X60.741 Y159.259 ; move to first infill point
G1 X60.538 Y159.745 ; move to first infill point
G1 E1.8 F2400 ;  ; unretract
G1 F3600
G1 X159.745 Y60.538 E5.91559 ; infill
G1 X159.259 Y60.741 F9000
G1 X159.462 Y60.255 ; move to first infill point
G1 F3600
G1 X60.255 Y159.462 E5.91559 ; infill
G1 E-1.26 ; retract
;WIPE_START
G1 X60.962 Y158.755 E-.54 ; wipe and retract
;WIPE_END
G1 X60.741 Y158.755 F9000
G1 X60.741 Y150.466 ; move to first infill point
G1 X60.255 Y150.466 ; move to first infill point
G1 E1.8 F2400 ;  ; unretract
G1 F3600
G1 X150.466 Y60.255 E5.37918 ; infill
G1 X150.466 Y60.741 F9000
G1 X149.901 Y60.741 ; move to first infill point
G1 X149.901 Y60.255 ; move to first infill point
G1 F3600
G1 X60.255 Y149.901 E5.34545 ; infill
G1 E-1.26 ; retract
;WIPE_START
G1 X60.962 Y149.193 E-.54 ; wipe and retract
;WIPE_END
G1 X60.741 Y149.193 F9000
G1 X60.741 Y131.343 ; move to first infill point
G1 X60.255 Y131.343 ; move to first infill point
G1 E1.8 F2400 ;  ; unretract
G1 F3600
G1 X131.343 Y60.255 E4.23889 ; infill
G1 X131.343 Y60.741 F9000
G1 X130.777 Y60.741 ; move to first infill point
G1 X130.777 Y60.255 ; move to first infill point
G1 F3600
G1 X60.255 Y130.777 E4.20516 ; infill
G1 E-1.26 ; retract
;WIPE_START
G1 X60.962 Y130.07 E-.54 ; wipe and retract
;WIPE_END
G1 X60.741 Y130.07 F9000
G1 X60.741 Y121.781 ; move to first infill point
G1 X60.255 Y121.781 ; move to first infill point
G1 E1.8 F2400 ;  ; unretract
G1 F3600
G1 X121.782 Y60.255 E3.66874 ; infill
G1 X121.782 Y60.741 F9000
G1 X121.216 Y60.741 ; move to first infill point
G1 X121.216 Y60.255 ; move to first infill point
G1 F3600
G1 X60.255 Y121.216 E3.63501 ; infill
G1 E-1.26 ; retract
;WIPE_START
G1 X60.962 Y120.509 E-.54 ; wipe and retract
;WIPE_END
G1 X60.741 Y120.509 F9000
G1 X60.741 Y93.097 ; move to first infill point
G1 X60.255 Y93.097 ; move to first infill point
G1 E1.8 F2400 ;  ; unretract
G1 F3600
G1 X93.097 Y60.255 E1.95831 ; infill
G1 X93.097 Y60.741 F9000
G1 X92.531 Y60.741 ; move to first infill point
G1 X92.531 Y60.255 ; move to first infill point
G1 F3600
G1 X60.255 Y92.531 E1.92458 ; infill
; stop printing object Cube id:15 copy 0
M106 S255 ; enable fan
;LAYER_CHANGE
;Z:0.4
;HEIGHT:0.2
;BEFORE_LAYER_CHANGE
;0.4
G92 E0

G1 E-1.26 F3600 ; retract
;WIPE_START
G1 X60.962 Y91.824 E-.54 ; wipe and retract
;WIPE_END
;_SET_FAN_SPEED_CHANGING_LAYER
M140 S55 ; set bed temperature
; printing object Cube id:15 copy 0
G1 X60.255 Y92.248 Z.4 F9000 ; move to first infill point
G1 E1.8 F2400 ;  ; unretract
G1 F3600
G1 X92.248 Y60.255 E1.90771 ; infill
G1 X93.38 Y60.255 F9000
G1 F3600
G1 X60.255 Y93.38 E1.97518 ; infill
G1 X60.255 Y101.81 F9000
G1 F3600
G1 X101.81 Y60.255 E2.47786 ; infill
G1 X102.941 Y60.255 F9000
G1 F3600
G1 X60.255 Y102.941 E2.54532 ; infill
G1 X60.255 Y120.933 F9000
G1 F3600
G1 X120.933 Y60.255 E3.61815 ; infill
G1 X122.064 Y60.255 F9000
M73 P0 R481
G1 F3600
G1 X60.255 Y122.064 E3.68561 ; infill
G1 X60.255 Y130.495 F9000
G1 F3600
G1 X130.495 Y60.255 E4.18829 ; infill
G1 X131.626 Y60.255 F9000
G1 F3600
G1 X60.255 Y131.626 E4.25575 ; infill
G1 X60.255 Y149.618 F9000
G1 F3600
G1 X149.618 Y60.255 E5.32858 ; infill
G1 X150.749 Y60.255 F9000
G1 F3600
G1 X60.255 Y150.749 E5.39604 ; infill
G1 X60.255 Y159.179 F9000
G1 F3600
G1 X159.179 Y60.255 E5.89873 ; infill
G1 X159.745 Y60.821 F9000
G1 F3600
G1 X60.821 Y159.745 E5.89873 ; infill
G1 X78.812 Y159.745 F9000
G1 F3600
G1 X159.745 Y78.812 E4.8259 ; infill
G1 X159.745 Y79.944 F9000
G1 F3600
G1 X79.944 Y159.745 E4.75844 ; infill
G1 X88.374 Y159.745 F9000
G1 F3600
G1 X159.745 Y88.374 E4.25575 ; infill
G1 X159.745 Y89.505 F9000
G1 F3600
G1 X89.505 Y159.745 E4.18829 ; infill
G1 X107.497 Y159.745 F9000
G1 F3600
G1 X159.745 Y107.497 E3.11547 ; infill
G1 X159.745 Y108.629 F9000
G1 F3600
G1 X108.629 Y159.745 E3.048 ; infill
G1 X117.059 Y159.745 F9000
G1 F3600
G1 X159.745 Y117.059 E2.54532 ; infill
G1 X159.745 Y118.19 F9000
G1 F3600
G1 X118.19 Y159.745 E2.47786 ; infill
G1 X126.62 Y159.745 F9000
G1 F3600
G1 X159.745 Y126.62 E1.97518 ; infill
G1 X159.745 Y127.752 F9000
G1 F3600
G1 X127.752 Y159.745 E1.90771 ; infill
G1 X136.182 Y159.745 F9000
G1 F3600
G1 X159.745 Y136.182 E1.40503 ; infill
G1 X159.745 Y137.313 F9000
G1 F3600
G1 X137.313 Y159.745 E1.33757 ; infill
G1 X145.744 Y159.745 F9000
G1 F3600
G1 X159.745 Y145.744 E.83489 ; infill
G1 X159.745 Y146.875 F9000
G1 F3600
G1 X146.875 Y159.745 E.76742 ; infill
G1 X159.745 Y156.437 F9000
G1 F3600
G1 X156.437 Y159.745 E.19728 ; infill
G1 X155.305 Y159.745 F9000
G1 F3600
G1 X159.745 Y155.305 E.26474 ; infill
G1 X159.745 Y99.067 F9000
G1 F3600
G1 X99.067 Y159.745 E3.61815 ; infill
G1 X97.936 Y159.745 F9000
G1 F3600
G1 X159.745 Y97.936 E3.68561 ; infill
G1 X159.745 Y70.382 F9000
G1 F3600
G1 X70.382 Y159.745 E5.32858 ; infill
G1 X69.251 Y159.745 F9000
G1 F3600
G1 X159.745 Y69.251 E5.39604 ; infill
G1 X141.188 Y60.255 F9000
G1 F3600
G1 X60.255 Y141.188 E4.8259 ; infill
G1 X60.255 Y140.056 F9000
G1 F3600
G1 X140.056 Y60.255 E4.75844 ; infill
G1 X112.503 Y60.255 F9000
G1 F3600
G1 X60.255 Y112.503 E3.11547 ; infill
G1 X60.255 Y111.371 F9000
G1 F3600
G1 X111.371 Y60.255 E3.048 ; infill
G1 X83.818 Y60.255 F9000
G1 F3600
G1 X60.255 Y83.818 E1.40503 ; infill
G1 X60.255 Y82.687 F9000
G1 F3600
G1 X82.687 Y60.255 E1.33757 ; infill
G1 X74.256 Y60.255 F9000
G1 F3600
G1 X60.255 Y74.256 E.83489 ; infill
G1 X60.255 Y73.125 F9000
G1 F3600
G1 X73.125 Y60.255 E.76742 ; infill
G1 X64.695 Y60.255 F9000
G1 F3600
G1 X60.255 Y64.695 E.26474 ; infill
G1 X60.255 Y63.563 F9000
G1 F3600
G1 X63.563 Y60.255 E.19728 ; infill
; stop printing object Cube id:15 copy 0
;LAYER_CHANGE
;Z:0.6
;HEIGHT:0.2
;BEFORE_LAYER_CHANGE
;0.6
G92 E0

G1 E-1.26 F3600 ; retract
;WIPE_START
G1 X62.856 Y60.962 E-.54 ; wipe and retract
;WIPE_END
;_SET_FAN_SPEED_CHANGING_LAYER
; printing object Cube id:15 copy 0
G1 X63.281 Y60.255 Z.6 F9000 ; move to first infill point
G1 E1.8 F2400 ;  ; unretract
G1 F3600
G1 X60.255 Y63.281 E.18041 ; infill
G1 X60.255 Y64.978 F9000
G1 F3600
G1 X64.978 Y60.255 E.28161 ; infill
G1 X72.842 Y60.255 F9000
G1 F3600
G1 X60.255 Y72.842 E.75056 ; infill
G1 X60.255 Y74.539 F9000
G1 F3600
G1 X74.539 Y60.255 E.85175 ; infill
G1 X82.404 Y60.255 F9000
G1 F3600
G1 X60.255 Y82.404 E1.3207 ; infill
G1 X60.255 Y84.101 F9000
G1 F3600
G1 X84.101 Y60.255 E1.4219 ; infill
G1 X111.089 Y60.255 F9000
G1 F3600
G1 X60.255 Y111.089 E3.03114 ; infill
G1 X60.255 Y112.786 F9000
G1 F3600
G1 X112.786 Y60.255 E3.13233 ; infill
G1 X120.65 Y60.255 F9000
G1 F3600
G1 X60.255 Y120.65 E3.60128 ; infill
G1 X60.255 Y122.347 F9000
M73 P0 R480
G1 F3600
G1 X122.347 Y60.255 E3.70248 ; infill
G1 X139.773 Y60.255 F9000
G1 F3600
G1 X60.255 Y139.773 E4.74157 ; infill
G1 X60.255 Y141.47 F9000
G1 F3600
G1 X141.47 Y60.255 E4.84276 ; infill
G1 X149.335 Y60.255 F9000
G1 F3600
G1 X60.255 Y149.335 E5.31172 ; infill
G1 X60.255 Y151.032 F9000
G1 F3600
G1 X151.032 Y60.255 E5.41291 ; infill
G1 X159.745 Y97.653 F9000
G1 F3600
G1 X97.653 Y159.745 E3.70248 ; infill
G1 X99.35 Y159.745 F9000
G1 F3600
G1 X159.745 Y99.35 E3.60128 ; infill
G1 X159.745 Y126.338 F9000
G1 F3600
G1 X126.338 Y159.745 E1.99204 ; infill
G1 X128.035 Y159.745 F9000
G1 F3600
G1 X159.745 Y128.035 E1.89085 ; infill
G1 X159.745 Y155.022 F9000
G1 F3600
G1 X155.022 Y159.745 E.28161 ; infill
G1 X156.719 Y159.745 F9000
