; HEADER_BLOCK_START
; generated by OrcaSlicer 2.3.1-alpha on 2025-09-10 at 11:44:00
; total layer number: 500
; filament_density: 1
; filament_diameter: 1.75
; max_z_height: 100.00
; HEADER_BLOCK_END

; external perimeters extrusion width = 0.25mm
; perimeters extrusion width = 0.55mm
; infill extrusion width = 0.55mm
; solid infill extrusion width = 0.55mm
; top infill extrusion width = 0.55mm
; first layer extrusion width = 0.55mm

; EXECUTABLE_BLOCK_START
M73 P0 R480
;TYPE:Custom
G90 ; use absolute coordinates
M83 ; extruder relative mode
M140 S60 ; set final bed temp
M104 S150 ; set temporary nozzle temp to prevent oozing during homing
G4 S10 ; allow partial nozzle warmup
G28 ; home all axis
M104 S200 ; set final nozzle temp
M190 S60 ; wait for bed temp to stabilize
M109 S200 ; wait for nozzle temp to stabilize
G1 Z0.28 F240
G92 E0
G1 X2.3 F5000
G92 E0
G92 E0
G90
G21
M83 ; use relative distances for extrusion
; filament start gcode
M900 K0.28; Override pressure advance value
M106 S0 ; disable fan
;LAYER_CHANGE
;Z:0.2
;HEIGHT:0.2
;BEFORE_LAYER_CHANGE
;0.2
G92 E0

G1 E-1.8 F3600 ; retract
;_SET_FAN_SPEED_CHANGING_LAYER
; printing object Cube id:15 copy 0
G1 X60.255 Y64.129 F9000 ; move to first infill point
G1 Z.2 ; move to first infill point
G1 E1.8 F2400 ;  ; unretract
;TYPE:Sparse infill
;WIDTH:0.55
G1 F3600
G1 X64.129 Y60.255 E.23101 ; infill
G1 E-1.26 ; retract
;WIPE_START
G1 X63.422 Y60.962 E-.54 ; wipe and retract
;WIPE_END
G1 X63.422 Y60.741 F9000
G1 X70.504 Y60.741 ; move to first infill point
G1 X70.504 Y60.255 ; move to first infill point
G1 E1.8 F2400 ;  ; unretract
G1 F3600
G1 X60.255 Y70.504 E.61111 ; infill
G1 E-1.26 ; retract
;WIPE_START
G1 X60.962 Y69.796 E-.54 ; wipe and retract
;WIPE_END
G1 X60.741 Y69.796 F9000
G1 X60.741 Y76.878 ; move to first infill point
G1 X60.255 Y76.878 ; move to first infill point
G1 E1.8 F2400 ;  ; unretract
G1 F3600
G1 X76.878 Y60.255 E.9912 ; infill
G1 E-1.26 ; retract
;WIPE_START
G1 X76.171 Y60.962 E-.54 ; wipe and retract
;WIPE_END
G1 X76.171 Y60.741 F9000
G1 X60.741 Y60.741 ; move to first infill point
G1 X60.741 Y83.252 ; move to first infill point
G1 X60.255 Y83.252 ; move to first infill point
G1 E1.8 F2400 ;  ; unretract
G1 F3600
G1 X83.252 Y60.255 E1.3713 ; infill
G1 E-1.26 ; retract
;WIPE_START
G1 X82.545 Y60.962 E-.54 ; wipe and retract
;WIPE_END
G1 X82.545 Y60.741 F9000
G1 X89.627 Y60.741 ; move to first infill point
G1 X89.627 Y60.255 ; move to first infill point
G1 E1.8 F2400 ;  ; unretract
G1 F3600
G1 X60.255 Y89.627 E1.7514 ; infill
G1 E-1.26 ; retract
;WIPE_START
G1 X60.962 Y88.92 E-.54 ; wipe and retract
;WIPE_END
G1 X60.741 Y88.92 F9000
G1 X60.741 Y96.001 ; move to first infill point
G1 X60.255 Y96.001 ; move to first infill point
G1 E1.8 F2400 ;  ; unretract
G1 F3600
G1 X96.001 Y60.255 E2.13149 ; infill
G1 E-1.26 ; retract
;WIPE_START
G1 X95.294 Y60.962 E-.54 ; wipe and retract
;WIPE_END
G1 X95.294 Y60.741 F9000
G1 X102.376 Y60.741 ; move to first infill point
G1 X102.376 Y60.255 ; move to first infill point
G1 E1.8 F2400 ;  ; unretract
G1 F3600
G1 X60.255 Y102.375 E2.51159 ; infill
G1 E-1.26 ; retract
;WIPE_START
G1 X60.962 Y101.668 E-.54 ; wipe and retract
;WIPE_END
G1 X60.741 Y101.668 F9000
G1 X60.741 Y108.75 ; move to first infill point
G1 X60.255 Y108.75 ; move to first infill point
G1 E1.8 F2400 ;  ; unretract
G1 F3600
G1 X108.75 Y60.255 E2.89169 ; infill
G1 E-1.26 ; retract
;WIPE_START
G1 X108.043 Y60.962 E-.54 ; wipe and retract
;WIPE_END
G1 X108.043 Y60.741 F9000
G1 X115.124 Y60.741 ; move to first infill point
G1 X115.124 Y60.255 ; move to first infill point
G1 E1.8 F2400 ;  ; unretract
G1 F3600
G1 X60.255 Y115.124 E3.27178 ; infill
G1 E-1.26 ; retract
;WIPE_START
G1 X60.962 Y114.417 E-.54 ; wipe and retract
;WIPE_END
G1 X60.741 Y114.417 F9000
G1 X60.741 Y121.499 ; move to first infill point
G1 X60.255 Y121.499 ; move to first infill point
G1 E1.8 F2400 ;  ; unretract
G1 F3600
G1 X121.499 Y60.255 E3.65188 ; infill
G1 E-1.26 ; retract
;WIPE_START
G1 X120.792 Y60.962 E-.54 ; wipe and retract
;WIPE_END
G1 X120.792 Y60.741 F9000
G1 X127.873 Y60.741 ; move to first infill point
G1 X127.873 Y60.255 ; move to first infill point
G1 E1.8 F2400 ;  ; unretract
G1 F3600
G1 X60.255 Y127.873 E4.03198 ; infill
G1 E-1.26 ; retract
;WIPE_START
G1 X60.962 Y127.166 E-.54 ; wipe and retract
;WIPE_END
G1 X60.741 Y127.166 F9000
G1 X60.741 Y134.247 ; move to first infill point
G1 X60.255 Y134.247 ; move to first infill point
G1 E1.8 F2400 ;  ; unretract
G1 F3600
G1 X134.247 Y60.255 E4.41207 ; infill
G1 E-1.26 ; retract
;WIPE_START
G1 X133.54 Y60.962 E-.54 ; wipe and retract
;WIPE_END
G1 X133.54 Y60.741 F9000
G1 X140.622 Y60.741 ; move to first infill point
G1 X140.622 Y60.255 ; move to first infill point
G1 E1.8 F2400 ;  ; unretract
G1 F3600
G1 X60.255 Y140.622 E4.79217 ; infill
G1 E-1.26 ; retract
;WIPE_START
G1 X60.962 Y139.915 E-.54 ; wipe and retract
;WIPE_END
G1 X60.741 Y139.915 F9000
G1 X60.741 Y146.996 ; move to first infill point
G1 X60.255 Y146.996 ; move to first infill point
G1 E1.8 F2400 ;  ; unretract
G1 F3600
G1 X146.996 Y60.255 E5.17226 ; infill
G1 E-1.26 ; retract
;WIPE_START
G1 X146.289 Y60.962 E-.54 ; wipe and retract
;WIPE_END
G1 X146.289 Y60.741 F9000
G1 X159.259 Y60.741 ; move to first infill point
G1 X159.259 Y66.629 ; move to first infill point
G1 X159.745 Y66.629 ; move to first infill point
G1 E1.8 F2400 ;  ; unretract
G1 F3600
G1 X66.629 Y159.745 E5.55236 ; infill
G1 E-1.26 ; retract
;WIPE_START
G1 X67.336 Y159.038 E-.54 ; wipe and retract
;WIPE_END
G1 X67.336 Y159.259 F9000
G1 X60.741 Y159.259 ; move to first infill point
G1 X60.255 Y159.745 ; move to first infill point
G1 E1.8 F2400 ;  ; unretract
G1 F3600
G1 X159.745 Y60.255 E5.93246 ; infill
G1 E-1.26 ; retract
;WIPE_START
G1 X159.038 Y60.962 E-.54 ; wipe and retract
;WIPE_END
G1 X159.259 Y60.962 F9000
G1 X159.259 Y60.741 ; move to first infill point
G1 X153.371 Y60.741 ; move to first infill point
G1 X153.371 Y60.255 ; move to first infill point
G1 E1.8 F2400 ;  ; unretract
G1 F3600
G1 X60.255 Y153.371 E5.55236 ; infill
G1 E-1.26 ; retract
;WIPE_START
G1 X60.962 Y152.663 E-.54 ; wipe and retract
;WIPE_END
G1 X60.741 Y152.663 F9000
G1 X60.741 Y159.259 ; move to first infill point
G1 X73.004 Y159.259 ; move to first infill point
G1 X73.004 Y159.745 ; move to first infill point
G1 E1.8 F2400 ;  ; unretract
G1 F3600
G1 X159.745 Y73.004 E5.17226 ; infill
G1 E-1.26 ; retract
;WIPE_START
G1 X159.038 Y73.711 E-.54 ; wipe and retract
;WIPE_END
G1 X159.259 Y73.711 F9000
G1 X159.259 Y79.378 ; move to first infill point
G1 X159.745 Y79.378 ; move to first infill point
G1 E1.8 F2400 ;  ; unretract
G1 F3600
G1 X79.378 Y159.745 E4.79217 ; infill
G1 E-1.26 ; retract
;WIPE_START
G1 X80.085 Y159.038 E-.54 ; wipe and retract
;WIPE_END
G1 X80.085 Y159.259 F9000
G1 X85.753 Y159.259 ; move to first infill point
G1 X85.753 Y159.745 ; move to first infill point
G1 E1.8 F2400 ;  ; unretract
G1 F3600
G1 X159.745 Y85.753 E4.41207 ; infill
G1 E-1.26 ; retract
;WIPE_START
G1 X159.038 Y86.46 E-.54 ; wipe and retract
;WIPE_END
G1 X159.259 Y86.46 F9000
G1 X159.259 Y92.127 ; move to first infill point
G1 X159.745 Y92.127 ; move to first infill point
G1 E1.8 F2400 ;  ; unretract
G1 F3600
G1 X92.127 Y159.745 E4.03198 ; infill
G1 E-1.26 ; retract
;WIPE_START
G1 X92.834 Y159.038 E-.54 ; wipe and retract
;WIPE_END
G1 X92.834 Y159.259 F9000
G1 X98.501 Y159.259 ; move to first infill point
G1 X98.501 Y159.745 ; move to first infill point
G1 E1.8 F2400 ;  ; unretract
G1 F3600
G1 X159.745 Y98.501 E3.65188 ; infill
G1 E-1.26 ; retract
;WIPE_START
G1 X159.038 Y99.208 E-.54 ; wipe and retract
;WIPE_END
G1 X159.259 Y99.208 F9000
G1 X159.259 Y104.876 ; move to first infill point
G1 X159.745 Y104.876 ; move to first infill point
G1 E1.8 F2400 ;  ; unretract
G1 F3600
G1 X104.876 Y159.745 E3.27178 ; infill
G1 E-1.26 ; retract
;WIPE_START
G1 X105.583 Y159.038 E-.54 ; wipe and retract
;WIPE_END
G1 X105.583 Y159.259 F9000
G1 X111.25 Y159.259 ; move to first infill point
G1 X111.25 Y159.745 ; move to first infill point
G1 E1.8 F2400 ;  ; unretract
G1 F3600
G1 X159.745 Y111.25 E2.89169 ; infill
G1 E-1.26 ; retract
;WIPE_START
G1 X159.038 Y111.957 E-.54 ; wipe and retract
;WIPE_END
G1 X159.259 Y111.957 F9000
G1 X159.259 Y117.625 ; move to first infill point
G1 X159.745 Y117.625 ; move to first infill point
G1 E1.8 F2400 ;  ; unretract
G1 F3600
G1 X117.624 Y159.745 E2.51159 ; infill
G1 E-1.26 ; retract
;WIPE_START
G1 X118.332 Y159.038 E-.54 ; wipe and retract
;WIPE_END
G1 X118.332 Y159.259 F9000
G1 X123.999 Y159.259 ; move to first infill point
G1 X123.999 Y159.745 ; move to first infill point
G1 E1.8 F2400 ;  ; unretract
G1 F3600
G1 X159.745 Y123.999 E2.13149 ; infill
G1 E-1.26 ; retract
M73 P0 R479
;WIPE_START
G1 X159.038 Y124.706 E-.54 ; wipe and retract
;WIPE_END
G1 X159.259 Y124.706 F9000
G1 X159.259 Y130.373 ; move to first infill point
G1 X159.745 Y130.373 ; move to first infill point
G1 E1.8 F2400 ;  ; unretract
G1 F3600
G1 X130.373 Y159.745 E1.7514 ; infill
G1 E-1.26 ; retract
;WIPE_START
G1 X131.08 Y159.038 E-.54 ; wipe and retract
;WIPE_END
G1 X131.08 Y159.259 F9000
G1 X136.748 Y159.259 ; move to first infill point
G1 X136.748 Y159.745 ; move to first infill point
G1 E1.8 F2400 ;  ; unretract
G1 F3600
G1 X159.745 Y136.748 E1.3713 ; infill
G1 E-1.26 ; retract
;WIPE_START
G1 X159.038 Y137.455 E-.54 ; wipe and retract
;WIPE_END
G1 X159.259 Y137.455 F9000
G1 X159.259 Y155.871 ; move to first infill point
G1 X159.745 Y155.871 ; move to first infill point
G1 E1.8 F2400 ;  ; unretract
G1 F3600
G1 X155.871 Y159.745 E.23101 ; infill
G1 E-1.26 ; retract
;WIPE_START
G1 X156.578 Y159.038 E-.54 ; wipe and retract
;WIPE_END
G1 X156.578 Y159.259 F9000
G1 X149.496 Y159.259 ; move to first infill point
G1 X149.496 Y159.745 ; move to first infill point
G1 E1.8 F2400 ;  ; unretract
G1 F3600
G1 X159.745 Y149.496 E.61111 ; infill
G1 E-1.26 ; retract
;WIPE_START
G1 X159.038 Y150.204 E-.54 ; wipe and retract
;WIPE_END
G1 X159.259 Y150.204 F9000
G1 X159.259 Y143.122 ; move to first infill point
G1 X159.745 Y143.122 ; move to first infill point
G1 E1.8 F2400 ;  ; unretract
G1 F3600
G1 X143.122 Y159.745 E.9912 ; infill
; stop printing object Cube id:15 copy 0
M106 S255 ; enable fan
;LAYER_CHANGE
;Z:0.4
;HEIGHT:0.2
;BEFORE_LAYER_CHANGE
;0.4
G92 E0

G1 E-1.26 F3600 ; retract
;WIPE_START
G1 X143.829 Y159.038 E-.54 ; wipe and retract
;WIPE_END
;_SET_FAN_SPEED_CHANGING_LAYER
M140 S55 ; set bed temperature
; printing object Cube id:15 copy 0
G1 X143.122 Y159.745 Z.4 F9000 ; move to first infill point
G1 E1.8 F2400 ;  ; unretract
G1 F3600
G1 X159.745 Y143.122 E.9912 ; infill
G1 X159.745 Y149.496 F9000
G1 F3600
G1 X149.496 Y159.745 E.61111 ; infill
G1 X155.871 Y159.745 F9000
G1 F3600
G1 X159.745 Y155.871 E.23101 ; infill
G1 X159.745 Y136.748 F9000
G1 F3600
G1 X136.748 Y159.745 E1.3713 ; infill
G1 X130.373 Y159.745 F9000
G1 F3600
G1 X159.745 Y130.373 E1.7514 ; infill
G1 X159.745 Y123.999 F9000
G1 F3600
G1 X123.999 Y159.745 E2.13149 ; infill
G1 X117.624 Y159.745 F9000
G1 F3600
G1 X159.745 Y117.625 E2.51159 ; infill
G1 X159.745 Y111.25 F9000
G1 F3600
G1 X111.25 Y159.745 E2.89169 ; infill
G1 X104.876 Y159.745 F9000
G1 F3600
G1 X159.745 Y104.876 E3.27178 ; infill
G1 X159.745 Y98.501 F9000
G1 F3600
G1 X98.501 Y159.745 E3.65188 ; infill
G1 X92.127 Y159.745 F9000
G1 F3600
G1 X159.745 Y92.127 E4.03198 ; infill
G1 X159.745 Y85.753 F9000
G1 F3600
G1 X85.753 Y159.745 E4.41207 ; infill
G1 X79.378 Y159.745 F9000
G1 F3600
G1 X159.745 Y79.378 E4.79217 ; infill
G1 X159.745 Y73.004 F9000
G1 F3600
G1 X73.004 Y159.745 E5.17226 ; infill
G1 X60.255 Y153.371 F9000
G1 F3600
G1 X153.371 Y60.255 E5.55236 ; infill
G1 X159.745 Y60.255 F9000
G1 F3600
G1 X60.255 Y159.745 E5.93246 ; infill
G1 X66.629 Y159.745 F9000
G1 F3600
G1 X159.745 Y66.629 E5.55236 ; infill
G1 X146.996 Y60.255 F9000
G1 F3600
G1 X60.255 Y146.996 E5.17226 ; infill
G1 X60.255 Y140.622 F9000
G1 F3600
G1 X140.622 Y60.255 E4.79217 ; infill
G1 X134.247 Y60.255 F9000
G1 F3600
G1 X60.255 Y134.247 E4.41207 ; infill
G1 X60.255 Y127.873 F9000
G1 F3600
G1 X127.873 Y60.255 E4.03198 ; infill
G1 X121.499 Y60.255 F9000
G1 F3600
G1 X60.255 Y121.499 E3.65188 ; infill
G1 X60.255 Y115.124 F9000
G1 F3600
G1 X115.124 Y60.255 E3.27178 ; infill
G1 X108.75 Y60.255 F9000
G1 F3600
G1 X60.255 Y108.75 E2.89169 ; infill
G1 X60.255 Y102.375 F9000
G1 F3600
G1 X102.376 Y60.255 E2.51159 ; infill
G1 X96.001 Y60.255 F9000
G1 F3600
G1 X60.255 Y96.001 E2.13149 ; infill
G1 X60.255 Y89.627 F9000
G1 F3600
G1 X89.627 Y60.255 E1.7514 ; infill
G1 X83.252 Y60.255 F9000
G1 F3600
G1 X60.255 Y83.252 E1.3713 ; infill
G1 X60.255 Y76.878 F9000
G1 F3600
G1 X76.878 Y60.255 E.9912 ; infill
G1 X70.504 Y60.255 F9000
G1 F3600
G1 X60.255 Y70.504 E.61111 ; infill
G1 X60.255 Y64.129 F9000
G1 F3600
G1 X64.129 Y60.255 E.23101 ; infill
; stop printing object Cube id:15 copy 0
;LAYER_CHANGE
;Z:0.6
;HEIGHT:0.2
;BEFORE_LAYER_CHANGE
;0.6
G92 E0

G1 E-1.26 F3600 ; retract
;WIPE_START
G1 X63.422 Y60.962 E-.54 ; wipe and retract
;WIPE_END
;_SET_FAN_SPEED_CHANGING_LAYER
; printing object Cube id:15 copy 0
G1 X64.129 Y60.255 Z.6 F9000 ; move to first infill point
G1 E1.8 F2400 ;  ; unretract
G1 F3600
G1 X60.255 Y64.129 E.23101 ; infill
G1 X60.255 Y70.504 F9000
G1 F3600
G1 X70.504 Y60.255 E.61111 ; infill
G1 X76.878 Y60.255 F9000
G1 F3600
G1 X60.255 Y76.878 E.9912 ; infill
G1 X60.255 Y83.252 F9000
G1 F3600
G1 X83.252 Y60.255 E1.3713 ; infill
G1 X89.627 Y60.255 F9000
G1 F3600
G1 X60.255 Y89.627 E1.7514 ; infill
G1 X60.255 Y96.001 F9000
G1 F3600
G1 X96.001 Y60.255 E2.13149 ; infill
G1 X102.376 Y60.255 F9000
G1 F3600
G1 X60.255 Y102.375 E2.51159 ; infill
G1 X60.255 Y108.75 F9000
G1 F3600
G1 X108.75 Y60.255 E2.89169 ; infill
G1 X115.124 Y60.255 F9000
G1 F3600
G1 X60.255 Y115.124 E3.27178 ; infill
G1 X60.255 Y134.247 F9000
G1 F3600
G1 X134.247 Y60.255 E4.41207 ; infill
G1 X140.622 Y60.255 F9000
G1 F3600
G1 X60.255 Y140.622 E4.79217 ; infill
G1 X60.255 Y146.996 F9000
M73 P0 R478
G1 F3600
G1 X146.996 Y60.255 E5.17226 ; infill
G1 X159.745 Y66.629 F9000
G1 F3600
G1 X66.629 Y159.745 E5.55236 ; infill
G1 X60.255 Y159.745 F9000
G1 F3600
G1 X159.745 Y60.255 E5.93246 ; infill
G1 X153.371 Y60.255 F9000
G1 F3600
G1 X60.255 Y153.371 E5.55236 ; infill
G1 X73.004 Y159.745 F9000
G1 F3600
G1 X159.745 Y73.004 E5.17226 ; infill
G1 X159.745 Y79.378 F9000
G1 F3600
G1 X79.378 Y159.745 E4.79217 ; infill
G1 X85.753 Y159.745 F9000
G1 F3600
G1 X159.745 Y85.753 E4.41207 ; infill
G1 X159.745 Y92.127 F9000
G1 F3600
G1 X92.127 Y159.745 E4.03198 ; infill
G1 X98.501 Y159.745 F9000
G1 F3600
G1 X159.745 Y98.501 E3.65188 ; infill
G1 X159.745 Y104.876 F9000
G1 F3600
G1 X104.876 Y159.745 E3.27178 ; infill
G1 X111.25 Y159.745 F9000
G1 F3600
G1 X159.745 Y111.25 E2.89169 ; infill
G1 X159.745 Y117.625 F9000
G1 F3600
G1 X117.624 Y159.745 E2.51159 ; infill
G1 X123.999 Y159.745 F9000
G1 F3600
G1 X159.745 Y123.999 E2.13149 ; infill
G1 X159.745 Y130.373 F9000
G1 F3600
G1 X130.373 Y159.745 E1.7514 ; infill
G1 X136.748 Y159.745 F9000
G1 F3600
G1 X159.745 Y136.748 E1.3713 ; infill
G1 X159.745 Y155.871 F9000
G1 F3600
G1 X155.871 Y159.745 E.23101 ; infill
G1 X149.496 Y159.745 F9000
G1 F3600
G1 X159.745 Y149.496 E.61111 ; infill
G1 X159.745 Y143.122 F9000
G1 F3600
G1 X143.122 Y159.745 E.9912 ; infill
G1 X127.873 Y60.255 F9000
G1 F3600
G1 X60.255 Y127.873 E4.03198 ; infill
G1 X60.255 Y121.499 F9000
G1 F3600
G1 X121.499 Y60.255 E3.65188 ; infill
; stop printing object Cube id:15 copy 0
;LAYER_CHANGE
;Z:0.8
;HEIGHT:0.2
;BEFORE_LAYER_CHANGE
;0.8
G92 E0

G1 E-1.26 F3600 ; retract
;WIPE_START
G1 X120.792 Y60.962 E-.54 ; wipe and retract
;WIPE_END
;_SET_FAN_SPEED_CHANGING_LAYER
; printing object Cube id:15 copy 0
G1 X121.499 Y60.255 Z.8 F9000 ; move to first infill point
G1 E1.8 F2400 ;  ; unretract
G1 F3600
G1 X60.255 Y121.499 E3.65188 ; infill
G1 X60.255 Y115.124 F9000
G1 F3600
G1 X115.124 Y60.255 E3.27178 ; infill
G1 X108.75 Y60.255 F9000
G1 F3600
G1 X60.255 Y108.75 E2.89169 ; infill
G1 X60.255 Y102.375 F9000
G1 F3600
