; HEADER_BLOCK_START
; generated by OrcaSlicer 2.3.1-alpha on 2025-09-10 at 11:43:17
; total layer number: 500
; filament_density: 1
; filament_diameter: 1.75
; max_z_height: 100.00
; HEADER_BLOCK_END

; external perimeters extrusion width = 0.25mm
; perimeters extrusion width = 0.55mm
; infill extrusion width = 0.55mm
; solid infill extrusion width = 0.55mm
; top infill extrusion width = 0.55mm
; first layer extrusion width = 0.55mm

; EXECUTABLE_BLOCK_START
M73 P0 R155
;TYPE:Custom
G90 ; use absolute coordinates
M83 ; extruder relative mode
M140 S60 ; set final bed temp
M104 S150 ; set temporary nozzle temp to prevent oozing during homing
G4 S10 ; allow partial nozzle warmup
G28 ; home all axis
M104 S200 ; set final nozzle temp
M190 S60 ; wait for bed temp to stabilize
M109 S200 ; wait for nozzle temp to stabilize
G1 Z0.28 F240
G92 E0
G1 X2.3 F5000
G92 E0
G92 E0
G90
G21
M83 ; use relative distances for extrusion
; filament start gcode
M900 K0.28; Override pressure advance value
M106 S0 ; disable fan
;LAYER_CHANGE
;Z:0.2
;HEIGHT:0.2
;BEFORE_LAYER_CHANGE
;0.2
G92 E0

G1 E-1.8 F3600 ; retract
;_SET_FAN_SPEED_CHANGING_LAYER
; printing object Cube id:15 copy 0
G1 X159.745 Y159.745 F9000 ; move to first perimeter point
G1 Z.2 ; move to first perimeter point
G1 E1.8 F2400 ;  ; unretract
;TYPE:Outer wall
;WIDTH:0.549999
G1 F3600
G1 X60.255 Y159.745 E4.19488 ; perimeter
G1 X60.255 Y60.255 E4.19488 ; perimeter
G1 X159.745 Y60.255 E4.19488 ; perimeter
G1 X159.745 Y159.745 E4.19488 ; perimeter
; stop printing object Cube id:15 copy 0
G1 E-1.26 ; retract
;WIPE_START
G1 X158.745 Y159.745 E-.54 ; wipe and retract
;WIPE_END
M106 S255 ; enable fan
;LAYER_CHANGE
;Z:0.4
;HEIGHT:0.2
;BEFORE_LAYER_CHANGE
;0.4
G92 E0

;_SET_FAN_SPEED_CHANGING_LAYER
M140 S55 ; set bed temperature
; printing object Cube id:15 copy 0
G1 X158.745 Y159.259 Z.4 F9000 ; move to first perimeter point
G1 X159.259 Y159.259 ; move to first perimeter point
G1 X159.895 Y159.895 ; move to first perimeter point
G1 E1.8 F2400 ;  ; unretract
;WIDTH:0.249999
G1 X159.895 Y60.105 E1.71825 ; perimeter
G1 X60.105 Y60.105 E1.71825 ; perimeter
M73 P0 R154
G1 X60.105 Y159.895 E1.71825 ; perimeter
G1 X159.895 Y159.895 E1.71825 ; perimeter
; stop printing object Cube id:15 copy 0
G1 E-1.26 F3600 ; retract
;WIPE_START
G1 F2400
G1 X159.895 Y158.895 E-.54 ; wipe and retract
;WIPE_END
;LAYER_CHANGE
;Z:0.6
;HEIGHT:0.2
;BEFORE_LAYER_CHANGE
;0.6
G92 E0

;_SET_FAN_SPEED_CHANGING_LAYER
; printing object Cube id:15 copy 0
G1 X159.259 Y158.895 Z.6 F9000 ; move to first perimeter point
G1 X159.259 Y159.259 ; move to first perimeter point
G1 X159.895 Y159.895 ; move to first perimeter point
G1 E1.8 F2400 ;  ; unretract
G1 X60.105 Y159.895 E1.71825 ; perimeter
G1 X60.105 Y60.105 E1.71825 ; perimeter
G1 X159.895 Y60.105 E1.71825 ; perimeter
G1 X159.895 Y159.895 E1.71825 ; perimeter
; stop printing object Cube id:15 copy 0
G1 E-1.26 F3600 ; retract
;WIPE_START
G1 F2400
G1 X158.895 Y159.895 E-.54 ; wipe and retract
;WIPE_END
;LAYER_CHANGE
;Z:0.8
;HEIGHT:0.2
;BEFORE_LAYER_CHANGE
;0.8
G92 E0

;_SET_FAN_SPEED_CHANGING_LAYER
; printing object Cube id:15 copy 0
G1 X158.895 Y159.259 Z.8 F9000 ; move to first perimeter point
G1 X159.259 Y159.259 ; move to first perimeter point
G1 X159.895 Y159.895 ; move to first perimeter point
G1 E1.8 F2400 ;  ; unretract
G1 X159.895 Y60.105 E1.71825 ; perimeter
G1 X60.105 Y60.105 E1.71825 ; perimeter
G1 X60.105 Y159.895 E1.71825 ; perimeter
G1 X159.895 Y159.895 E1.71825 ; perimeter
; stop printing object Cube id:15 copy 0
G1 E-1.26 F3600 ; retract
;WIPE_START
G1 F2400
G1 X159.895 Y158.895 E-.54 ; wipe and retract
;WIPE_END
;LAYER_CHANGE
;Z:1
;HEIGHT:0.2
;BEFORE_LAYER_CHANGE
;1
G92 E0

;_SET_FAN_SPEED_CHANGING_LAYER
; printing object Cube id:15 copy 0
G1 X159.259 Y158.895 Z1 F9000 ; move to first perimeter point
G1 X159.259 Y159.259 ; move to first perimeter point
G1 X159.895 Y159.895 ; move to first perimeter point
G1 E1.8 F2400 ;  ; unretract
G1 X60.105 Y159.895 E1.71825 ; perimeter
G1 X60.105 Y60.105 E1.71825 ; perimeter
G1 X159.895 Y60.105 E1.71825 ; perimeter
G1 X159.895 Y159.895 E1.71825 ; perimeter
; stop printing object Cube id:15 copy 0
G1 E-1.26 F3600 ; retract
;WIPE_START
G1 F2400
G1 X158.895 Y159.895 E-.54 ; wipe and retract
;WIPE_END
;LAYER_CHANGE
;Z:1.2
;HEIGHT:0.2
;BEFORE_LAYER_CHANGE
;1.2
G92 E0

;_SET_FAN_SPEED_CHANGING_LAYER
; printing object Cube id:15 copy 0
G1 X158.895 Y159.259 Z1.2 F9000 ; move to first perimeter point
G1 X159.259 Y159.259 ; move to first perimeter point
G1 X159.895 Y159.895 ; move to first perimeter point
G1 E1.8 F2400 ;  ; unretract
G1 X159.895 Y60.105 E1.71825 ; perimeter
G1 X60.105 Y60.105 E1.71825 ; perimeter
G1 X60.105 Y159.895 E1.71825 ; perimeter
G1 X159.895 Y159.895 E1.71825 ; perimeter
; stop printing object Cube id:15 copy 0
G1 E-1.26 F3600 ; retract
;WIPE_START
G1 F2400
G1 X159.895 Y158.895 E-.54 ; wipe and retract
;WIPE_END
;LAYER_CHANGE
;Z:1.4
;HEIGHT:0.2
;BEFORE_LAYER_CHANGE
;1.4
G92 E0

;_SET_FAN_SPEED_CHANGING_LAYER
; printing object Cube id:15 copy 0
G1 X159.259 Y158.895 Z1.4 F9000 ; move to first perimeter point
G1 X159.259 Y159.259 ; move to first perimeter point
G1 X159.895 Y159.895 ; move to first perimeter point
G1 E1.8 F2400 ;  ; unretract
G1 X60.105 Y159.895 E1.71825 ; perimeter
G1 X60.105 Y60.105 E1.71825 ; perimeter
G1 X159.895 Y60.105 E1.71825 ; perimeter
G1 X159.895 Y159.895 E1.71825 ; perimeter
; stop printing object Cube id:15 copy 0
G1 E-1.26 F3600 ; retract
M73 P0 R153
;WIPE_START
G1 F2400
G1 X158.895 Y159.895 E-.54 ; wipe and retract
;WIPE_END
;LAYER_CHANGE
;Z:1.6
;HEIGHT:0.2
;BEFORE_LAYER_CHANGE
;1.6
G92 E0

;_SET_FAN_SPEED_CHANGING_LAYER
; printing object Cube id:15 copy 0
G1 X158.895 Y159.259 Z1.6 F9000 ; move to first perimeter point
G1 X159.259 Y159.259 ; move to first perimeter point
G1 X159.895 Y159.895 ; move to first perimeter point
G1 E1.8 F2400 ;  ; unretract
G1 X159.895 Y60.105 E1.71825 ; perimeter
G1 X60.105 Y60.105 E1.71825 ; perimeter
G1 X60.105 Y159.895 E1.71825 ; perimeter
G1 X159.895 Y159.895 E1.71825 ; perimeter
; stop printing object Cube id:15 copy 0
G1 E-1.26 F3600 ; retract
;WIPE_START
G1 F2400
G1 X159.895 Y158.895 E-.54 ; wipe and retract
;WIPE_END
;LAYER_CHANGE
;Z:1.8
;HEIGHT:0.2
;BEFORE_LAYER_CHANGE
;1.8
G92 E0

;_SET_FAN_SPEED_CHANGING_LAYER
; printing object Cube id:15 copy 0
G1 X159.259 Y158.895 Z1.8 F9000 ; move to first perimeter point
G1 X159.259 Y159.259 ; move to first perimeter point
G1 X159.895 Y159.895 ; move to first perimeter point
G1 E1.8 F2400 ;  ; unretract
G1 X60.105 Y159.895 E1.71825 ; perimeter
G1 X60.105 Y60.105 E1.71825 ; perimeter
G1 X159.895 Y60.105 E1.71825 ; perimeter
G1 X159.895 Y159.895 E1.71825 ; perimeter
; stop printing object Cube id:15 copy 0
G1 E-1.26 F3600 ; retract
;WIPE_START
G1 F2400
G1 X158.895 Y159.895 E-.54 ; wipe and retract
;WIPE_END
;LAYER_CHANGE
;Z:2
;HEIGHT:0.2
;BEFORE_LAYER_CHANGE
;2
G92 E0

;_SET_FAN_SPEED_CHANGING_LAYER
; printing object Cube id:15 copy 0
G1 X158.895 Y159.259 Z2 F9000 ; move to first perimeter point
G1 X159.259 Y159.259 ; move to first perimeter point
G1 X159.895 Y159.895 ; move to first perimeter point
G1 E1.8 F2400 ;  ; unretract
G1 X159.895 Y60.105 E1.71825 ; perimeter
G1 X60.105 Y60.105 E1.71825 ; perimeter
M73 P1 R153
G1 X60.105 Y159.895 E1.71825 ; perimeter
G1 X159.895 Y159.895 E1.71825 ; perimeter
; stop printing object Cube id:15 copy 0
G1 E-1.26 F3600 ; retract
;WIPE_START
G1 F2400
G1 X159.895 Y158.895 E-.54 ; wipe and retract
;WIPE_END
;LAYER_CHANGE
;Z:2.2
;HEIGHT:0.2
;BEFORE_LAYER_CHANGE
;2.2
G92 E0

;_SET_FAN_SPEED_CHANGING_LAYER
; printing object Cube id:15 copy 0
G1 X159.259 Y158.895 Z2.2 F9000 ; move to first perimeter point
G1 X159.259 Y159.259 ; move to first perimeter point
G1 X159.895 Y159.895 ; move to first perimeter point
G1 E1.8 F2400 ;  ; unretract
G1 X60.105 Y159.895 E1.71825 ; perimeter
G1 X60.105 Y60.105 E1.71825 ; perimeter
G1 X159.895 Y60.105 E1.71825 ; perimeter
G1 X159.895 Y159.895 E1.71825 ; perimeter
; stop printing object Cube id:15 copy 0
G1 E-1.26 F3600 ; retract
;WIPE_START
G1 F2400
G1 X158.895 Y159.895 E-.54 ; wipe and retract
;WIPE_END
;LAYER_CHANGE
;Z:2.4
;HEIGHT:0.2
;BEFORE_LAYER_CHANGE
;2.4
G92 E0

;_SET_FAN_SPEED_CHANGING_LAYER
; printing object Cube id:15 copy 0
G1 X158.895 Y159.259 Z2.4 F9000 ; move to first perimeter point
G1 X159.259 Y159.259 ; move to first perimeter point
G1 X159.895 Y159.895 ; move to first perimeter point
G1 E1.8 F2400 ;  ; unretract
G1 X159.895 Y60.105 E1.71825 ; perimeter
G1 X60.105 Y60.105 E1.71825 ; perimeter
G1 X60.105 Y159.895 E1.71825 ; perimeter
G1 X159.895 Y159.895 E1.71825 ; perimeter
; stop printing object Cube id:15 copy 0
G1 E-1.26 F3600 ; retract
;WIPE_START
G1 F2400
G1 X159.895 Y158.895 E-.54 ; wipe and retract
;WIPE_END
;LAYER_CHANGE
;Z:2.6
;HEIGHT:0.2
;BEFORE_LAYER_CHANGE
;2.6
G92 E0

;_SET_FAN_SPEED_CHANGING_LAYER
; printing object Cube id:15 copy 0
G1 X159.259 Y158.895 Z2.6 F9000 ; move to first perimeter point
G1 X159.259 Y159.259 ; move to first perimeter point
G1 X159.895 Y159.895 ; move to first perimeter point
G1 E1.8 F2400 ;  ; unretract
G1 X60.105 Y159.895 E1.71825 ; perimeter
G1 X60.105 Y60.105 E1.71825 ; perimeter
G1 X159.895 Y60.105 E1.71825 ; perimeter
G1 X159.895 Y159.895 E1.71825 ; perimeter
M73 P1 R152
; stop printing object Cube id:15 copy 0
G1 E-1.26 F3600 ; retract
;WIPE_START
G1 F2400
G1 X158.895 Y159.895 E-.54 ; wipe and retract
;WIPE_END
;LAYER_CHANGE
;Z:2.8
;HEIGHT:0.2
;BEFORE_LAYER_CHANGE
;2.8
G92 E0

;_SET_FAN_SPEED_CHANGING_LAYER
; printing object Cube id:15 copy 0
G1 X158.895 Y159.259 Z2.8 F9000 ; move to first perimeter point
G1 X159.259 Y159.259 ; move to first perimeter point
G1 X159.895 Y159.895 ; move to first perimeter point
G1 E1.8 F2400 ;  ; unretract
G1 X159.895 Y60.105 E1.71825 ; perimeter
G1 X60.105 Y60.105 E1.71825 ; perimeter
G1 X60.105 Y159.895 E1.71825 ; perimeter
G1 X159.895 Y159.895 E1.71825 ; perimeter
; stop printing object Cube id:15 copy 0
G1 E-1.26 F3600 ; retract
;WIPE_START
G1 F2400
G1 X159.895 Y158.895 E-.54 ; wipe and retract
;WIPE_END
;LAYER_CHANGE
;Z:3
;HEIGHT:0.2
;BEFORE_LAYER_CHANGE
;3
G92 E0

;_SET_FAN_SPEED_CHANGING_LAYER
; printing object Cube id:15 copy 0
G1 X159.259 Y158.895 Z3 F9000 ; move to first perimeter point
G1 X159.259 Y159.259 ; move to first perimeter point
G1 X159.895 Y159.895 ; move to first perimeter point
G1 E1.8 F2400 ;  ; unretract
G1 X60.105 Y159.895 E1.71825 ; perimeter
G1 X60.105 Y60.105 E1.71825 ; perimeter
G1 X159.895 Y60.105 E1.71825 ; perimeter
G1 X159.895 Y159.895 E1.71825 ; perimeter
; stop printing object Cube id:15 copy 0
G1 E-1.26 F3600 ; retract
;WIPE_START
G1 F2400
G1 X158.895 Y159.895 E-.54 ; wipe and retract
;WIPE_END
;LAYER_CHANGE
;Z:3.2
;HEIGHT:0.2
;BEFORE_LAYER_CHANGE
;3.2
G92 E0

;_SET_FAN_SPEED_CHANGING_LAYER
; printing object Cube id:15 copy 0
G1 X158.895 Y159.259 Z3.2 F9000 ; move to first perimeter point
G1 X159.259 Y159.259 ; move to first perimeter point
G1 X159.895 Y159.895 ; move to first perimeter point
G1 E1.8 F2400 ;  ; unretract
G1 X159.895 Y60.105 E1.71825 ; perimeter
G1 X60.105 Y60.105 E1.71825 ; perimeter
G1 X60.105 Y159.895 E1.71825 ; perimeter
G1 X159.895 Y159.895 E1.71825 ; perimeter
; stop printing object Cube id:15 copy 0
G1 E-1.26 F3600 ; retract
;WIPE_START
G1 F2400
G1 X159.895 Y158.895 E-.54 ; wipe and retract
;WIPE_END
;LAYER_CHANGE
;Z:3.4
;HEIGHT:0.2
;BEFORE_LAYER_CHANGE
;3.4
G92 E0

;_SET_FAN_SPEED_CHANGING_LAYER
; printing object Cube id:15 copy 0
G1 X159.259 Y158.895 Z3.4 F9000 ; move to first perimeter point
G1 X159.259 Y159.259 ; move to first perimeter point
G1 X159.895 Y159.895 ; move to first perimeter point
G1 E1.8 F2400 ;  ; unretract
G1 X60.105 Y159.895 E1.71825 ; perimeter
G1 X60.105 Y60.105 E1.71825 ; perimeter
G1 X159.895 Y60.105 E1.71825 ; perimeter
G1 X159.895 Y159.895 E1.71825 ; perimeter
; stop printing object Cube id:15 copy 0
G1 E-1.26 F3600 ; retract
;WIPE_START
G1 F2400
G1 X158.895 Y159.895 E-.54 ; wipe and retract
;WIPE_END
;LAYER_CHANGE
;Z:3.6
;HEIGHT:0.2
;BEFORE_LAYER_CHANGE
;3.6
G92 E0

;_SET_FAN_SPEED_CHANGING_LAYER
; printing object Cube id:15 copy 0
G1 X158.895 Y159.259 Z3.6 F9000 ; move to first perimeter point
G1 X159.259 Y159.259 ; move to first perimeter point
G1 X159.895 Y159.895 ; move to first perimeter point
G1 E1.8 F2400 ;  ; unretract
G1 X159.895 Y60.105 E1.71825 ; perimeter
G1 X60.105 Y60.105 E1.71825 ; perimeter
G1 X60.105 Y159.895 E1.71825 ; perimeter
G1 X159.895 Y159.895 E1.71825 ; perimeter
; stop printing object Cube id:15 copy 0
G1 E-1.26 F3600 ; retract
M73 P2 R152
;WIPE_START
G1 F2400
G1 X159.895 Y158.895 E-.54 ; wipe and retract
;WIPE_END
;LAYER_CHANGE
;Z:3.8
;HEIGHT:0.2
;BEFORE_LAYER_CHANGE
;3.8
G92 E0

;_SET_FAN_SPEED_CHANGING_LAYER
; printing object Cube id:15 copy 0
G1 X159.259 Y158.895 Z3.8 F9000 ; move to first perimeter point
G1 X159.259 Y159.259 ; move to first perimeter point
G1 X159.895 Y159.895 ; move to first perimeter point
G1 E1.8 F2400 ;  ; unretract
G1 X60.105 Y159.895 E1.71825 ; perimeter
G1 X60.105 Y60.105 E1.71825 ; perimeter
G1 X159.895 Y60.105 E1.71825 ; perimeter
M73 P2 R151
G1 X159.895 Y159.895 E1.71825 ; perimeter
; stop printing object Cube id:15 copy 0
G1 E-1.26 F3600 ; retract
;WIPE_START
G1 F2400
G1 X158.895 Y159.895 E-.54 ; wipe and retract
;WIPE_END
;LAYER_CHANGE
;Z:4
;HEIGHT:0.2
;BEFORE_LAYER_CHANGE
;4
G92 E0

;_SET_FAN_SPEED_CHANGING_LAYER
; printing object Cube id:15 copy 0
G1 X158.895 Y159.259 Z4 F9000 ; move to first perimeter point
G1 X159.259 Y159.259 ; move to first perimeter point
G1 X159.895 Y159.895 ; move to first perimeter point
G1 E1.8 F2400 ;  ; unretract
G1 X159.895 Y60.105 E1.71825 ; perimeter
G1 X60.105 Y60.105 E1.71825 ; perimeter
G1 X60.105 Y159.895 E1.71825 ; perimeter
G1 X159.895 Y159.895 E1.71825 ; perimeter
; stop printing object Cube id:15 copy 0
G1 E-1.26 F3600 ; retract
;WIPE_START
G1 F2400
G1 X159.895 Y158.895 E-.54 ; wipe and retract
;WIPE_END
;LAYER_CHANGE
;Z:4.2
;HEIGHT:0.2
;BEFORE_LAYER_CHANGE
;4.2
G92 E0

;_SET_FAN_SPEED_CHANGING_LAYER
; printing object Cube id:15 copy 0
G1 X159.259 Y158.895 Z4.2 F9000 ; move to first perimeter point
G1 X159.259 Y159.259 ; move to first perimeter point
G1 X159.895 Y159.895 ; move to first perimeter point
G1 E1.8 F2400 ;  ; unretract
G1 X60.105 Y159.895 E1.71825 ; perimeter
G1 X60.105 Y60.105 E1.71825 ; perimeter
G1 X159.895 Y60.105 E1.71825 ; perimeter
G1 X159.895 Y159.895 E1.71825 ; perimeter
; stop printing object Cube id:15 copy 0
G1 E-1.26 F3600 ; retract
;WIPE_START
G1 F2400
G1 X158.895 Y159.895 E-.54 ; wipe and retract
;WIPE_END
;LAYER_CHANGE
;Z:4.4
;HEIGHT:0.2
;BEFORE_LAYER_CHANGE
;4.4
G92 E0

;_SET_FAN_SPEED_CHANGING_LAYER
; printing object Cube id:15 copy 0
G1 X158.895 Y159.259 Z4.4 F9000 ; move to first perimeter point
G1 X159.259 Y159.259 ; move to first perimeter point
G1 X159.895 Y159.895 ; move to first perimeter point
G1 E1.8 F2400 ;  ; unretract
G1 X159.895 Y60.105 E1.71825 ; perimeter
G1 X60.105 Y60.105 E1.71825 ; perimeter
G1 X60.105 Y159.895 E1.71825 ; perimeter
G1 X159.895 Y159.895 E1.71825 ; perimeter
; stop printing object Cube id:15 copy 0
G1 E-1.26 F3600 ; retract
;WIPE_START
G1 F2400
G1 X159.895 Y158.895 E-.54 ; wipe and retract
;WIPE_END
;LAYER_CHANGE
;Z:4.6
;HEIGHT:0.2
;BEFORE_LAYER_CHANGE
;4.6
G92 E0

;_SET_FAN_SPEED_CHANGING_LAYER
; printing object Cube id:15 copy 0
G1 X159.259 Y158.895 Z4.6 F9000 ; move to first perimeter point
G1 X159.259 Y159.259 ; move to first perimeter point
G1 X159.895 Y159.895 ; move to first perimeter point
G1 E1.8 F2400 ;  ; unretract
G1 X60.105 Y159.895 E1.71825 ; perimeter
G1 X60.105 Y60.105 E1.71825 ; perimeter
G1 X159.895 Y60.105 E1.71825 ; perimeter
G1 X159.895 Y159.895 E1.71825 ; perimeter
; stop printing object Cube id:15 copy 0
G1 E-1.26 F3600 ; retract
;WIPE_START
G1 F2400
G1 X158.895 Y159.895 E-.54 ; wipe and retract
;WIPE_END
;LAYER_CHANGE
;Z:4.8
;HEIGHT:0.2
;BEFORE_LAYER_CHANGE
;4.8
G92 E0

;_SET_FAN_SPEED_CHANGING_LAYER
; printing object Cube id:15 copy 0
