; HEADER_BLOCK_START
; generated by OrcaSlicer 2.3.1-alpha on 2025-09-10 at 11:42:15
; total layer number: 500
; filament_density: 1
; filament_diameter: 1.75
; max_z_height: 100.00
; HEADER_BLOCK_END

; external perimeters extrusion width = 0.55mm
; perimeters extrusion width = 0.55mm
; infill extrusion width = 0.55mm
; solid infill extrusion width = 0.55mm
; top infill extrusion width = 0.55mm
; first layer extrusion width = 0.55mm

; EXECUTABLE_BLOCK_START
M73 P0 R506
;TYPE:Custom
G90 ; use absolute coordinates
M83 ; extruder relative mode
M140 S60 ; set final bed temp
M104 S150 ; set temporary nozzle temp to prevent oozing during homing
G4 S10 ; allow partial nozzle warmup
G28 ; home all axis
M104 S200 ; set final nozzle temp
M190 S60 ; wait for bed temp to stabilize
M109 S200 ; wait for nozzle temp to stabilize
G1 Z0.28 F240
G92 E0
G1 X2.3 F5000
G92 E0
G92 E0
G90
G21
M83 ; use relative distances for extrusion
; filament start gcode
M900 K0.28; Override pressure advance value
M106 S0 ; disable fan
;LAYER_CHANGE
;Z:0.2
;HEIGHT:0.2
;BEFORE_LAYER_CHANGE
;0.2
G92 E0

G1 E-1.8 F3600 ; retract
;_SET_FAN_SPEED_CHANGING_LAYER
; printing object Cube id:15 copy 0
G1 X60.614 Y60.255 F9000 ; move to first infill point
G1 Z.2 ; move to first infill point
G1 E1.8 F2400 ;  ; unretract
;TYPE:Sparse infill
;WIDTH:0.55
G1 F3600
G1 X159.745 Y159.386 E5.91108 ; infill
G1 X159.259 Y159.259 F9000
G1 X159.386 Y159.745 ; move to first infill point
G1 F3600
G1 X60.255 Y60.614 E5.91108 ; infill
G1 E-1.26 ; retract
M73 P0 R505
;WIPE_START
G1 X60.962 Y61.321 E-.54 ; wipe and retract
;WIPE_END
G1 X60.741 Y61.321 F9000
G1 X60.741 Y69.53 ; move to first infill point
G1 X60.255 Y69.53 ; move to first infill point
G1 E1.8 F2400 ;  ; unretract
G1 F3600
G1 X69.53 Y60.255 E.55307 ; infill
G1 E-1.26 ; retract
;WIPE_START
G1 X68.823 Y60.962 E-.54 ; wipe and retract
;WIPE_END
G1 X68.823 Y60.741 F9000
G1 X79.737 Y60.741 ; move to first infill point
G1 X79.737 Y60.255 ; move to first infill point
G1 E1.8 F2400 ;  ; unretract
G1 F3600
G1 X159.745 Y140.263 E4.77079 ; infill
G1 X159.259 Y140.263 F9000
G1 X159.259 Y140.98 ; move to first infill point
G1 X159.745 Y140.98 ; move to first infill point
G1 F3600
G1 X79.02 Y60.255 E4.81355 ; infill
G1 E-1.26 ; retract
;WIPE_START
G1 X79.727 Y60.962 E-.54 ; wipe and retract
;WIPE_END
G1 X79.727 Y60.741 F9000
G1 X77.851 Y60.741 ; move to first infill point
G1 X77.851 Y60.255 ; move to first infill point
G1 E1.8 F2400 ;  ; unretract
G1 F3600
G1 X60.255 Y77.851 E1.04924 ; infill
G1 E-1.26 ; retract
;WIPE_START
G1 X60.962 Y77.144 E-.54 ; wipe and retract
;WIPE_END
G1 X60.741 Y77.144 F9000
G1 X60.741 Y79.02 ; move to first infill point
G1 X60.255 Y79.02 ; move to first infill point
G1 E1.8 F2400 ;  ; unretract
G1 F3600
G1 X140.98 Y159.745 E4.81355 ; infill
G1 X140.98 Y159.259 F9000
G1 X140.263 Y159.259 ; move to first infill point
G1 X140.263 Y159.745 ; move to first infill point
G1 F3600
G1 X60.255 Y79.737 E4.77079 ; infill
G1 E-1.26 ; retract
;WIPE_START
G1 X60.962 Y80.444 E-.54 ; wipe and retract
;WIPE_END
G1 X60.741 Y80.444 F9000
G1 X60.741 Y88.653 ; move to first infill point
G1 X60.255 Y88.653 ; move to first infill point
G1 E1.8 F2400 ;  ; unretract
G1 F3600
G1 X88.653 Y60.255 E1.69336 ; infill
G1 E-1.26 ; retract
;WIPE_START
G1 X87.946 Y60.962 E-.54 ; wipe and retract
;WIPE_END
G1 X87.946 Y60.741 F9000
G1 X60.741 Y60.741 ; move to first infill point
G1 X60.741 Y98.86 ; move to first infill point
G1 X60.255 Y98.86 ; move to first infill point
G1 E1.8 F2400 ;  ; unretract
G1 F3600
G1 X121.14 Y159.745 E3.6305 ; infill
G1 X121.14 Y159.259 F9000
G1 X121.857 Y159.259 ; move to first infill point
G1 X121.857 Y159.745 ; move to first infill point
G1 F3600
G1 X60.255 Y98.143 E3.67326 ; infill
G1 E-1.26 ; retract
;WIPE_START
G1 X60.962 Y98.85 E-.54 ; wipe and retract
;WIPE_END
G1 X60.741 Y98.85 F9000
G1 X60.741 Y96.974 ; move to first infill point
G1 X60.255 Y96.974 ; move to first infill point
G1 E1.8 F2400 ;  ; unretract
G1 F3600
G1 X96.974 Y60.255 E2.18953 ; infill
G1 E-1.26 ; retract
;WIPE_START
G1 X96.267 Y60.962 E-.54 ; wipe and retract
;WIPE_END
G1 X96.267 Y60.741 F9000
G1 X98.143 Y60.741 ; move to first infill point
G1 X98.143 Y60.255 ; move to first infill point
G1 E1.8 F2400 ;  ; unretract
G1 F3600
G1 X159.745 Y121.857 E3.67326 ; infill
G1 X159.259 Y121.857 F9000
G1 X159.259 Y121.14 ; move to first infill point
G1 X159.745 Y121.14 ; move to first infill point
G1 F3600
G1 X98.86 Y60.255 E3.6305 ; infill
G1 E-1.26 ; retract
;WIPE_START
G1 X99.567 Y60.962 E-.54 ; wipe and retract
;WIPE_END
G1 X99.567 Y60.741 F9000
G1 X107.777 Y60.741 ; move to first infill point
G1 X107.777 Y60.255 ; move to first infill point
G1 E1.8 F2400 ;  ; unretract
G1 F3600
G1 X60.255 Y107.777 E2.83365 ; infill
G1 E-1.26 ; retract
;WIPE_START
G1 X60.962 Y107.069 E-.54 ; wipe and retract
;WIPE_END
G1 X60.741 Y107.069 F9000
G1 X60.741 Y116.098 ; move to first infill point
G1 X60.255 Y116.098 ; move to first infill point
G1 E1.8 F2400 ;  ; unretract
G1 F3600
G1 X116.098 Y60.255 E3.32982 ; infill
G1 E-1.26 ; retract
;WIPE_START
G1 X115.391 Y60.962 E-.54 ; wipe and retract
;WIPE_END
G1 X115.391 Y60.741 F9000
G1 X117.266 Y60.741 ; move to first infill point
G1 X117.266 Y60.255 ; move to first infill point
G1 E1.8 F2400 ;  ; unretract
G1 F3600
G1 X159.745 Y102.734 E2.53297 ; infill
G1 X159.259 Y102.734 F9000
G1 X159.259 Y102.017 ; move to first infill point
G1 X159.745 Y102.017 ; move to first infill point
G1 F3600
G1 X117.983 Y60.255 E2.49021 ; infill
G1 E-1.26 ; retract
;WIPE_START
G1 X118.69 Y60.962 E-.54 ; wipe and retract
;WIPE_END
G1 X118.69 Y60.741 F9000
G1 X126.9 Y60.741 ; move to first infill point
G1 X126.9 Y60.255 ; move to first infill point
G1 E1.8 F2400 ;  ; unretract
G1 F3600
G1 X60.255 Y126.9 E3.97394 ; infill
G1 E-1.26 ; retract
;WIPE_START
G1 X60.962 Y126.193 E-.54 ; wipe and retract
;WIPE_END
G1 X60.741 Y126.193 F9000
G1 X60.741 Y135.221 ; move to first infill point
G1 X60.255 Y135.221 ; move to first infill point
G1 E1.8 F2400 ;  ; unretract
G1 F3600
G1 X135.221 Y60.255 E4.47011 ; infill
G1 E-1.26 ; retract
;WIPE_START
G1 X134.514 Y60.962 E-.54 ; wipe and retract
;WIPE_END
G1 X134.514 Y60.741 F9000
G1 X159.259 Y60.741 ; move to first infill point
G1 X159.259 Y63.771 ; move to first infill point
G1 X159.745 Y63.771 ; move to first infill point
G1 E1.8 F2400 ;  ; unretract
G1 F3600
G1 X156.229 Y60.255 E.20963 ; infill
G1 X156.229 Y60.741 F9000
G1 X155.512 Y60.741 ; move to first infill point
G1 X155.512 Y60.255 ; move to first infill point
G1 F3600
G1 X159.745 Y64.488 E.25239 ; infill
G1 E-1.26 ; retract
;WIPE_START
G1 X159.038 Y63.781 E-.54 ; wipe and retract
;WIPE_END
G1 X159.259 Y63.781 F9000
G1 X159.259 Y65.656 ; move to first infill point
G1 X159.745 Y65.656 ; move to first infill point
G1 E1.8 F2400 ;  ; unretract
G1 F3600
G1 X65.656 Y159.745 E5.6104 ; infill
G1 E-1.26 ; retract
;WIPE_START
G1 X66.363 Y159.038 E-.54 ; wipe and retract
;WIPE_END
G1 X66.363 Y159.259 F9000
G1 X60.741 Y159.259 ; move to first infill point
G1 X60.741 Y156.229 ; move to first infill point
G1 X60.255 Y156.229 ; move to first infill point
G1 E1.8 F2400 ;  ; unretract
G1 F3600
G1 X63.771 Y159.745 E.20963 ; infill
G1 X63.771 Y159.259 F9000
G1 X64.488 Y159.259 ; move to first infill point
G1 X64.488 Y159.745 ; move to first infill point
G1 F3600
G1 X60.255 Y155.512 E.25239 ; infill
G1 E-1.26 ; retract
;WIPE_START
G1 X60.962 Y156.219 E-.54 ; wipe and retract
;WIPE_END
G1 X60.741 Y156.219 F9000
G1 X60.741 Y154.344 ; move to first infill point
G1 X60.255 Y154.344 ; move to first infill point
G1 E1.8 F2400 ;  ; unretract
G1 F3600
G1 X154.344 Y60.255 E5.6104 ; infill
G1 E-1.26 ; retract
;WIPE_START
G1 X153.637 Y60.962 E-.54 ; wipe and retract
;WIPE_END
G1 X153.637 Y60.741 F9000
G1 X146.023 Y60.741 ; move to first infill point
G1 X146.023 Y60.255 ; move to first infill point
G1 E1.8 F2400 ;  ; unretract
G1 F3600
G1 X60.255 Y146.023 E5.11423 ; infill
G1 E-1.26 ; retract
;WIPE_START
G1 X60.962 Y145.316 E-.54 ; wipe and retract
;WIPE_END
G1 X60.741 Y145.316 F9000
G1 X60.741 Y159.259 ; move to first infill point
G1 X73.977 Y159.259 ; move to first infill point
G1 X73.977 Y159.745 ; move to first infill point
G1 E1.8 F2400 ;  ; unretract
G1 F3600
G1 X159.745 Y73.977 E5.11423 ; infill
G1 E-1.26 ; retract
;WIPE_START
G1 X159.038 Y74.684 E-.54 ; wipe and retract
;WIPE_END
G1 X159.259 Y74.684 F9000
G1 X159.259 Y82.894 ; move to first infill point
G1 X159.745 Y82.894 ; move to first infill point
G1 E1.8 F2400 ;  ; unretract
G1 F3600
G1 X137.106 Y60.255 E1.34992 ; infill
G1 X137.106 Y60.741 F9000
G1 X136.389 Y60.741 ; move to first infill point
G1 X136.389 Y60.255 ; move to first infill point
G1 F3600
G1 X159.745 Y83.611 E1.39268 ; infill
G1 E-1.26 ; retract
;WIPE_START
G1 X159.038 Y82.904 E-.54 ; wipe and retract
;WIPE_END
G1 X159.259 Y82.904 F9000
G1 X159.259 Y84.779 ; move to first infill point
G1 X159.745 Y84.779 ; move to first infill point
G1 E1.8 F2400 ;  ; unretract
G1 F3600
G1 X84.779 Y159.745 E4.47011 ; infill
G1 E-1.26 ; retract
;WIPE_START
G1 X85.486 Y159.038 E-.54 ; wipe and retract
;WIPE_END
G1 X85.486 Y159.259 F9000
G1 X83.611 Y159.259 ; move to first infill point
G1 X83.611 Y159.745 ; move to first infill point
G1 E1.8 F2400 ;  ; unretract
G1 F3600
G1 X60.255 Y136.389 E1.39268 ; infill
G1 X60.741 Y136.389 F9000
G1 X60.741 Y137.106 ; move to first infill point
G1 X60.255 Y137.106 ; move to first infill point
G1 F3600
G1 X82.894 Y159.745 E1.34992 ; infill
G1 E-1.26 ; retract
;WIPE_START
G1 X82.187 Y159.038 E-.54 ; wipe and retract
;WIPE_END
G1 X82.187 Y159.259 F9000
G1 X150.47 Y159.259 ; move to first infill point
G1 X150.47 Y159.745 ; move to first infill point
G1 E1.8 F2400 ;  ; unretract
G1 F3600
G1 X159.745 Y150.47 E.55307 ; infill
G1 E-1.26 ; retract
;WIPE_START
G1 X159.038 Y151.177 E-.54 ; wipe and retract
;WIPE_END
G1 X159.259 Y151.177 F9000
G1 X159.259 Y142.149 ; move to first infill point
G1 X159.745 Y142.149 ; move to first infill point
G1 E1.8 F2400 ;  ; unretract
G1 F3600
G1 X142.149 Y159.745 E1.04924 ; infill
G1 E-1.26 ; retract
;WIPE_START
G1 X142.856 Y159.038 E-.54 ; wipe and retract
;WIPE_END
G1 X142.856 Y159.259 F9000
G1 X131.347 Y159.259 ; move to first infill point
G1 X131.347 Y159.745 ; move to first infill point
G1 E1.8 F2400 ;  ; unretract
G1 F3600
G1 X159.745 Y131.347 E1.69336 ; infill
G1 E-1.26 ; retract
;WIPE_START
G1 X159.038 Y132.054 E-.54 ; wipe and retract
;WIPE_END
G1 X159.259 Y132.054 F9000
G1 X159.259 Y123.026 ; move to first infill point
G1 X159.745 Y123.026 ; move to first infill point
G1 E1.8 F2400 ;  ; unretract
G1 F3600
G1 X123.026 Y159.745 E2.18953 ; infill
G1 E-1.26 ; retract
;WIPE_START
G1 X123.733 Y159.038 E-.54 ; wipe and retract
;WIPE_END
G1 X123.733 Y159.259 F9000
G1 X112.223 Y159.259 ; move to first infill point
G1 X112.223 Y159.745 ; move to first infill point
G1 E1.8 F2400 ;  ; unretract
G1 F3600
G1 X159.745 Y112.223 E2.83365 ; infill
G1 E-1.26 ; retract
;WIPE_START
G1 X159.038 Y112.931 E-.54 ; wipe and retract
;WIPE_END
G1 X159.259 Y112.931 F9000
G1 X159.259 Y103.902 ; move to first infill point
G1 X159.745 Y103.902 ; move to first infill point
G1 E1.8 F2400 ;  ; unretract
G1 F3600
G1 X103.902 Y159.745 E3.32982 ; infill
G1 E-1.26 ; retract
;WIPE_START
G1 X104.609 Y159.038 E-.54 ; wipe and retract
;WIPE_END
G1 X104.609 Y159.259 F9000
G1 X102.734 Y159.259 ; move to first infill point
G1 X102.734 Y159.745 ; move to first infill point
G1 E1.8 F2400 ;  ; unretract
G1 F3600
G1 X60.255 Y117.266 E2.53297 ; infill
G1 X60.741 Y117.266 F9000
M73 P0 R504
G1 X60.741 Y117.983 ; move to first infill point
G1 X60.255 Y117.983 ; move to first infill point
G1 F3600
G1 X102.017 Y159.745 E2.49021 ; infill
G1 E-1.26 ; retract
;WIPE_START
G1 X101.31 Y159.038 E-.54 ; wipe and retract
;WIPE_END
G1 X101.31 Y159.259 F9000
G1 X93.1 Y159.259 ; move to first infill point
G1 X93.1 Y159.745 ; move to first infill point
G1 E1.8 F2400 ;  ; unretract
G1 F3600
G1 X159.745 Y93.1 E3.97394 ; infill
; stop printing object Cube id:15 copy 0
M106 S255 ; enable fan
;LAYER_CHANGE
;Z:0.4
;HEIGHT:0.2
;BEFORE_LAYER_CHANGE
;0.4
G92 E0

G1 E-1.26 F3600 ; retract
;WIPE_START
G1 X159.038 Y93.807 E-.54 ; wipe and retract
;WIPE_END
;_SET_FAN_SPEED_CHANGING_LAYER
M140 S55 ; set bed temperature
; printing object Cube id:15 copy 0
G1 X159.259 Y93.807 Z.4 F9000 ; move to first infill point
G1 X159.259 Y93.3 ; move to first infill point
G1 X159.745 Y93.3 ; move to first infill point
G1 E1.8 F2400 ;  ; unretract
G1 F3600
G1 X93.3 Y159.745 E3.96201 ; infill
G1 X93.3 Y159.259 F9000
G1 X82.852 Y159.259 ; move to first infill point
G1 X82.852 Y159.745 ; move to first infill point
G1 F3600
G1 X60.255 Y137.148 E1.34745 ; infill
G1 X60.741 Y137.148 F9000
G1 X60.741 Y136.348 ; move to first infill point
G1 X60.255 Y136.348 ; move to first infill point
G1 F3600
G1 X83.652 Y159.745 E1.39515 ; infill
G1 X83.652 Y159.259 F9000
G1 X84.579 Y159.259 ; move to first infill point
G1 X84.579 Y159.745 ; move to first infill point
G1 F3600
G1 X159.745 Y84.579 E4.48204 ; infill
G1 X159.259 Y84.579 F9000
G1 X159.259 Y83.652 ; move to first infill point
G1 X159.745 Y83.652 ; move to first infill point
G1 F3600
G1 X136.348 Y60.255 E1.39515 ; infill
G1 X136.348 Y60.741 F9000
G1 X137.148 Y60.741 ; move to first infill point
G1 X137.148 Y60.255 ; move to first infill point
G1 F3600
G1 X159.745 Y82.852 E1.34745 ; infill
G1 X159.259 Y82.852 F9000
G1 X159.259 Y74.177 ; move to first infill point
G1 X159.745 Y74.177 ; move to first infill point
G1 F3600
G1 X74.177 Y159.745 E5.1023 ; infill
G1 X74.177 Y159.259 F9000
G1 X159.259 Y159.259 ; move to first infill point
G1 X159.259 Y131.547 ; move to first infill point
G1 X159.745 Y131.547 ; move to first infill point
G1 F3600
G1 X131.547 Y159.745 E1.68143 ; infill
G1 X131.547 Y159.259 F9000
G1 X141.949 Y159.259 ; move to first infill point
G1 X141.949 Y159.745 ; move to first infill point
G1 F3600
G1 X159.745 Y141.949 E1.06117 ; infill
G1 X159.259 Y141.949 F9000
G1 X159.259 Y150.67 ; move to first infill point
G1 X159.745 Y150.67 ; move to first infill point
G1 F3600
G1 X150.67 Y159.745 E.54114 ; infill
G1 X150.67 Y159.259 F9000
G1 X121.099 Y159.259 ; move to first infill point
G1 X121.099 Y159.745 ; move to first infill point
G1 F3600
G1 X60.255 Y98.901 E3.62803 ; infill
G1 X60.741 Y98.901 F9000
G1 X60.741 Y98.101 ; move to first infill point
G1 X60.255 Y98.101 ; move to first infill point
G1 F3600
G1 X121.899 Y159.745 E3.67573 ; infill
G1 X121.899 Y159.259 F9000
G1 X122.826 Y159.259 ; move to first infill point
G1 X122.826 Y159.745 ; move to first infill point
G1 F3600
G1 X159.745 Y122.826 E2.20146 ; infill
G1 X159.259 Y122.826 F9000
G1 X159.259 Y121.899 ; move to first infill point
G1 X159.745 Y121.899 ; move to first infill point
G1 F3600
G1 X98.101 Y60.255 E3.67573 ; infill
G1 X98.101 Y60.741 F9000
G1 X98.901 Y60.741 ; move to first infill point
G1 X98.901 Y60.255 ; move to first infill point
G1 F3600
G1 X159.745 Y121.099 E3.62803 ; infill
G1 X159.259 Y121.099 F9000
G1 X159.259 Y112.423 ; move to first infill point
G1 X159.745 Y112.423 ; move to first infill point
G1 F3600
G1 X112.423 Y159.745 E2.82172 ; infill
G1 X112.423 Y159.259 F9000
G1 X103.702 Y159.259 ; move to first infill point
G1 X103.702 Y159.745 ; move to first infill point
G1 F3600
G1 X159.745 Y103.702 E3.34175 ; infill
G1 X159.259 Y103.702 F9000
G1 X159.259 Y102.775 ; move to first infill point
G1 X159.745 Y102.775 ; move to first infill point
G1 F3600
G1 X117.225 Y60.255 E2.53544 ; infill
G1 X117.225 Y60.741 F9000
G1 X118.025 Y60.741 ; move to first infill point
G1 X118.025 Y60.255 ; move to first infill point
G1 F3600
G1 X159.745 Y101.975 E2.48774 ; infill
G1 X159.259 Y101.975 F9000
G1 X159.259 Y63.729 ; move to first infill point
G1 X159.745 Y63.729 ; move to first infill point
G1 F3600
G1 X156.271 Y60.255 E.20716 ; infill
G1 X156.271 Y60.741 F9000
G1 X155.471 Y60.741 ; move to first infill point
G1 X155.471 Y60.255 ; move to first infill point
