; HEADER_BLOCK_START
; generated by OrcaSlicer 2.3.1-alpha on 2025-09-10 at 11:41:00
; total layer number: 500
; filament_density: 1
; filament_diameter: 1.75
; max_z_height: 100.00
; HEADER_BLOCK_END

; external perimeters extrusion width = 0.55mm
; perimeters extrusion width = 0.55mm
; infill extrusion width = 0.55mm
; solid infill extrusion width = 0.55mm
; top infill extrusion width = 0.55mm
; first layer extrusion width = 0.55mm

; EXECUTABLE_BLOCK_START
M73 P0 R528
;TYPE:Custom
G90 ; use absolute coordinates
M83 ; extruder relative mode
M140 S60 ; set final bed temp
M104 S150 ; set temporary nozzle temp to prevent oozing during homing
G4 S10 ; allow partial nozzle warmup
G28 ; home all axis
M104 S200 ; set final nozzle temp
M190 S60 ; wait for bed temp to stabilize
M109 S200 ; wait for nozzle temp to stabilize
G1 Z0.28 F240
G92 E0
G1 X2.3 F5000
G92 E0
G92 E0
G90
G21
M83 ; use relative distances for extrusion
; filament start gcode
M900 K0.28; Override pressure advance value
M106 S0 ; disable fan
;LAYER_CHANGE
;Z:0.2
;HEIGHT:0.2
;BEFORE_LAYER_CHANGE
;0.2
G92 E0

G1 E-1.8 F3600 ; retract
;_SET_FAN_SPEED_CHANGING_LAYER
; printing object Cube id:15 copy 0
G1 X60.027 Y60.027 F9000 ; move to first infill point
G1 Z.2 ; move to first infill point
G1 E1.8 F2400 ;  ; unretract
;TYPE:Sparse infill
;WIDTH:0.55
G1 F3600
G1 X159.973 Y159.973 E5.95967 ; infill
G1 E-1.26 ; retract
;WIPE_START
G1 X159.266 Y159.266 E-.54 ; wipe and retract
;WIPE_END
G1 X159.259 Y159.259 F9000
G1 X159.259 Y155.192 ; move to first infill point
G1 X159.973 Y155.192 ; move to first infill point
G1 E1.8 F2400 ;  ; unretract
G1 F3600
G1 X64.808 Y60.027 E5.6746 ; infill
G1 E-1.26 ; retract
;WIPE_START
G1 X65.515 Y60.734 E-.54 ; wipe and retract
;WIPE_END
G1 X65.515 Y60.741 F9000
G1 X69.588 Y60.741 ; move to first infill point
G1 X69.588 Y60.027 ; move to first infill point
G1 E1.8 F2400 ;  ; unretract
G1 F3600
G1 X159.973 Y150.412 E5.38953 ; infill
G1 E-1.26 ; retract
;WIPE_START
G1 X159.266 Y149.705 E-.54 ; wipe and retract
;WIPE_END
G1 X159.259 Y149.705 F9000
G1 X159.259 Y145.631 ; move to first infill point
G1 X159.973 Y145.631 ; move to first infill point
G1 E1.8 F2400 ;  ; unretract
G1 F3600
G1 X74.369 Y60.027 E5.10445 ; infill
G1 E-1.26 ; retract
M73 P0 R527
;WIPE_START
G1 X75.076 Y60.734 E-.54 ; wipe and retract
;WIPE_END
G1 X75.076 Y60.741 F9000
G1 X79.15 Y60.741 ; move to first infill point
G1 X79.15 Y60.027 ; move to first infill point
G1 E1.8 F2400 ;  ; unretract
G1 F3600
G1 X159.973 Y140.85 E4.81938 ; infill
G1 E-1.26 ; retract
;WIPE_START
G1 X159.266 Y140.143 E-.54 ; wipe and retract
;WIPE_END
G1 X159.259 Y140.143 F9000
G1 X159.259 Y136.069 ; move to first infill point
G1 X159.973 Y136.069 ; move to first infill point
G1 E1.8 F2400 ;  ; unretract
G1 F3600
G1 X83.931 Y60.027 E4.53431 ; infill
G1 E-1.26 ; retract
;WIPE_START
G1 X84.638 Y60.734 E-.54 ; wipe and retract
;WIPE_END
G1 X84.638 Y60.741 F9000
G1 X88.712 Y60.741 ; move to first infill point
G1 X88.712 Y60.027 ; move to first infill point
G1 E1.8 F2400 ;  ; unretract
G1 F3600
G1 X159.973 Y131.288 E4.24924 ; infill
G1 E-1.26 ; retract
;WIPE_START
G1 X159.266 Y130.581 E-.54 ; wipe and retract
;WIPE_END
G1 X159.259 Y130.581 F9000
G1 X159.259 Y107.384 ; move to first infill point
G1 X159.973 Y107.384 ; move to first infill point
G1 E1.8 F2400 ;  ; unretract
G1 F3600
G1 X112.616 Y60.027 E2.82388 ; infill
G1 E-1.26 ; retract
;WIPE_START
G1 X113.323 Y60.734 E-.54 ; wipe and retract
;WIPE_END
G1 X113.323 Y60.741 F9000
G1 X117.396 Y60.741 ; move to first infill point
G1 X117.396 Y60.027 ; move to first infill point
G1 E1.8 F2400 ;  ; unretract
G1 F3600
G1 X159.973 Y102.604 E2.5388 ; infill
G1 E-1.26 ; retract
;WIPE_START
G1 X159.266 Y101.897 E-.54 ; wipe and retract
;WIPE_END
G1 X159.259 Y101.897 F9000
G1 X159.259 Y97.823 ; move to first infill point
G1 X159.973 Y97.823 ; move to first infill point
G1 E1.8 F2400 ;  ; unretract
G1 F3600
G1 X122.177 Y60.027 E2.25373 ; infill
G1 E-1.26 ; retract
;WIPE_START
G1 X122.884 Y60.734 E-.54 ; wipe and retract
;WIPE_END
G1 X122.884 Y60.741 F9000
G1 X126.958 Y60.741 ; move to first infill point
G1 X126.958 Y60.027 ; move to first infill point
G1 E1.8 F2400 ;  ; unretract
G1 F3600
G1 X159.973 Y93.042 E1.96866 ; infill
G1 E-1.26 ; retract
;WIPE_START
G1 X159.266 Y92.335 E-.54 ; wipe and retract
;WIPE_END
G1 X159.259 Y92.335 F9000
G1 X159.259 Y69.138 ; move to first infill point
G1 X159.973 Y69.138 ; move to first infill point
G1 E1.8 F2400 ;  ; unretract
G1 F3600
G1 X150.862 Y60.027 E.5433 ; infill
G1 E-1.26 ; retract
;WIPE_START
G1 X151.569 Y60.734 E-.54 ; wipe and retract
;WIPE_END
G1 X151.569 Y60.741 F9000
G1 X155.643 Y60.741 ; move to first infill point
G1 X155.643 Y60.027 ; move to first infill point
G1 E1.8 F2400 ;  ; unretract
G1 F3600
G1 X159.973 Y64.357 E.25822 ; infill
G1 E-1.26 ; retract
;WIPE_START
G1 X159.266 Y63.65 E-.54 ; wipe and retract
;WIPE_END
G1 X159.259 Y63.65 F9000
G1 X159.259 Y60.741 ; move to first infill point
G1 X146.081 Y60.741 ; move to first infill point
G1 X146.081 Y60.027 ; move to first infill point
G1 E1.8 F2400 ;  ; unretract
G1 F3600
G1 X159.973 Y73.919 E.82837 ; infill
G1 E-1.26 ; retract
;WIPE_START
G1 X159.266 Y73.212 E-.54 ; wipe and retract
;WIPE_END
G1 X159.259 Y73.212 F9000
G1 X159.259 Y78.7 ; move to first infill point
G1 X159.973 Y78.7 ; move to first infill point
G1 E1.8 F2400 ;  ; unretract
G1 F3600
G1 X141.3 Y60.027 E1.11344 ; infill
G1 E-1.26 ; retract
;WIPE_START
G1 X142.007 Y60.734 E-.54 ; wipe and retract
;WIPE_END
G1 X142.007 Y60.741 F9000
G1 X136.519 Y60.741 ; move to first infill point
G1 X136.519 Y60.027 ; move to first infill point
G1 E1.8 F2400 ;  ; unretract
G1 F3600
G1 X159.973 Y83.481 E1.39851 ; infill
G1 E-1.26 ; retract
;WIPE_START
G1 X159.266 Y82.773 E-.54 ; wipe and retract
;WIPE_END
G1 X159.259 Y82.773 F9000
G1 X159.259 Y88.261 ; move to first infill point
G1 X159.973 Y88.261 ; move to first infill point
G1 E1.8 F2400 ;  ; unretract
G1 F3600
G1 X131.739 Y60.027 E1.68359 ; infill
G1 E-1.26 ; retract
;WIPE_START
G1 X132.446 Y60.734 E-.54 ; wipe and retract
;WIPE_END
G1 X132.446 Y60.741 F9000
G1 X107.835 Y60.741 ; move to first infill point
G1 X107.835 Y60.027 ; move to first infill point
G1 E1.8 F2400 ;  ; unretract
G1 F3600
G1 X159.973 Y112.165 E3.10895 ; infill
G1 E-1.26 ; retract
;WIPE_START
G1 X159.266 Y111.458 E-.54 ; wipe and retract
;WIPE_END
G1 X159.259 Y111.458 F9000
G1 X159.259 Y116.946 ; move to first infill point
G1 X159.973 Y116.946 ; move to first infill point
G1 E1.8 F2400 ;  ; unretract
G1 F3600
G1 X103.054 Y60.027 E3.39402 ; infill
G1 E-1.26 ; retract
;WIPE_START
G1 X103.761 Y60.734 E-.54 ; wipe and retract
;WIPE_END
G1 X103.761 Y60.741 F9000
G1 X98.273 Y60.741 ; move to first infill point
G1 X98.273 Y60.027 ; move to first infill point
G1 E1.8 F2400 ;  ; unretract
G1 F3600
G1 X159.973 Y121.727 E3.67909 ; infill
G1 E-1.26 ; retract
;WIPE_START
G1 X159.266 Y121.02 E-.54 ; wipe and retract
;WIPE_END
G1 X159.259 Y121.02 F9000
G1 X159.259 Y126.508 ; move to first infill point
G1 X159.973 Y126.508 ; move to first infill point
G1 E1.8 F2400 ;  ; unretract
G1 F3600
G1 X93.492 Y60.027 E3.96416 ; infill
G1 E-1.26 ; retract
;WIPE_START
G1 X94.199 Y60.734 E-.54 ; wipe and retract
;WIPE_END
G1 X94.199 Y60.741 F9000
G1 X60.741 Y60.741 ; move to first infill point
G1 X60.741 Y64.808 ; move to first infill point
G1 X60.027 Y64.808 ; move to first infill point
G1 E1.8 F2400 ;  ; unretract
G1 F3600
G1 X155.192 Y159.973 E5.6746 ; infill
G1 E-1.26 ; retract
;WIPE_START
G1 X154.485 Y159.266 E-.54 ; wipe and retract
;WIPE_END
G1 X154.485 Y159.259 F9000
G1 X150.412 Y159.259 ; move to first infill point
G1 X150.412 Y159.973 ; move to first infill point
G1 E1.8 F2400 ;  ; unretract
G1 F3600
G1 X60.027 Y69.588 E5.38953 ; infill
G1 E-1.26 ; retract
;WIPE_START
G1 X60.734 Y70.296 E-.54 ; wipe and retract
;WIPE_END
G1 X60.741 Y70.296 F9000
G1 X60.741 Y159.259 ; move to first infill point
G1 X64.357 Y159.259 ; move to first infill point
G1 X64.357 Y159.973 ; move to first infill point
G1 E1.8 F2400 ;  ; unretract
G1 F3600
G1 X60.027 Y155.643 E.25822 ; infill
G1 E-1.26 ; retract
;WIPE_START
G1 X60.734 Y156.35 E-.54 ; wipe and retract
;WIPE_END
G1 X60.741 Y156.35 F9000
G1 X60.741 Y150.862 ; move to first infill point
G1 X60.027 Y150.862 ; move to first infill point
G1 E1.8 F2400 ;  ; unretract
G1 F3600
G1 X69.138 Y159.973 E.5433 ; infill
G1 E-1.26 ; retract
;WIPE_START
G1 X68.431 Y159.266 E-.54 ; wipe and retract
;WIPE_END
G1 X68.431 Y159.259 F9000
G1 X73.919 Y159.259 ; move to first infill point
G1 X73.919 Y159.973 ; move to first infill point
G1 E1.8 F2400 ;  ; unretract
G1 F3600
G1 X60.027 Y146.081 E.82837 ; infill
G1 E-1.26 ; retract
;WIPE_START
G1 X60.734 Y146.788 E-.54 ; wipe and retract
;WIPE_END
G1 X60.741 Y146.788 F9000
G1 X60.741 Y141.3 ; move to first infill point
G1 X60.027 Y141.3 ; move to first infill point
G1 E1.8 F2400 ;  ; unretract
G1 F3600
G1 X78.7 Y159.973 E1.11344 ; infill
G1 E-1.26 ; retract
;WIPE_START
G1 X77.993 Y159.266 E-.54 ; wipe and retract
;WIPE_END
G1 X77.993 Y159.259 F9000
G1 X83.481 Y159.259 ; move to first infill point
G1 X83.481 Y159.973 ; move to first infill point
G1 E1.8 F2400 ;  ; unretract
G1 F3600
G1 X60.027 Y136.519 E1.39851 ; infill
G1 E-1.26 ; retract
;WIPE_START
G1 X60.734 Y137.227 E-.54 ; wipe and retract
;WIPE_END
G1 X60.741 Y137.227 F9000
G1 X60.741 Y122.177 ; move to first infill point
G1 X60.027 Y122.177 ; move to first infill point
G1 E1.8 F2400 ;  ; unretract
G1 F3600
G1 X97.823 Y159.973 E2.25373 ; infill
G1 E-1.26 ; retract
;WIPE_START
G1 X97.116 Y159.266 E-.54 ; wipe and retract
;WIPE_END
G1 X97.116 Y159.259 F9000
G1 X93.042 Y159.259 ; move to first infill point
G1 X93.042 Y159.973 ; move to first infill point
G1 E1.8 F2400 ;  ; unretract
G1 F3600
G1 X60.027 Y126.958 E1.96866 ; infill
G1 E-1.26 ; retract
;WIPE_START
G1 X60.734 Y127.665 E-.54 ; wipe and retract
;WIPE_END
G1 X60.741 Y127.665 F9000
G1 X60.741 Y131.739 ; move to first infill point
G1 X60.027 Y131.739 ; move to first infill point
G1 E1.8 F2400 ;  ; unretract
G1 F3600
G1 X88.261 Y159.973 E1.68359 ; infill
G1 E-1.26 ; retract
;WIPE_START
G1 X87.554 Y159.266 E-.54 ; wipe and retract
;WIPE_END
G1 X87.554 Y159.259 F9000
G1 X102.604 Y159.259 ; move to first infill point
G1 X102.604 Y159.973 ; move to first infill point
G1 E1.8 F2400 ;  ; unretract
G1 F3600
G1 X60.027 Y117.396 E2.5388 ; infill
G1 E-1.26 ; retract
;WIPE_START
G1 X60.734 Y118.103 E-.54 ; wipe and retract
;WIPE_END
G1 X60.741 Y118.103 F9000
G1 X60.741 Y112.616 ; move to first infill point
G1 X60.027 Y112.616 ; move to first infill point
G1 E1.8 F2400 ;  ; unretract
G1 F3600
G1 X107.384 Y159.973 E2.82388 ; infill
G1 E-1.26 ; retract
;WIPE_START
G1 X106.677 Y159.266 E-.54 ; wipe and retract
;WIPE_END
G1 X106.677 Y159.259 F9000
G1 X112.165 Y159.259 ; move to first infill point
G1 X112.165 Y159.973 ; move to first infill point
G1 E1.8 F2400 ;  ; unretract
G1 F3600
G1 X60.027 Y107.835 E3.10895 ; infill
G1 E-1.26 ; retract
;WIPE_START
G1 X60.734 Y108.542 E-.54 ; wipe and retract
;WIPE_END
G1 X60.741 Y108.542 F9000
G1 X60.741 Y103.054 ; move to first infill point
G1 X60.027 Y103.054 ; move to first infill point
G1 E1.8 F2400 ;  ; unretract
G1 F3600
G1 X116.946 Y159.973 E3.39402 ; infill
G1 E-1.26 ; retract
;WIPE_START
G1 X116.239 Y159.266 E-.54 ; wipe and retract
;WIPE_END
G1 X116.239 Y159.259 F9000
G1 X121.727 Y159.259 ; move to first infill point
G1 X121.727 Y159.973 ; move to first infill point
G1 E1.8 F2400 ;  ; unretract
G1 F3600
G1 X60.027 Y98.273 E3.67909 ; infill
G1 E-1.26 ; retract
;WIPE_START
G1 X60.734 Y98.98 E-.54 ; wipe and retract
;WIPE_END
G1 X60.741 Y98.98 F9000
G1 X60.741 Y83.931 ; move to first infill point
G1 X60.027 Y83.931 ; move to first infill point
G1 E1.8 F2400 ;  ; unretract
G1 F3600
G1 X136.069 Y159.973 E4.53431 ; infill
G1 E-1.26 ; retract
;WIPE_START
G1 X135.362 Y159.266 E-.54 ; wipe and retract
;WIPE_END
G1 X135.362 Y159.259 F9000
G1 X140.85 Y159.259 ; move to first infill point
G1 X140.85 Y159.973 ; move to first infill point
G1 E1.8 F2400 ;  ; unretract
G1 F3600
G1 X60.027 Y79.15 E4.81938 ; infill
G1 E-1.26 ; retract
;WIPE_START
G1 X60.734 Y79.857 E-.54 ; wipe and retract
;WIPE_END
G1 X60.741 Y79.857 F9000
G1 X60.741 Y74.369 ; move to first infill point
G1 X60.027 Y74.369 ; move to first infill point
G1 E1.8 F2400 ;  ; unretract
G1 F3600
G1 X145.631 Y159.973 E5.10445 ; infill
G1 E-1.26 ; retract
;WIPE_START
G1 X144.924 Y159.266 E-.54 ; wipe and retract
;WIPE_END
G1 X144.924 Y159.259 F9000
G1 X131.288 Y159.259 ; move to first infill point
G1 X131.288 Y159.973 ; move to first infill point
G1 E1.8 F2400 ;  ; unretract
G1 F3600
G1 X60.027 Y88.712 E4.24924 ; infill
G1 E-1.26 ; retract
;WIPE_START
G1 X60.734 Y89.419 E-.54 ; wipe and retract
;WIPE_END
G1 X60.741 Y89.419 F9000
G1 X60.741 Y93.492 ; move to first infill point
G1 X60.027 Y93.492 ; move to first infill point
G1 E1.8 F2400 ;  ; unretract
G1 F3600
G1 X126.508 Y159.973 E3.96416 ; infill
; stop printing object Cube id:15 copy 0
M106 S255 ; enable fan
;LAYER_CHANGE
;Z:0.4
;HEIGHT:0.2
;BEFORE_LAYER_CHANGE
;0.4
G92 E0

G1 E-1.26 F3600 ; retract
;WIPE_START
G1 X125.801 Y159.266 E-.54 ; wipe and retract
;WIPE_END
;_SET_FAN_SPEED_CHANGING_LAYER
M140 S55 ; set bed temperature
; printing object Cube id:15 copy 0
G1 X125.801 Y159.259 Z.4 F9000 ; move to first infill point
G1 X126.958 Y159.259 ; move to first infill point
G1 X126.958 Y159.973 ; move to first infill point
G1 E1.8 F2400 ;  ; unretract
G1 F3600
G1 X159.973 Y126.958 E1.96866 ; infill
G1 X159.259 Y126.958 F9000
M73 P0 R526
G1 X159.259 Y122.177 ; move to first infill point
G1 X159.973 Y122.177 ; move to first infill point
G1 F3600
G1 X122.177 Y159.973 E2.25373 ; infill
G1 X122.177 Y159.259 F9000
G1 X117.396 Y159.259 ; move to first infill point
G1 X117.396 Y159.973 ; move to first infill point
G1 F3600
G1 X159.973 Y117.396 E2.5388 ; infill
G1 X159.259 Y117.396 F9000
G1 X159.259 Y103.054 ; move to first infill point
G1 X159.973 Y103.054 ; move to first infill point
G1 F3600
G1 X103.054 Y159.973 E3.39402 ; infill
G1 X103.054 Y159.259 F9000
G1 X107.835 Y159.259 ; move to first infill point
G1 X107.835 Y159.973 ; move to first infill point
G1 F3600
G1 X159.973 Y107.835 E3.10895 ; infill
G1 X159.259 Y107.835 F9000
G1 X159.259 Y112.616 ; move to first infill point
G1 X159.973 Y112.616 ; move to first infill point
G1 F3600
G1 X112.616 Y159.973 E2.82388 ; infill
G1 X112.616 Y159.259 F9000
G1 X98.273 Y159.259 ; move to first infill point
G1 X98.273 Y159.973 ; move to first infill point
G1 F3600
G1 X159.973 Y98.273 E3.67909 ; infill
G1 X159.259 Y98.273 F9000
G1 X159.259 Y93.492 ; move to first infill point
G1 X159.973 Y93.492 ; move to first infill point
G1 F3600
G1 X93.492 Y159.973 E3.96416 ; infill
G1 X93.492 Y159.259 F9000
G1 X69.588 Y159.259 ; move to first infill point
G1 X69.588 Y159.973 ; move to first infill point
G1 F3600
G1 X159.973 Y69.588 E5.38953 ; infill
G1 X159.259 Y69.588 F9000
G1 X159.259 Y74.369 ; move to first infill point
G1 X159.973 Y74.369 ; move to first infill point
G1 F3600
G1 X74.369 Y159.973 E5.10445 ; infill
G1 X74.369 Y159.259 F9000
G1 X79.15 Y159.259 ; move to first infill point
G1 X79.15 Y159.973 ; move to first infill point
G1 F3600
G1 X159.973 Y79.15 E4.81938 ; infill
G1 X159.259 Y79.15 F9000
G1 X159.259 Y83.931 ; move to first infill point
G1 X159.973 Y83.931 ; move to first infill point
G1 F3600
G1 X83.931 Y159.973 E4.53431 ; infill
G1 X83.931 Y159.259 F9000
G1 X88.712 Y159.259 ; move to first infill point
G1 X88.712 Y159.973 ; move to first infill point
G1 F3600
G1 X159.973 Y88.712 E4.24924 ; infill
G1 X159.259 Y88.712 F9000
G1 X159.259 Y64.808 ; move to first infill point
G1 X159.973 Y64.808 ; move to first infill point
G1 F3600
G1 X64.808 Y159.973 E5.6746 ; infill
G1 X64.808 Y159.259 F9000
G1 X60.741 Y159.259 ; move to first infill point
G1 X60.027 Y159.973 ; move to first infill point
G1 F3600
G1 X159.973 Y60.027 E5.95967 ; infill
