; HEADER_BLOCK_START
; generated by OrcaSlicer 2.3.1-alpha on 2025-09-10 at 11:42:22
; total layer number: 500
; filament_density: 1
; filament_diameter: 1.75
; max_z_height: 100.00
; HEADER_BLOCK_END

; external perimeters extrusion width = 0.55mm
; perimeters extrusion width = 0.55mm
; infill extrusion width = 0.55mm
; solid infill extrusion width = 0.55mm
; top infill extrusion width = 0.55mm
; first layer extrusion width = 0.55mm

; EXECUTABLE_BLOCK_START
M73 P0 R182
;TYPE:Custom
G90 ; use absolute coordinates
M83 ; extruder relative mode
M140 S60 ; set final bed temp
M104 S150 ; set temporary nozzle temp to prevent oozing during homing
G4 S10 ; allow partial nozzle warmup
G28 ; home all axis
M104 S200 ; set final nozzle temp
M190 S60 ; wait for bed temp to stabilize
M109 S200 ; wait for nozzle temp to stabilize
G1 Z0.28 F240
G92 E0
G1 X2.3 F5000
G92 E0
G92 E0
G90
G21
M83 ; use relative distances for extrusion
; filament start gcode
M900 K0.28; Override pressure advance value
M106 S0 ; disable fan
;LAYER_CHANGE
;Z:0.2
;HEIGHT:0.2
;BEFORE_LAYER_CHANGE
;0.2
G92 E0

G1 E-1.8 F3600 ; retract
;_SET_FAN_SPEED_CHANGING_LAYER
; printing object Cube id:15 copy 0
G1 X98.059 Y60.255 F9000 ; move to first infill point
G1 Z.2 ; move to first infill point
G1 E1.8 F2400 ;  ; unretract
;TYPE:Sparse infill
;WIDTH:0.55
G1 F2042
G1 X60.255 Y125.733 E3.1879 ; infill
G1 E-1.26 F3600 ; retract
;WIPE_START
G1 X60.755 Y124.867 E-.54 ; wipe and retract
;WIPE_END
G1 X60.741 Y124.867 F9000
G1 X60.741 Y145.214 ; move to first infill point
G1 X60.255 Y145.214 ; move to first infill point
G1 E1.8 F2400 ;  ; unretract
G1 F2042
G1 X159.745 Y145.214 E4.19488 ; infill
G1 E-1.26 F3600 ; retract
;WIPE_START
G1 X158.745 Y145.214 E-.54 ; wipe and retract
;WIPE_END
G1 X159.259 Y145.214 F9000
G1 X159.259 Y125.733 ; move to first infill point
G1 X159.745 Y125.733 ; move to first infill point
G1 E1.8 F2400 ;  ; unretract
G1 F2042
G1 X121.941 Y60.255 E3.1879 ; infill
; stop printing object Cube id:15 copy 0
M106 S255 ; enable fan
;LAYER_CHANGE
;Z:0.4
;HEIGHT:0.2
;BEFORE_LAYER_CHANGE
;0.4
G92 E0

G1 E-1.26 F3600 ; retract
;WIPE_START
G1 X122.441 Y61.121 E-.54 ; wipe and retract
;WIPE_END
;_SET_FAN_SPEED_CHANGING_LAYER
M140 S55 ; set bed temperature
; printing object Cube id:15 copy 0
G1 X122.441 Y60.741 Z.4 F9000 ; move to first infill point
G1 X121.778 Y60.741 ; move to first infill point
G1 X121.778 Y60.255 ; move to first infill point
G1 E1.8 F2400 ;  ; unretract
G1 F2020
G1 X159.745 Y126.016 E3.20167 ; infill
G1 X159.259 Y126.016 F9000
G1 X159.259 Y145.072 ; move to first infill point
G1 X159.745 Y145.072 ; move to first infill point
G1 F2020
G1 X60.255 Y145.072 E4.19488 ; infill
G1 X60.741 Y145.072 F9000
G1 X60.741 Y126.016 ; move to first infill point
G1 X60.255 Y126.016 ; move to first infill point
G1 F2020
G1 X98.222 Y60.255 E3.20167 ; infill
; stop printing object Cube id:15 copy 0
;LAYER_CHANGE
;Z:0.6
;HEIGHT:0.2
;BEFORE_LAYER_CHANGE
;0.6
G92 E0

G1 E-1.26 F3600 ; retract
;WIPE_START
G1 X97.722 Y61.121 E-.54 ; wipe and retract
;WIPE_END
;_SET_FAN_SPEED_CHANGING_LAYER
; printing object Cube id:15 copy 0
G1 X97.722 Y60.741 Z.6 F9000 ; move to first infill point
G1 X98.385 Y60.741 ; move to first infill point
G1 X98.385 Y60.255 ; move to first infill point
G1 E1.8 F2400 ;  ; unretract
G1 F2023
G1 X60.255 Y126.299 E3.21544 ; infill
G1 X60.741 Y126.299 F9000
G1 X60.741 Y144.931 ; move to first infill point
G1 X60.255 Y144.931 ; move to first infill point
G1 F2023
G1 X159.745 Y144.931 E4.19488 ; infill
G1 X159.259 Y144.931 F9000
G1 X159.259 Y126.299 ; move to first infill point
G1 X159.745 Y126.299 ; move to first infill point
G1 F2023
G1 X121.615 Y60.255 E3.21545 ; infill
; stop printing object Cube id:15 copy 0
;LAYER_CHANGE
;Z:0.8
;HEIGHT:0.2
;BEFORE_LAYER_CHANGE
;0.8
G92 E0

G1 E-1.26 F3600 ; retract
;WIPE_START
G1 X122.115 Y61.121 E-.54 ; wipe and retract
;WIPE_END
;_SET_FAN_SPEED_CHANGING_LAYER
; printing object Cube id:15 copy 0
G1 X122.115 Y60.741 Z.8 F9000 ; move to first infill point
G1 X121.451 Y60.741 ; move to first infill point
G1 X121.451 Y60.255 ; move to first infill point
G1 E1.8 F2400 ;  ; unretract
G1 F2027
G1 X159.745 Y126.582 E3.22922 ; infill
G1 X159.259 Y126.582 F9000
G1 X159.259 Y144.79 ; move to first infill point
G1 X159.745 Y144.79 ; move to first infill point
G1 F2027
G1 X60.255 Y144.79 E4.19488 ; infill
G1 X60.741 Y144.79 F9000
G1 X60.741 Y126.582 ; move to first infill point
G1 X60.255 Y126.582 ; move to first infill point
G1 F2027
G1 X98.549 Y60.255 E3.22922 ; infill
; stop printing object Cube id:15 copy 0
;LAYER_CHANGE
;Z:1
;HEIGHT:0.2
;BEFORE_LAYER_CHANGE
;1
G92 E0

G1 E-1.26 F3600 ; retract
;WIPE_START
G1 X98.049 Y61.121 E-.54 ; wipe and retract
;WIPE_END
;_SET_FAN_SPEED_CHANGING_LAYER
; printing object Cube id:15 copy 0
G1 X98.049 Y60.741 Z1 F9000 ; move to first infill point
G1 X98.712 Y60.741 ; move to first infill point
G1 X98.712 Y60.255 ; move to first infill point
G1 E1.8 F2400 ;  ; unretract
G1 F2031
G1 X60.255 Y126.864 E3.24299 ; infill
G1 X60.741 Y126.864 F9000
G1 X60.741 Y144.648 ; move to first infill point
G1 X60.255 Y144.648 ; move to first infill point
G1 F2031
G1 X159.745 Y144.648 E4.19488 ; infill
G1 X159.259 Y144.648 F9000
M73 P0 R181
G1 X159.259 Y126.864 ; move to first infill point
G1 X159.745 Y126.864 ; move to first infill point
G1 F2031
G1 X121.288 Y60.255 E3.24299 ; infill
; stop printing object Cube id:15 copy 0
;LAYER_CHANGE
;Z:1.2
;HEIGHT:0.2
;BEFORE_LAYER_CHANGE
;1.2
G92 E0

G1 E-1.26 F3600 ; retract
;WIPE_START
G1 X121.788 Y61.121 E-.54 ; wipe and retract
;WIPE_END
;_SET_FAN_SPEED_CHANGING_LAYER
; printing object Cube id:15 copy 0
G1 X121.788 Y60.741 Z1.2 F9000 ; move to first infill point
G1 X121.125 Y60.741 ; move to first infill point
G1 X121.125 Y60.255 ; move to first infill point
G1 E1.8 F2400 ;  ; unretract
G1 F2034
G1 X159.745 Y127.147 E3.25676 ; infill
G1 X159.259 Y127.147 F9000
G1 X159.259 Y144.507 ; move to first infill point
G1 X159.745 Y144.507 ; move to first infill point
G1 F2034
G1 X60.255 Y144.507 E4.19488 ; infill
G1 X60.741 Y144.507 F9000
G1 X60.741 Y127.147 ; move to first infill point
G1 X60.255 Y127.147 ; move to first infill point
G1 F2034
G1 X98.875 Y60.255 E3.25676 ; infill
; stop printing object Cube id:15 copy 0
;LAYER_CHANGE
;Z:1.4
;HEIGHT:0.2
;BEFORE_LAYER_CHANGE
;1.4
G92 E0

G1 E-1.26 F3600 ; retract
;WIPE_START
G1 X98.375 Y61.121 E-.54 ; wipe and retract
;WIPE_END
;_SET_FAN_SPEED_CHANGING_LAYER
; printing object Cube id:15 copy 0
G1 X98.375 Y60.741 Z1.4 F9000 ; move to first infill point
G1 X99.039 Y60.741 ; move to first infill point
G1 X99.039 Y60.255 ; move to first infill point
G1 E1.8 F2400 ;  ; unretract
G1 F2038
G1 X60.255 Y127.43 E3.27053 ; infill
G1 X60.741 Y127.43 F9000
G1 X60.741 Y144.365 ; move to first infill point
G1 X60.255 Y144.365 ; move to first infill point
G1 F2038
G1 X159.745 Y144.365 E4.19488 ; infill
G1 X159.259 Y144.365 F9000
G1 X159.259 Y127.43 ; move to first infill point
G1 X159.745 Y127.43 ; move to first infill point
G1 F2038
G1 X120.961 Y60.255 E3.27053 ; infill
; stop printing object Cube id:15 copy 0
;LAYER_CHANGE
;Z:1.6
;HEIGHT:0.2
;BEFORE_LAYER_CHANGE
;1.6
G92 E0

G1 E-1.26 F3600 ; retract
;WIPE_START
G1 X121.461 Y61.121 E-.54 ; wipe and retract
;WIPE_END
;_SET_FAN_SPEED_CHANGING_LAYER
; printing object Cube id:15 copy 0
G1 X121.461 Y60.741 Z1.6 F9000 ; move to first infill point
G1 X120.798 Y60.741 ; move to first infill point
G1 X120.798 Y60.255 ; move to first infill point
G1 E1.8 F2400 ;  ; unretract
G1 F2042
G1 X159.745 Y127.713 E3.2843 ; infill
G1 X159.259 Y127.713 F9000
G1 X159.259 Y144.224 ; move to first infill point
G1 X159.745 Y144.224 ; move to first infill point
G1 F2042
G1 X60.255 Y144.224 E4.19488 ; infill
G1 X60.741 Y144.224 F9000
G1 X60.741 Y127.713 ; move to first infill point
G1 X60.255 Y127.713 ; move to first infill point
G1 F2042
G1 X99.202 Y60.255 E3.2843 ; infill
; stop printing object Cube id:15 copy 0
;LAYER_CHANGE
;Z:1.8
;HEIGHT:0.2
;BEFORE_LAYER_CHANGE
;1.8
G92 E0

G1 E-1.26 F3600 ; retract
;WIPE_START
G1 X98.702 Y61.121 E-.54 ; wipe and retract
;WIPE_END
;_SET_FAN_SPEED_CHANGING_LAYER
; printing object Cube id:15 copy 0
G1 X98.702 Y60.741 Z1.8 F9000 ; move to first infill point
G1 X99.365 Y60.741 ; move to first infill point
G1 X99.365 Y60.255 ; move to first infill point
G1 E1.8 F2400 ;  ; unretract
G1 F2045
G1 X60.255 Y127.996 E3.29807 ; infill
G1 X60.741 Y127.996 F9000
G1 X60.741 Y144.083 ; move to first infill point
G1 X60.255 Y144.083 ; move to first infill point
G1 F2045
G1 X159.745 Y144.083 E4.19488 ; infill
G1 X159.259 Y144.083 F9000
G1 X159.259 Y127.996 ; move to first infill point
G1 X159.745 Y127.996 ; move to first infill point
G1 F2045
G1 X120.635 Y60.255 E3.29807 ; infill
; stop printing object Cube id:15 copy 0
;LAYER_CHANGE
;Z:2
;HEIGHT:0.2
;BEFORE_LAYER_CHANGE
;2
G92 E0

G1 E-1.26 F3600 ; retract
;WIPE_START
G1 X121.135 Y61.121 E-.54 ; wipe and retract
;WIPE_END
;_SET_FAN_SPEED_CHANGING_LAYER
; printing object Cube id:15 copy 0
G1 X121.135 Y60.741 Z2 F9000 ; move to first infill point
G1 X120.472 Y60.741 ; move to first infill point
G1 X120.472 Y60.255 ; move to first infill point
G1 E1.8 F2400 ;  ; unretract
G1 F2049
G1 X159.745 Y128.279 E3.31184 ; infill
G1 X159.259 Y128.279 F9000
G1 X159.259 Y143.941 ; move to first infill point
G1 X159.745 Y143.941 ; move to first infill point
G1 F2049
G1 X60.255 Y143.941 E4.19488 ; infill
G1 X60.741 Y143.941 F9000
G1 X60.741 Y128.279 ; move to first infill point
G1 X60.255 Y128.279 ; move to first infill point
G1 F2049
G1 X99.528 Y60.255 E3.31184 ; infill
; stop printing object Cube id:15 copy 0
;LAYER_CHANGE
;Z:2.2
;HEIGHT:0.2
;BEFORE_LAYER_CHANGE
;2.2
G92 E0

G1 E-1.26 F3600 ; retract
;WIPE_START
G1 X99.028 Y61.121 E-.54 ; wipe and retract
;WIPE_END
;_SET_FAN_SPEED_CHANGING_LAYER
; printing object Cube id:15 copy 0
G1 X99.028 Y60.741 Z2.2 F9000 ; move to first infill point
G1 X99.692 Y60.741 ; move to first infill point
G1 X99.692 Y60.255 ; move to first infill point
G1 E1.8 F2400 ;  ; unretract
G1 F2053
G1 X60.255 Y128.561 E3.32561 ; infill
G1 X60.741 Y128.561 F9000
G1 X60.741 Y143.8 ; move to first infill point
G1 X60.255 Y143.8 ; move to first infill point
G1 F2053
G1 X159.745 Y143.8 E4.19488 ; infill
G1 X159.259 Y143.8 F9000
G1 X159.259 Y128.561 ; move to first infill point
G1 X159.745 Y128.561 ; move to first infill point
G1 F2053
G1 X120.308 Y60.255 E3.32561 ; infill
; stop printing object Cube id:15 copy 0
;LAYER_CHANGE
;Z:2.4
;HEIGHT:0.2
;BEFORE_LAYER_CHANGE
;2.4
G92 E0

G1 E-1.26 F3600 ; retract
;WIPE_START
G1 X120.808 Y61.121 E-.54 ; wipe and retract
;WIPE_END
;_SET_FAN_SPEED_CHANGING_LAYER
; printing object Cube id:15 copy 0
G1 X120.808 Y60.741 Z2.4 F9000 ; move to first infill point
G1 X120.145 Y60.741 ; move to first infill point
G1 X120.145 Y60.255 ; move to first infill point
G1 E1.8 F2400 ;  ; unretract
G1 F2056
G1 X159.745 Y128.844 E3.33938 ; infill
G1 X159.259 Y128.844 F9000
G1 X159.259 Y143.658 ; move to first infill point
G1 X159.745 Y143.658 ; move to first infill point
G1 F2056
G1 X60.255 Y143.658 E4.19488 ; infill
G1 X60.741 Y143.658 F9000
M73 P0 R180
G1 X60.741 Y128.844 ; move to first infill point
G1 X60.255 Y128.844 ; move to first infill point
G1 F2056
G1 X99.855 Y60.255 E3.33938 ; infill
; stop printing object Cube id:15 copy 0
;LAYER_CHANGE
;Z:2.6
;HEIGHT:0.2
;BEFORE_LAYER_CHANGE
;2.6
G92 E0

G1 E-1.26 F3600 ; retract
;WIPE_START
G1 X99.355 Y61.121 E-.54 ; wipe and retract
;WIPE_END
;_SET_FAN_SPEED_CHANGING_LAYER
; printing object Cube id:15 copy 0
G1 X99.355 Y60.741 Z2.6 F9000 ; move to first infill point
G1 X100.018 Y60.741 ; move to first infill point
G1 X100.018 Y60.255 ; move to first infill point
G1 E1.8 F2400 ;  ; unretract
G1 F2060
G1 X60.255 Y129.127 E3.35315 ; infill
G1 X60.741 Y129.127 F9000
G1 X60.741 Y143.517 ; move to first infill point
G1 X60.255 Y143.517 ; move to first infill point
G1 F2060
G1 X159.745 Y143.517 E4.19488 ; infill
G1 X159.259 Y143.517 F9000
M73 P1 R180
G1 X159.259 Y129.127 ; move to first infill point
G1 X159.745 Y129.127 ; move to first infill point
G1 F2060
G1 X119.982 Y60.255 E3.35315 ; infill
; stop printing object Cube id:15 copy 0
;LAYER_CHANGE
;Z:2.8
;HEIGHT:0.2
;BEFORE_LAYER_CHANGE
;2.8
G92 E0

G1 E-1.26 F3600 ; retract
;WIPE_START
G1 X120.482 Y61.121 E-.54 ; wipe and retract
;WIPE_END
;_SET_FAN_SPEED_CHANGING_LAYER
; printing object Cube id:15 copy 0
G1 X120.482 Y60.741 Z2.8 F9000 ; move to first infill point
G1 X119.818 Y60.741 ; move to first infill point
G1 X119.818 Y60.255 ; move to first infill point
G1 E1.8 F2400 ;  ; unretract
G1 F2063
G1 X159.745 Y129.41 E3.36692 ; infill
G1 X159.259 Y129.41 F9000
G1 X159.259 Y143.375 ; move to first infill point
G1 X159.745 Y143.375 ; move to first infill point
G1 F2063
G1 X60.255 Y143.375 E4.19488 ; infill
G1 X60.741 Y143.375 F9000
G1 X60.741 Y129.41 ; move to first infill point
G1 X60.255 Y129.41 ; move to first infill point
G1 F2063
G1 X100.182 Y60.255 E3.36692 ; infill
; stop printing object Cube id:15 copy 0
;LAYER_CHANGE
;Z:3
;HEIGHT:0.2
;BEFORE_LAYER_CHANGE
;3
G92 E0

G1 E-1.26 F3600 ; retract
;WIPE_START
G1 X99.682 Y61.121 E-.54 ; wipe and retract
;WIPE_END
;_SET_FAN_SPEED_CHANGING_LAYER
; printing object Cube id:15 copy 0
G1 X99.682 Y60.741 Z3 F9000 ; move to first infill point
G1 X100.345 Y60.741 ; move to first infill point
G1 X100.345 Y60.255 ; move to first infill point
G1 E1.8 F2400 ;  ; unretract
G1 F2067
G1 X60.255 Y129.693 E3.38069 ; infill
G1 X60.741 Y129.693 F9000
G1 X60.741 Y143.234 ; move to first infill point
G1 X60.255 Y143.234 ; move to first infill point
G1 F2067
G1 X159.745 Y143.234 E4.19488 ; infill
G1 X159.259 Y143.234 F9000
G1 X159.259 Y129.693 ; move to first infill point
G1 X159.745 Y129.693 ; move to first infill point
G1 F2067
G1 X119.655 Y60.255 E3.38069 ; infill
; stop printing object Cube id:15 copy 0
;LAYER_CHANGE
;Z:3.2
;HEIGHT:0.2
;BEFORE_LAYER_CHANGE
;3.2
G92 E0

G1 E-1.26 F3600 ; retract
;WIPE_START
G1 X120.155 Y61.121 E-.54 ; wipe and retract
;WIPE_END
;_SET_FAN_SPEED_CHANGING_LAYER
; printing object Cube id:15 copy 0
G1 X120.155 Y60.741 Z3.2 F9000 ; move to first infill point
G1 X119.492 Y60.741 ; move to first infill point
G1 X119.492 Y60.255 ; move to first infill point
G1 E1.8 F2400 ;  ; unretract
G1 F2071
G1 X159.745 Y129.976 E3.39446 ; infill
G1 X159.259 Y129.976 F9000
G1 X159.259 Y143.093 ; move to first infill point
G1 X159.745 Y143.093 ; move to first infill point
G1 F2071
G1 X60.255 Y143.093 E4.19488 ; infill
G1 X60.741 Y143.093 F9000
G1 X60.741 Y129.976 ; move to first infill point
G1 X60.255 Y129.976 ; move to first infill point
G1 F2071
G1 X100.508 Y60.255 E3.39446 ; infill
; stop printing object Cube id:15 copy 0
;LAYER_CHANGE
;Z:3.4
;HEIGHT:0.2
;BEFORE_LAYER_CHANGE
;3.4
G92 E0

G1 E-1.26 F3600 ; retract
;WIPE_START
G1 X100.008 Y61.121 E-.54 ; wipe and retract
;WIPE_END
;_SET_FAN_SPEED_CHANGING_LAYER
; printing object Cube id:15 copy 0
G1 X100.008 Y60.741 Z3.4 F9000 ; move to first infill point
G1 X100.672 Y60.741 ; move to first infill point
G1 X100.672 Y60.255 ; move to first infill point
G1 E1.8 F2400 ;  ; unretract
G1 F2074
G1 X60.255 Y130.259 E3.40823 ; infill
G1 X60.741 Y130.259 F9000
G1 X60.741 Y142.951 ; move to first infill point
G1 X60.255 Y142.951 ; move to first infill point
G1 F2074
G1 X159.745 Y142.951 E4.19488 ; infill
G1 X159.259 Y142.951 F9000
G1 X159.259 Y130.259 ; move to first infill point
G1 X159.745 Y130.259 ; move to first infill point
G1 F2074
G1 X119.328 Y60.255 E3.40823 ; infill
; stop printing object Cube id:15 copy 0
;LAYER_CHANGE
;Z:3.6
;HEIGHT:0.2
;BEFORE_LAYER_CHANGE
;3.6
G92 E0

G1 E-1.26 F3600 ; retract
;WIPE_START
G1 X119.828 Y61.121 E-.54 ; wipe and retract
;WIPE_END
;_SET_FAN_SPEED_CHANGING_LAYER
; printing object Cube id:15 copy 0
G1 X119.828 Y60.741 Z3.6 F9000 ; move to first infill point
G1 X119.165 Y60.741 ; move to first infill point
G1 X119.165 Y60.255 ; move to first infill point
