; HEADER_BLOCK_START
; generated by OrcaSlicer 2.3.1-alpha on 2025-09-10 at 11:41:59
; total layer number: 500
; filament_density: 1
; filament_diameter: 1.75
; max_z_height: 100.00
; HEADER_BLOCK_END

; external perimeters extrusion width = 0.55mm
; perimeters extrusion width = 0.55mm
; infill extrusion width = 0.55mm
; solid infill extrusion width = 0.55mm
; top infill extrusion width = 0.55mm
; first layer extrusion width = 0.55mm

; EXECUTABLE_BLOCK_START
M73 P0 R485
;TYPE:Custom
G90 ; use absolute coordinates
M83 ; extruder relative mode
M140 S60 ; set final bed temp
M104 S150 ; set temporary nozzle temp to prevent oozing during homing
G4 S10 ; allow partial nozzle warmup
G28 ; home all axis
M104 S200 ; set final nozzle temp
M190 S60 ; wait for bed temp to stabilize
M109 S200 ; wait for nozzle temp to stabilize
G1 Z0.28 F240
G92 E0
G1 X2.3 F5000
G92 E0
G92 E0
G90
G21
M83 ; use relative distances for extrusion
; filament start gcode
M900 K0.28; Override pressure advance value
M106 S0 ; disable fan
;LAYER_CHANGE
;Z:0.2
;HEIGHT:0.2
;BEFORE_LAYER_CHANGE
;0.2
G92 E0

G1 E-1.8 F3600 ; retract
;_SET_FAN_SPEED_CHANGING_LAYER
; printing object Cube id:15 copy 0
G1 X60.255 Y60.255 F9000 ; move to first infill point
G1 Z.2 ; move to first infill point
G1 E1.8 F2400 ;  ; unretract
;TYPE:Sparse infill
;WIDTH:0.55
G1 F3600
G1 X159.745 Y159.745 E5.93246 ; infill
G1 E-1.26 ; retract
;WIPE_START
G1 X159.038 Y159.038 E-.54 ; wipe and retract
;WIPE_END
G1 X159.038 Y159.259 F9000
G1 X159.259 Y159.259 ; move to first infill point
G1 X159.259 Y154.417 ; move to first infill point
G1 X159.745 Y154.417 ; move to first infill point
G1 E1.8 F2400 ;  ; unretract
G1 F3600
G1 X139.862 Y159.745 E.86793 ; infill
G1 E-1.26 ; retract
;WIPE_START
G1 X140.828 Y159.486 E-.54 ; wipe and retract
;WIPE_END
G1 X140.828 Y159.259 F9000
G1 X138.668 Y159.259 ; move to first infill point
G1 X138.668 Y159.745 ; move to first infill point
G1 E1.8 F2400 ;  ; unretract
G1 F3600
G1 X159.745 Y81.086 E3.43358 ; infill
G1 X159.259 Y81.086 F9000
G1 X159.259 Y80.922 ; move to first infill point
G1 X159.745 Y80.922 ; move to first infill point
G1 F3600
G1 X60.255 Y107.58 E4.34286 ; infill
G1 E-1.26 ; retract
;WIPE_START
G1 X61.221 Y107.321 E-.54 ; wipe and retract
;WIPE_END
G1 X60.741 Y107.321 F9000
G1 X60.741 Y103.282 ; move to first infill point
G1 X60.255 Y103.282 ; move to first infill point
G1 E1.8 F2400 ;  ; unretract
G1 F3600
G1 X116.718 Y159.745 E3.36681 ; infill
G1 X116.718 Y159.259 F9000
G1 X117.67 Y159.259 ; move to first infill point
G1 X117.67 Y159.745 ; move to first infill point
G1 F3600
G1 X144.328 Y60.255 E4.34286 ; infill
G1 E-1.26 ; retract
;WIPE_START
G1 X144.069 Y61.221 E-.54 ; wipe and retract
;WIPE_END
G1 X144.069 Y60.741 F9000
G1 X146.309 Y60.741 ; move to first infill point
G1 X146.309 Y60.255 ; move to first infill point
G1 E1.8 F2400 ;  ; unretract
G1 F3600
G1 X159.745 Y73.691 E.80115 ; infill
G1 E-1.26 ; retract
;WIPE_START
G1 X159.038 Y72.984 E-.54 ; wipe and retract
;WIPE_END
G1 X159.259 Y72.984 F9000
G1 X159.259 Y70.422 ; move to first infill point
G1 X159.745 Y70.422 ; move to first infill point
G1 E1.8 F2400 ;  ; unretract
G1 F3600
G1 X60.255 Y97.081 E4.34286 ; infill
G1 E-1.26 ; retract
;WIPE_START
G1 X61.221 Y96.822 E-.54 ; wipe and retract
;WIPE_END
G1 X60.741 Y96.822 F9000
G1 X60.741 Y99.73 ; move to first infill point
G1 X60.255 Y99.73 ; move to first infill point
G1 E1.8 F2400 ;  ; unretract
G1 F3600
G1 X70.832 Y60.255 E1.72315 ; infill
G1 E-1.26 ; retract
;WIPE_START
G1 X70.574 Y61.221 E-.54 ; wipe and retract
;WIPE_END
G1 X70.574 Y60.741 F9000
G1 X74.597 Y60.741 ; move to first infill point
G1 X74.597 Y60.255 ; move to first infill point
G1 E1.8 F2400 ;  ; unretract
G1 F3600
G1 X159.745 Y145.403 E5.07724 ; infill
G1 E-1.26 ; retract
;WIPE_START
G1 X159.038 Y144.696 E-.54 ; wipe and retract
;WIPE_END
G1 X159.259 Y144.696 F9000
G1 X159.259 Y143.918 ; move to first infill point
G1 X159.745 Y143.918 ; move to first infill point
G1 E1.8 F2400 ;  ; unretract
G1 F3600
G1 X100.678 Y159.745 E2.57836 ; infill
G1 E-1.26 ; retract
;WIPE_START
G1 X101.644 Y159.486 E-.54 ; wipe and retract
;WIPE_END
G1 X101.644 Y159.259 F9000
G1 X102.375 Y159.259 ; move to first infill point
G1 X102.375 Y159.745 ; move to first infill point
G1 E1.8 F2400 ;  ; unretract
G1 F3600
G1 X60.255 Y117.625 E2.51159 ; infill
G1 X60.741 Y117.625 F9000
G1 X60.741 Y118.079 ; move to first infill point
G1 X60.255 Y118.079 ; move to first infill point
G1 F3600
G1 X159.745 Y91.421 E4.34286 ; infill
G1 E-1.26 ; retract
;WIPE_START
G1 X158.779 Y91.68 E-.54 ; wipe and retract
;WIPE_END
G1 X159.259 Y91.68 F9000
G1 X159.259 Y88.033 ; move to first infill point
G1 X159.745 Y88.033 ; move to first infill point
G1 E1.8 F2400 ;  ; unretract
G1 F3600
G1 X131.967 Y60.255 E1.65637 ; infill
G1 E-1.26 ; retract
;WIPE_START
G1 X132.674 Y60.962 E-.54 ; wipe and retract
;WIPE_END
G1 X132.674 Y60.741 F9000
G1 X133.828 Y60.741 ; move to first infill point
G1 X133.828 Y60.255 ; move to first infill point
G1 E1.8 F2400 ;  ; unretract
G1 F3600
G1 X107.17 Y159.745 E4.34286 ; infill
G1 E-1.26 ; retract
;WIPE_START
G1 X107.429 Y158.779 E-.54 ; wipe and retract
;WIPE_END
G1 X107.429 Y159.259 F9000
G1 X96.671 Y159.259 ; move to first infill point
G1 X96.671 Y159.745 ; move to first infill point
G1 E1.8 F2400 ;  ; unretract
G1 F3600
G1 X123.329 Y60.255 E4.34286 ; infill
G1 E-1.26 ; retract
M73 P0 R484
;WIPE_START
G1 X123.07 Y61.221 E-.54 ; wipe and retract
;WIPE_END
G1 X123.07 Y60.741 F9000
G1 X112.83 Y60.741 ; move to first infill point
G1 X112.83 Y60.255 ; move to first infill point
G1 E1.8 F2400 ;  ; unretract
G1 F3600
G1 X86.172 Y159.745 E4.34286 ; infill
G1 E-1.26 ; retract
;WIPE_START
G1 X86.43 Y158.779 E-.54 ; wipe and retract
;WIPE_END
G1 X86.43 Y159.259 F9000
G1 X88.033 Y159.259 ; move to first infill point
G1 X88.033 Y159.745 ; move to first infill point
G1 E1.8 F2400 ;  ; unretract
G1 F3600
G1 X60.255 Y131.967 E1.65637 ; infill
G1 E-1.26 ; retract
;WIPE_START
G1 X60.962 Y132.674 E-.54 ; wipe and retract
;WIPE_END
G1 X60.741 Y132.674 F9000
G1 X60.741 Y128.579 ; move to first infill point
G1 X60.255 Y128.579 ; move to first infill point
G1 E1.8 F2400 ;  ; unretract
G1 F3600
G1 X159.745 Y101.921 E4.34286 ; infill
G1 X159.259 Y101.921 F9000
G1 X159.259 Y102.375 ; move to first infill point
G1 X159.745 Y102.375 ; move to first infill point
G1 F3600
G1 X117.625 Y60.255 E2.51159 ; infill
G1 E-1.26 ; retract
;WIPE_START
G1 X118.332 Y60.962 E-.54 ; wipe and retract
;WIPE_END
G1 X118.332 Y60.741 F9000
G1 X119.322 Y60.741 ; move to first infill point
G1 X119.322 Y60.255 ; move to first infill point
G1 E1.8 F2400 ;  ; unretract
G1 F3600
G1 X60.255 Y76.082 E2.57836 ; infill
G1 E-1.26 ; retract
;WIPE_START
G1 X61.221 Y75.823 E-.54 ; wipe and retract
;WIPE_END
G1 X60.741 Y75.823 F9000
G1 X60.741 Y74.597 ; move to first infill point
G1 X60.255 Y74.597 ; move to first infill point
G1 E1.8 F2400 ;  ; unretract
G1 F3600
G1 X145.403 Y159.745 E5.07724 ; infill
G1 E-1.26 ; retract
;WIPE_START
G1 X144.696 Y159.038 E-.54 ; wipe and retract
;WIPE_END
G1 X144.696 Y159.259 F9000
G1 X149.168 Y159.259 ; move to first infill point
G1 X149.168 Y159.745 ; move to first infill point
G1 E1.8 F2400 ;  ; unretract
G1 F3600
G1 X159.745 Y120.27 E1.72315 ; infill
G1 E-1.26 ; retract
;WIPE_START
G1 X159.486 Y121.236 E-.54 ; wipe and retract
;WIPE_END
G1 X159.259 Y121.236 F9000
G1 X159.259 Y122.919 ; move to first infill point
G1 X159.745 Y122.919 ; move to first infill point
G1 E1.8 F2400 ;  ; unretract
G1 F3600
G1 X60.255 Y149.578 E4.34286 ; infill
G1 E-1.26 ; retract
;WIPE_START
G1 X61.221 Y149.319 E-.54 ; wipe and retract
;WIPE_END
G1 X60.741 Y149.319 F9000
G1 X60.741 Y146.309 ; move to first infill point
G1 X60.255 Y146.309 ; move to first infill point
G1 E1.8 F2400 ;  ; unretract
G1 F3600
G1 X73.691 Y159.745 E.80115 ; infill
G1 E-1.26 ; retract
;WIPE_START
G1 X72.984 Y159.038 E-.54 ; wipe and retract
;WIPE_END
G1 X72.984 Y159.259 F9000
G1 X75.672 Y159.259 ; move to first infill point
G1 X75.672 Y159.745 ; move to first infill point
G1 E1.8 F2400 ;  ; unretract
G1 F3600
G1 X102.33 Y60.255 E4.34286 ; infill
G1 X102.33 Y60.741 F9000
G1 X103.282 Y60.741 ; move to first infill point
G1 X103.282 Y60.255 ; move to first infill point
G1 F3600
G1 X159.745 Y116.718 E3.36681 ; infill
G1 E-1.26 ; retract
;WIPE_START
G1 X159.038 Y116.011 E-.54 ; wipe and retract
;WIPE_END
G1 X159.259 Y116.011 F9000
G1 X159.259 Y112.42 ; move to first infill point
G1 X159.745 Y112.42 ; move to first infill point
G1 E1.8 F2400 ;  ; unretract
G1 F3600
G1 X60.255 Y139.078 E4.34286 ; infill
G1 X60.741 Y139.078 F9000
G1 X60.741 Y138.914 ; move to first infill point
G1 X60.255 Y138.914 ; move to first infill point
G1 F3600
G1 X81.332 Y60.255 E3.43358 ; infill
G1 E-1.26 ; retract
;WIPE_START
G1 X81.073 Y61.221 E-.54 ; wipe and retract
;WIPE_END
G1 X81.073 Y60.741 F9000
G1 X80.138 Y60.741 ; move to first infill point
G1 X80.138 Y60.255 ; move to first infill point
G1 E1.8 F2400 ;  ; unretract
G1 F3600
G1 X60.255 Y65.583 E.86793 ; infill
G1 E-1.26 ; retract
;WIPE_START
G1 X61.221 Y65.324 E-.54 ; wipe and retract
;WIPE_END
G1 X60.741 Y65.324 F9000
G1 X60.741 Y159.259 ; move to first infill point
G1 X61.493 Y159.259 ; move to first infill point
G1 X61.493 Y159.745 ; move to first infill point
G1 E1.8 F2400 ;  ; unretract
G1 F3600
G1 X159.745 Y133.419 E4.2888 ; infill
G1 E-1.26 ; retract
;WIPE_START
G1 X158.779 Y133.677 E-.54 ; wipe and retract
;WIPE_END
G1 X159.259 Y133.677 F9000
G1 X159.259 Y131.06 ; move to first infill point
G1 X159.745 Y131.06 ; move to first infill point
G1 E1.8 F2400 ;  ; unretract
G1 F3600
G1 X88.94 Y60.255 E4.22202 ; infill
G1 E-1.26 ; retract
;WIPE_START
G1 X89.647 Y60.962 E-.54 ; wipe and retract
;WIPE_END
G1 X89.647 Y60.741 F9000
G1 X91.831 Y60.741 ; move to first infill point
G1 X91.831 Y60.255 ; move to first infill point
G1 E1.8 F2400 ;  ; unretract
G1 F3600
G1 X65.173 Y159.745 E4.34286 ; infill
G1 E-1.26 ; retract
;WIPE_START
G1 X65.432 Y158.779 E-.54 ; wipe and retract
;WIPE_END
G1 X65.432 Y159.259 F9000
G1 X159.259 Y60.741 ; move to first infill point
G1 X154.827 Y60.741 ; move to first infill point
G1 X154.827 Y60.255 ; move to first infill point
G1 E1.8 F2400 ;  ; unretract
G1 F3600
G1 X128.169 Y159.745 E4.34286 ; infill
G1 E-1.26 ; retract
;WIPE_START
G1 X128.428 Y158.779 E-.54 ; wipe and retract
;WIPE_END
G1 X128.428 Y159.259 F9000
G1 X131.06 Y159.259 ; move to first infill point
G1 X131.06 Y159.745 ; move to first infill point
G1 E1.8 F2400 ;  ; unretract
G1 F3600
G1 X60.255 Y88.94 E4.22202 ; infill
G1 E-1.26 ; retract
;WIPE_START
G1 X60.962 Y89.647 E-.54 ; wipe and retract
;WIPE_END
G1 X60.741 Y89.647 F9000
G1 X60.741 Y86.581 ; move to first infill point
G1 X60.255 Y86.581 ; move to first infill point
G1 E1.8 F2400 ;  ; unretract
G1 F3600
G1 X158.507 Y60.255 E4.2888 ; infill
; stop printing object Cube id:15 copy 0
M106 S255 ; enable fan
;LAYER_CHANGE
;Z:0.4
;HEIGHT:0.2
;BEFORE_LAYER_CHANGE
;0.4
G92 E0

G1 E-1.26 F3600 ; retract
;WIPE_START
G1 X157.541 Y60.514 E-.54 ; wipe and retract
;WIPE_END
;_SET_FAN_SPEED_CHANGING_LAYER
M140 S55 ; set bed temperature
; printing object Cube id:15 copy 0
G1 X157.541 Y60.741 Z.4 F9000 ; move to first infill point
G1 X158.507 Y60.741 ; move to first infill point
G1 X158.507 Y60.255 ; move to first infill point
G1 E1.8 F2400 ;  ; unretract
G1 F3600
G1 X60.255 Y86.581 E4.2888 ; infill
G1 X60.741 Y86.581 F9000
G1 X60.741 Y88.94 ; move to first infill point
G1 X60.255 Y88.94 ; move to first infill point
G1 F3600
G1 X131.06 Y159.745 E4.22202 ; infill
G1 X131.06 Y159.259 F9000
G1 X128.169 Y159.259 ; move to first infill point
G1 X128.169 Y159.745 ; move to first infill point
G1 F3600
G1 X154.827 Y60.255 E4.34286 ; infill
G1 X154.827 Y60.741 F9000
G1 X159.259 Y159.259 ; move to first infill point
G1 X107.17 Y159.259 ; move to first infill point
G1 X107.17 Y159.745 ; move to first infill point
G1 F3600
G1 X133.828 Y60.255 E4.34286 ; infill
G1 X133.828 Y60.741 F9000
G1 X131.967 Y60.741 ; move to first infill point
G1 X131.967 Y60.255 ; move to first infill point
G1 F3600
G1 X159.745 Y88.033 E1.65637 ; infill
G1 X159.259 Y88.033 F9000
G1 X159.259 Y91.421 ; move to first infill point
G1 X159.745 Y91.421 ; move to first infill point
G1 F3600
G1 X60.255 Y118.079 E4.34286 ; infill
G1 X60.741 Y118.079 F9000
G1 X60.741 Y117.625 ; move to first infill point
G1 X60.255 Y117.625 ; move to first infill point
G1 F3600
G1 X102.375 Y159.745 E2.51159 ; infill
G1 X102.375 Y159.259 F9000
G1 X100.678 Y159.259 ; move to first infill point
G1 X100.678 Y159.745 ; move to first infill point
G1 F3600
G1 X159.745 Y143.918 E2.57836 ; infill
G1 X159.259 Y143.918 F9000
G1 X159.259 Y145.403 ; move to first infill point
G1 X159.745 Y145.403 ; move to first infill point
G1 F3600
G1 X74.597 Y60.255 E5.07724 ; infill
G1 X74.597 Y60.741 F9000
G1 X70.832 Y60.741 ; move to first infill point
G1 X70.832 Y60.255 ; move to first infill point
G1 F3600
G1 X60.255 Y99.73 E1.72315 ; infill
G1 X60.741 Y99.73 F9000
G1 X60.741 Y97.081 ; move to first infill point
G1 X60.255 Y97.081 ; move to first infill point
G1 F3600
G1 X159.745 Y70.422 E4.34286 ; infill
G1 X159.259 Y70.422 F9000
G1 X159.259 Y73.691 ; move to first infill point
G1 X159.745 Y73.691 ; move to first infill point
G1 F3600
G1 X146.309 Y60.255 E.80115 ; infill
G1 X146.309 Y60.741 F9000
G1 X144.328 Y60.741 ; move to first infill point
G1 X144.328 Y60.255 ; move to first infill point
G1 F3600
G1 X117.67 Y159.745 E4.34286 ; infill
G1 X117.67 Y159.259 F9000
G1 X116.718 Y159.259 ; move to first infill point
G1 X116.718 Y159.745 ; move to first infill point
G1 F3600
G1 X60.255 Y103.282 E3.36681 ; infill
G1 X60.741 Y103.282 F9000
M73 P0 R483
G1 X60.741 Y107.58 ; move to first infill point
G1 X60.255 Y107.58 ; move to first infill point
G1 F3600
G1 X159.745 Y80.922 E4.34286 ; infill
G1 X159.259 Y80.922 F9000
G1 X159.259 Y81.086 ; move to first infill point
G1 X159.745 Y81.086 ; move to first infill point
G1 F3600
G1 X138.668 Y159.745 E3.43358 ; infill
G1 X138.668 Y159.259 F9000
G1 X139.862 Y159.259 ; move to first infill point
G1 X139.862 Y159.745 ; move to first infill point
G1 F3600
G1 X159.745 Y154.417 E.86793 ; infill
G1 X159.259 Y154.417 F9000
G1 X159.259 Y159.259 ; move to first infill point
G1 X159.745 Y159.745 ; move to first infill point
G1 F3600
G1 X60.255 Y60.255 E5.93246 ; infill
G1 X60.741 Y60.741 F9000
G1 X60.741 Y65.583 ; move to first infill point
G1 X60.255 Y65.583 ; move to first infill point
G1 F3600
G1 X80.138 Y60.255 E.86793 ; infill
G1 X80.138 Y60.741 F9000
G1 X81.332 Y60.741 ; move to first infill point
G1 X81.332 Y60.255 ; move to first infill point
G1 F3600
G1 X60.255 Y138.914 E3.43358 ; infill
G1 X60.741 Y138.914 F9000
G1 X60.741 Y139.078 ; move to first infill point
G1 X60.255 Y139.078 ; move to first infill point
G1 F3600
G1 X159.745 Y112.42 E4.34286 ; infill
G1 X159.259 Y112.42 F9000
G1 X159.259 Y116.718 ; move to first infill point
G1 X159.745 Y116.718 ; move to first infill point
G1 F3600
G1 X103.282 Y60.255 E3.36681 ; infill
G1 X103.282 Y60.741 F9000
G1 X102.33 Y60.741 ; move to first infill point
G1 X102.33 Y60.255 ; move to first infill point
G1 F3600
G1 X75.672 Y159.745 E4.34286 ; infill
G1 X75.672 Y159.259 F9000
G1 X73.691 Y159.259 ; move to first infill point
G1 X73.691 Y159.745 ; move to first infill point
G1 F3600
G1 X60.255 Y146.309 E.80115 ; infill
G1 X60.741 Y146.309 F9000
G1 X60.741 Y149.578 ; move to first infill point
G1 X60.255 Y149.578 ; move to first infill point
G1 F3600
G1 X159.745 Y122.919 E4.34286 ; infill
G1 X159.259 Y122.919 F9000
G1 X159.259 Y120.27 ; move to first infill point
G1 X159.745 Y120.27 ; move to first infill point
G1 F3600
G1 X149.168 Y159.745 E1.72315 ; infill
G1 X149.168 Y159.259 F9000
G1 X145.403 Y159.259 ; move to first infill point
G1 X145.403 Y159.745 ; move to first infill point
G1 F3600
G1 X60.255 Y74.597 E5.07724 ; infill
G1 X60.741 Y74.597 F9000
